 ( CAMmill GRBL Postprocessor )
 ( Ver: 20150830 - by onekk )
 ( GRBL Support only G61 mode )
 ( Version < 0.9i build 20150529 )
 ( must delete the G61 from this file )
 ( otherwise it raise an error )
G21 (Metric/mm)
G40 (No Offsets)
G90 (Absolute-Mode)
G61
F100
 (--------------------------------------------------)
 (Object: #9)
 (Layer: 0)
 (Overcut: 0)
 (Depth: -6.300000)
 (Offset: Inside)
 (Tool-Num: 1)
 (Tool-Diameter: 3.00)
 (Tool-Speed: 12000)
 (--------------------------------------------------)
G00 X28.111 Y28.111 Z2.0
G00 X34.298 Y34.298
G00 Z1.0
G01 Z-2.0
G01 X34.174 Y34.448 F1000
G01 X34.082 Y34.62
G01 X34.026 Y34.806
G01 X34.007 Y35.0
G01 X34.026 Y35.193
G01 X34.082 Y35.379
G01 X34.174 Y35.551
G01 X34.298 Y35.701
G01 X34.448 Y35.825
G01 X34.62 Y35.917
G01 X34.806 Y35.973
G01 X35.0 Y35.992
G01 X35.193 Y35.973
G01 X35.379 Y35.917
G01 X35.551 Y35.825
G01 X35.701 Y35.701
G01 X35.825 Y35.551
G01 X35.917 Y35.379
G01 X35.973 Y35.193
G01 X35.992 Y35.0
G01 X35.973 Y34.806
G01 X35.917 Y34.62
G01 X35.825 Y34.448
G01 X35.701 Y34.298
G01 X35.551 Y34.174
G01 X35.379 Y34.082
G01 X35.193 Y34.026
G01 X35.0 Y34.007
G01 X34.806 Y34.026
G01 X34.62 Y34.082
G01 X34.448 Y34.174
G01 X34.298 Y34.298
G01 Z-4.0 F100
G01 X34.174 Y34.448 F1000
G01 X34.082 Y34.62
G01 X34.026 Y34.806
G01 X34.007 Y35.0
G01 X34.026 Y35.193
G01 X34.082 Y35.379
G01 X34.174 Y35.551
G01 X34.298 Y35.701
G01 X34.448 Y35.825
G01 X34.62 Y35.917
G01 X34.806 Y35.973
G01 X35.0 Y35.992
G01 X35.193 Y35.973
G01 X35.379 Y35.917
G01 X35.551 Y35.825
G01 X35.701 Y35.701
G01 X35.825 Y35.551
G01 X35.917 Y35.379
G01 X35.973 Y35.193
G01 X35.992 Y35.0
G01 X35.973 Y34.806
G01 X35.917 Y34.62
G01 X35.825 Y34.448
G01 X35.701 Y34.298
G01 X35.551 Y34.174
G01 X35.379 Y34.082
G01 X35.193 Y34.026
G01 X35.0 Y34.007
G01 X34.806 Y34.026
G01 X34.62 Y34.082
G01 X34.448 Y34.174
G01 X34.298 Y34.298
G01 Z-6.0 F100
G01 X34.174 Y34.448 F1000
G01 X34.082 Y34.62
G01 X34.026 Y34.806
G01 X34.007 Y35.0
G01 X34.026 Y35.193
G01 X34.082 Y35.379
G01 X34.174 Y35.551
G01 X34.298 Y35.701
G01 X34.448 Y35.825
G01 X34.62 Y35.917
G01 X34.806 Y35.973
G01 X35.0 Y35.992
G01 X35.193 Y35.973
G01 X35.379 Y35.917
G01 X35.551 Y35.825
G01 X35.701 Y35.701
G01 X35.825 Y35.551
G01 X35.917 Y35.379
G01 X35.973 Y35.193
G01 X35.992 Y35.0
G01 X35.973 Y34.806
G01 X35.917 Y34.62
G01 X35.825 Y34.448
G01 X35.701 Y34.298
G01 X35.551 Y34.174
G01 X35.379 Y34.082
G01 X35.193 Y34.026
G01 X35.0 Y34.007
G01 X34.806 Y34.026
G01 X34.62 Y34.082
G01 X34.448 Y34.174
G01 X34.298 Y34.298
G01 Z-6.3 F100
G01 X34.174 Y34.448 F1000
G01 X34.082 Y34.62
G01 X34.026 Y34.806
G01 X34.007 Y35.0
G01 X34.026 Y35.193
G01 X34.082 Y35.379
G01 X34.174 Y35.551
G01 X34.298 Y35.701
G01 X34.448 Y35.825
G01 X34.62 Y35.917
G01 X34.806 Y35.973
G01 X35.0 Y35.992
G01 X35.193 Y35.973
G01 X35.379 Y35.917
G01 X35.551 Y35.825
G01 X35.701 Y35.701
G01 X35.825 Y35.551
G01 X35.917 Y35.379
G01 X35.973 Y35.193
G01 X35.992 Y35.0
G01 X35.973 Y34.806
G01 X35.917 Y34.62
G01 X35.825 Y34.448
G01 X35.701 Y34.298
G01 X35.551 Y34.174
G01 X35.379 Y34.082
G01 X35.193 Y34.026
G01 X35.0 Y34.007
G01 X34.806 Y34.026
G01 X34.62 Y34.082
G01 X34.448 Y34.174
G01 X34.298 Y34.298
G00 Z2.0
 (--------------------------------------------------)
 (Object: #7)
 (Layer: 0)
 (Overcut: 0)
 (Depth: -6.300000)
 (Offset: Inside)
 (Tool-Num: 1)
 (Tool-Diameter: 3.00)
 (Tool-Speed: 12000)
 (--------------------------------------------------)

G00
G00 X42.434 Y42.434
G00 Z1.0
G01 Z-2.0 F100
G01 X42.422 Y42.448 F1000
G01 X42.414 Y42.464
G01 X42.409 Y42.481
G01 X42.407 Y42.5
G01 X42.409 Y42.518
G01 X42.414 Y42.535
G01 X42.422 Y42.551
G01 X42.434 Y42.565
G01 X42.448 Y42.577
G01 X42.464 Y42.585
G01 X42.481 Y42.59
G01 X42.5 Y42.592
G01 X42.518 Y42.59
G01 X42.535 Y42.585
G01 X42.551 Y42.577
G01 X42.565 Y42.565
G01 X42.577 Y42.551
G01 X42.585 Y42.535
G01 X42.59 Y42.518
G01 X42.592 Y42.5
G01 X42.59 Y42.481
G01 X42.585 Y42.464
G01 X42.577 Y42.448
G01 X42.565 Y42.434
G01 X42.551 Y42.422
G01 X42.535 Y42.414
G01 X42.518 Y42.409
G01 X42.5 Y42.407
G01 X42.481 Y42.409
G01 X42.464 Y42.414
G01 X42.448 Y42.422
G01 X42.434 Y42.434
G01 Z-4.0 F100
G01 X42.422 Y42.448 F1000
G01 X42.414 Y42.464
G01 X42.409 Y42.481
G01 X42.407 Y42.5
G01 X42.409 Y42.518
G01 X42.414 Y42.535
G01 X42.422 Y42.551
G01 X42.434 Y42.565
G01 X42.448 Y42.577
G01 X42.464 Y42.585
G01 X42.481 Y42.59
G01 X42.5 Y42.592
G01 X42.518 Y42.59
G01 X42.535 Y42.585
G01 X42.551 Y42.577
G01 X42.565 Y42.565
G01 X42.577 Y42.551
G01 X42.585 Y42.535
G01 X42.59 Y42.518
G01 X42.592 Y42.5
G01 X42.59 Y42.481
G01 X42.585 Y42.464
G01 X42.577 Y42.448
G01 X42.565 Y42.434
G01 X42.551 Y42.422
G01 X42.535 Y42.414
G01 X42.518 Y42.409
G01 X42.5 Y42.407
G01 X42.481 Y42.409
G01 X42.464 Y42.414
G01 X42.448 Y42.422
G01 X42.434 Y42.434
G01 Z-6.0 F100
G01 X42.422 Y42.448 F1000
G01 X42.414 Y42.464
G01 X42.409 Y42.481
G01 X42.407 Y42.5
G01 X42.409 Y42.518
G01 X42.414 Y42.535
G01 X42.422 Y42.551
G01 X42.434 Y42.565
G01 X42.448 Y42.577
G01 X42.464 Y42.585
G01 X42.481 Y42.59
G01 X42.5 Y42.592
G01 X42.518 Y42.59
G01 X42.535 Y42.585
G01 X42.551 Y42.577
G01 X42.565 Y42.565
G01 X42.577 Y42.551
G01 X42.585 Y42.535
G01 X42.59 Y42.518
G01 X42.592 Y42.5
G01 X42.59 Y42.481
G01 X42.585 Y42.464
G01 X42.577 Y42.448
G01 X42.565 Y42.434
G01 X42.551 Y42.422
G01 X42.535 Y42.414
G01 X42.518 Y42.409
G01 X42.5 Y42.407
G01 X42.481 Y42.409
G01 X42.464 Y42.414
G01 X42.448 Y42.422
G01 X42.434 Y42.434
G01 Z-6.3 F100
G01 X42.422 Y42.448 F1000
G01 X42.414 Y42.464
G01 X42.409 Y42.481
G01 X42.407 Y42.5
G01 X42.409 Y42.518
G01 X42.414 Y42.535
G01 X42.422 Y42.551
G01 X42.434 Y42.565
G01 X42.448 Y42.577
G01 X42.464 Y42.585
G01 X42.481 Y42.59
G01 X42.5 Y42.592
G01 X42.518 Y42.59
G01 X42.535 Y42.585
G01 X42.551 Y42.577
G01 X42.565 Y42.565
G01 X42.577 Y42.551
G01 X42.585 Y42.535
G01 X42.59 Y42.518
G01 X42.592 Y42.5
G01 X42.59 Y42.481
G01 X42.585 Y42.464
G01 X42.577 Y42.448
G01 X42.565 Y42.434
G01 X42.551 Y42.422
G01 X42.535 Y42.414
G01 X42.518 Y42.409
G01 X42.5 Y42.407
G01 X42.481 Y42.409
G01 X42.464 Y42.414
G01 X42.448 Y42.422
G01 X42.434 Y42.434
G00 Z2.0
 (--------------------------------------------------)
 (Object: #5)
 (Layer: 0)
 (Pocket-Operation)
 (--------------------------------------------------)
G00
G00 X63.75 Y58.0
G00 Z1.0
G01 Z-1.5 F100
G01 X86.25 F1000
G01 Y59.5
G01 X63.75
G01 X62.25 Y61.0
G01 X87.75
G01 X89.25 Y62.5
G01 X60.75
G00 Z2.0
G00 X51.0 Y64.0
G00 Z1.0
G01 Z-1.5 F100
G01 X99.0 F1000
G01 X99.75 Y65.5
G01 X50.25
G01 Y67.0
G01 X70.5
G01 X68.25 Y68.5
G01 X50.25
G01 Y70.0
G01 X67.5
G01 X66.75 Y71.5
G01 X50.25
G01 Y73.0
G01 X66.0
G01 Y74.5
G01 X50.25
G01 Y76.0
G01 X66.0
G01 Y77.5
G01 X50.25
G01 Y79.0
G01 X66.75
G01 X67.5 Y80.5
G01 X50.25
G01 Y82.0
G01 X69.0
G00 Z2.0
G00 X72.0 Y83.5
G00 Z1.0
G01 Z-1.5 F100
G01 X50.25 F1000
G01 Y85.0
G01 X99.75
G01 Y83.5
G01 X78.0
G00 Z2.0
G00 X81.0 Y82.0
G00 Z1.0
G01 Z-1.5 F100
G01 X99.75 F1000
G01 Y80.5
G01 X82.5
G01 X83.25 Y79.0
G01 X99.75
G01 Y77.5
G01 X84.0
G01 Y76.0
G01 X99.75
G01 Y74.5
G01 X84.0
G01 Y73.0
G01 X99.75
G01 Y71.5
G01 X83.25
G01 X82.5 Y70.0
G01 X99.75
G01 Y68.5
G01 X81.75
G01 X79.5 Y67.0
G01 X99.75
G00 Z2.0
G00 X90.75 Y86.5
G00 Z1.0
G01 Z-1.5 F100
G01 X59.25 F1000
G01 X61.5 Y88.0
G01 X88.5
G01 X87.0 Y89.5
G01 X63.0
G01 X63.75 Y91.0
G01 X86.25
G01 X85.5 Y92.5
G01 X64.5
 (--------------------------------------------------)
 (Object: #5)
 (Layer: 0)
 (Overcut: 0)
 (Depth: -1.500000)
 (Offset: Inside)
 (Tool-Num: 1)
 (Tool-Diameter: 3.00)
 (Tool-Speed: 12000)
 (--------------------------------------------------)

G00 Z2.0
G00 X50.428 Y63.62
G00 Z1.0
G01 Z-1.5 F100
G01 X50.17 Y63.758 F1000
G01 X49.944 Y63.944
G01 X49.758 Y64.17
G01 X49.62 Y64.428
G01 X49.535 Y64.708
G01 X49.5 Y65.073
G01 Y84.926
G01 X49.535 Y85.291
G01 X49.62 Y85.571
G01 X49.758 Y85.829
G01 X49.944 Y86.055
G01 X50.17 Y86.241
G01 X50.428 Y86.379
G01 X50.708 Y86.464
G01 X51.073 Y86.5
G01 X56.0
G03 X56.147 Y86.507 I0.0 J1.5
G01 X57.317 Y86.622
G03 X57.605 Y86.679 I-0.147 J1.492
G01 X58.731 Y87.021
G03 X59.003 Y87.133 I-0.435 J1.435
G01 X60.04 Y87.688
G03 X60.285 Y87.851 I-0.707 J1.322
G01 X61.194 Y88.597
G03 X61.402 Y88.805 I-0.951 J1.159
G01 X62.148 Y89.714
G03 X62.311 Y89.959 I-1.159 J0.951
G01 X62.866 Y90.996
G03 X62.978 Y91.268 I-1.322 J0.707
G01 X63.32 Y92.394
G03 X63.377 Y92.682 I-1.435 J0.435
G01 X63.492 Y93.852
G03 X63.5 Y94.0 I-1.492 J0.147
G01 Y94.926
G01 X63.507 Y94.998
G01 X63.506 Y94.997
G01 X63.506 Y94.996
G01 X63.505 Y94.994
G01 X63.503 Y94.993
G01 X63.502 Y94.993
G01 X63.501 Y94.992
G01 X63.5 Y94.992
G01 X63.498 Y94.992
G01 X63.497 Y94.993
G01 X63.496 Y94.993
G01 X63.494 Y94.995
G01 X63.493 Y94.996
G01 X63.493 Y94.997
G01 X63.492 Y94.998
G01 X63.507 Y94.853
G03 X65.0 Y93.5 I1.492 J0.146
G01 X85.0
G03 X86.492 Y94.853 I0.0 J1.5
G01 X86.507 Y94.998
G01 X86.506 Y94.997
G01 X86.506 Y94.996
G01 X86.505 Y94.995
G01 X86.503 Y94.993
G01 X86.502 Y94.993
G01 X86.501 Y94.992
G01 X86.5 Y94.992
G01 X86.498 Y94.992
G01 X86.497 Y94.993
G01 X86.496 Y94.993
G01 X86.494 Y94.994
G01 X86.493 Y94.996
G01 X86.493 Y94.997
G01 X86.492 Y94.998
G01 X86.5 Y94.926
G01 Y94.0
G03 X86.507 Y93.852 I1.5 J0.0
G01 X86.622 Y92.682
G03 X86.679 Y92.394 I1.492 J0.147
G01 X87.021 Y91.268
G03 X87.133 Y90.996 I1.435 J0.435
G01 X87.688 Y89.959
G03 X87.851 Y89.714 I1.322 J0.707
G01 X88.597 Y88.805
G03 X88.805 Y88.597 I1.159 J0.951
G01 X89.714 Y87.851
G03 X89.959 Y87.688 I0.951 J1.159
G01 X90.996 Y87.133
G03 X91.268 Y87.021 I0.707 J1.322
G01 X92.394 Y86.679
G03 X92.682 Y86.622 I0.435 J1.435
G01 X93.852 Y86.507
G03 X94.0 Y86.5 I0.147 J1.492
G01 X98.926
G01 X99.291 Y86.464
G01 X99.571 Y86.379
G01 X99.829 Y86.241
G01 X100.054 Y86.055
G01 X100.241 Y85.828
G01 X100.379 Y85.571
G01 X100.463 Y85.291
G01 X100.5 Y84.925
G01 Y65.074
G01 X100.463 Y64.708
G01 X100.379 Y64.428
G01 X100.241 Y64.171
G01 X100.054 Y63.944
G01 X99.829 Y63.758
G01 X99.571 Y63.62
G01 X99.291 Y63.535
G01 X98.926 Y63.5
G01 X94.0
G03 X93.852 Y63.492 I0.0 J-1.5
G01 X92.682 Y63.377
G03 X92.394 Y63.32 I0.147 J-1.492
G01 X91.268 Y62.978
G03 X90.996 Y62.866 I0.435 J-1.435
G01 X89.959 Y62.311
G03 X89.714 Y62.148 I0.707 J-1.322
G01 X88.805 Y61.402
G03 X88.597 Y61.194 I0.951 J-1.159
G01 X87.851 Y60.285
G03 X87.688 Y60.04 I1.159 J-0.951
G01 X87.133 Y59.003
G03 X87.021 Y58.731 I1.322 J-0.707
G01 X86.679 Y57.605
G03 X86.622 Y57.317 I1.435 J-0.435
G01 X86.507 Y56.147
G03 X86.5 Y56.0 I1.492 J-0.147
G01 Y55.073
G01 X86.492 Y55.001
G01 X86.493 Y55.002
G01 X86.493 Y55.003
G01 X86.494 Y55.005
G01 X86.496 Y55.006
G01 X86.497 Y55.006
G01 X86.498 Y55.007
G01 X86.5 Y55.007
G01 X86.501 Y55.007
G01 X86.502 Y55.006
G01 X86.503 Y55.006
G01 X86.505 Y55.004
G01 X86.506 Y55.003
G01 X86.506 Y55.002
G01 X86.507 Y55.001
G01 X86.492 Y55.146
G03 X85.0 Y56.5 I-1.492 J-0.146
G01 X65.0
G03 X63.507 Y55.146 I0.0 J-1.5
G01 X63.492 Y55.001
G01 X63.493 Y55.002
G01 X63.493 Y55.003
G01 X63.494 Y55.004
G01 X63.496 Y55.006
G01 X63.497 Y55.006
G01 X63.498 Y55.007
G01 X63.5 Y55.007
G01 X63.501 Y55.007
G01 X63.502 Y55.006
G01 X63.503 Y55.006
G01 X63.505 Y55.005
G01 X63.506 Y55.003
G01 X63.506 Y55.002
G01 X63.507 Y55.001
G01 X63.5 Y55.073
G01 Y56.0
G03 X63.492 Y56.147 I-1.5 J0.0
G01 X63.377 Y57.317
G03 X63.32 Y57.605 I-1.492 J-0.147
G01 X62.978 Y58.731
G03 X62.866 Y59.003 I-1.435 J-0.435
G01 X62.311 Y60.04
G03 X62.148 Y60.285 I-1.322 J-0.707
G01 X61.402 Y61.194
G03 X61.194 Y61.402 I-1.159 J-0.951
G01 X60.285 Y62.148
G03 X60.04 Y62.311 I-0.951 J-1.159
G01 X59.003 Y62.866
G03 X58.731 Y62.978 I-0.707 J-1.322
G01 X57.605 Y63.32
G03 X57.317 Y63.377 I-0.435 J-1.435
G01 X56.147 Y63.492
G03 X56.0 Y63.5 I-0.147 J-1.492
G01 X51.073
G01 X50.708 Y63.535
G01 X50.428 Y63.62
G00 Z2.0
 (--------------------------------------------------)
 (Object: #4)
 (Layer: 0)
 (Overcut: 0)
 (Depth: -6.300000)
 (Offset: Inside)
 (Tool-Num: 1)
 (Tool-Diameter: 3.00)
 (Tool-Speed: 12000)
 (--------------------------------------------------)

G00
G00 X42.517 Y107.409
G00 Z1.0
G01 Z-2.0 F100
G01 X42.5 Y107.407 F1000
G01 X42.482 Y107.409
G01 X42.464 Y107.414
G01 X42.448 Y107.423
G01 X42.433 Y107.435
G01 X42.422 Y107.448
G01 X42.414 Y107.464
G01 X42.409 Y107.482
G01 X42.407 Y107.5
G01 X42.409 Y107.517
G01 X42.414 Y107.535
G01 X42.422 Y107.551
G01 X42.433 Y107.564
G01 X42.448 Y107.576
G01 X42.464 Y107.585
G01 X42.482 Y107.59
G01 X42.5 Y107.592
G01 X42.517 Y107.59
G01 X42.535 Y107.585
G01 X42.551 Y107.576
G01 X42.566 Y107.564
G01 X42.577 Y107.551
G01 X42.585 Y107.535
G01 X42.591 Y107.517
G01 X42.592 Y107.5
G01 X42.591 Y107.482
G01 X42.585 Y107.464
G01 X42.577 Y107.448
G01 X42.566 Y107.435
G01 X42.551 Y107.423
G01 X42.535 Y107.414
G01 X42.517 Y107.409
G01 Z-4.0 F100
G01 X42.5 Y107.407 F1000
G01 X42.482 Y107.409
G01 X42.464 Y107.414
G01 X42.448 Y107.423
G01 X42.433 Y107.435
G01 X42.422 Y107.448
G01 X42.414 Y107.464
G01 X42.409 Y107.482
G01 X42.407 Y107.5
G01 X42.409 Y107.517
G01 X42.414 Y107.535
G01 X42.422 Y107.551
G01 X42.433 Y107.564
G01 X42.448 Y107.576
G01 X42.464 Y107.585
G01 X42.482 Y107.59
G01 X42.5 Y107.592
G01 X42.517 Y107.59
G01 X42.535 Y107.585
G01 X42.551 Y107.576
G01 X42.566 Y107.564
G01 X42.577 Y107.551
G01 X42.585 Y107.535
G01 X42.591 Y107.517
G01 X42.592 Y107.5
G01 X42.591 Y107.482
G01 X42.585 Y107.464
G01 X42.577 Y107.448
G01 X42.566 Y107.435
G01 X42.551 Y107.423
G01 X42.535 Y107.414
G01 X42.517 Y107.409
G01 Z-6.0 F100
G01 X42.5 Y107.407 F1000
G01 X42.482 Y107.409
G01 X42.464 Y107.414
G01 X42.448 Y107.423
G01 X42.433 Y107.435
G01 X42.422 Y107.448
G01 X42.414 Y107.464
G01 X42.409 Y107.482
G01 X42.407 Y107.5
G01 X42.409 Y107.517
G01 X42.414 Y107.535
G01 X42.422 Y107.551
G01 X42.433 Y107.564
G01 X42.448 Y107.576
G01 X42.464 Y107.585
G01 X42.482 Y107.59
G01 X42.5 Y107.592
G01 X42.517 Y107.59
G01 X42.535 Y107.585
G01 X42.551 Y107.576
G01 X42.566 Y107.564
G01 X42.577 Y107.551
G01 X42.585 Y107.535
G01 X42.591 Y107.517
G01 X42.592 Y107.5
G01 X42.591 Y107.482
G01 X42.585 Y107.464
G01 X42.577 Y107.448
G01 X42.566 Y107.435
G01 X42.551 Y107.423
G01 X42.535 Y107.414
G01 X42.517 Y107.409
G01 Z-6.3 F100
G01 X42.5 Y107.407 F1000
G01 X42.482 Y107.409
G01 X42.464 Y107.414
G01 X42.448 Y107.423
G01 X42.433 Y107.435
G01 X42.422 Y107.448
G01 X42.414 Y107.464
G01 X42.409 Y107.482
G01 X42.407 Y107.5
G01 X42.409 Y107.517
G01 X42.414 Y107.535
G01 X42.422 Y107.551
G01 X42.433 Y107.564
G01 X42.448 Y107.576
G01 X42.464 Y107.585
G01 X42.482 Y107.59
G01 X42.5 Y107.592
G01 X42.517 Y107.59
G01 X42.535 Y107.585
G01 X42.551 Y107.576
G01 X42.566 Y107.564
G01 X42.577 Y107.551
G01 X42.585 Y107.535
G01 X42.591 Y107.517
G01 X42.592 Y107.5
G01 X42.591 Y107.482
G01 X42.585 Y107.464
G01 X42.577 Y107.448
G01 X42.566 Y107.435
G01 X42.551 Y107.423
G01 X42.535 Y107.414
G01 X42.517 Y107.409
G00 Z2.0
 (--------------------------------------------------)
 (Object: #2)
 (Layer: 0)
 (Overcut: 0)
 (Depth: -6.300000)
 (Offset: Inside)
 (Tool-Num: 1)
 (Tool-Diameter: 3.00)
 (Tool-Speed: 12000)
 (--------------------------------------------------)

G00
G00 X35.701 Y114.297
G00 Z1.0
G01 Z-2.0 F100
G01 X35.551 Y114.174 F1000
G01 X35.38 Y114.082
G01 X35.194 Y114.026
G01 X35.0 Y114.007
G01 X34.805 Y114.026
G01 X34.619 Y114.082
G01 X34.448 Y114.174
G01 X34.298 Y114.297
G01 X34.174 Y114.448
G01 X34.082 Y114.619
G01 X34.026 Y114.806
G01 X34.007 Y115.0
G01 X34.026 Y115.193
G01 X34.082 Y115.38
G01 X34.174 Y115.551
G01 X34.298 Y115.702
G01 X34.448 Y115.825
G01 X34.619 Y115.917
G01 X34.805 Y115.973
G01 X35.0 Y115.992
G01 X35.194 Y115.973
G01 X35.38 Y115.917
G01 X35.551 Y115.825
G01 X35.701 Y115.702
G01 X35.825 Y115.551
G01 X35.917 Y115.38
G01 X35.973 Y115.193
G01 X35.992 Y115.0
G01 X35.973 Y114.806
G01 X35.917 Y114.619
G01 X35.825 Y114.448
G01 X35.701 Y114.297
G01 Z-4.0 F100
G01 X35.551 Y114.174 F1000
G01 X35.38 Y114.082
G01 X35.194 Y114.026
G01 X35.0 Y114.007
G01 X34.805 Y114.026
G01 X34.619 Y114.082
G01 X34.448 Y114.174
G01 X34.298 Y114.297
G01 X34.174 Y114.448
G01 X34.082 Y114.619
G01 X34.026 Y114.806
G01 X34.007 Y115.0
G01 X34.026 Y115.193
G01 X34.082 Y115.38
G01 X34.174 Y115.551
G01 X34.298 Y115.702
G01 X34.448 Y115.825
G01 X34.619 Y115.917
G01 X34.805 Y115.973
G01 X35.0 Y115.992
G01 X35.194 Y115.973
G01 X35.38 Y115.917
G01 X35.551 Y115.825
G01 X35.701 Y115.702
G01 X35.825 Y115.551
G01 X35.917 Y115.38
G01 X35.973 Y115.193
G01 X35.992 Y115.0
G01 X35.973 Y114.806
G01 X35.917 Y114.619
G01 X35.825 Y114.448
G01 X35.701 Y114.297
G01 Z-6.0 F100
G01 X35.551 Y114.174 F1000
G01 X35.38 Y114.082
G01 X35.194 Y114.026
G01 X35.0 Y114.007
G01 X34.805 Y114.026
G01 X34.619 Y114.082
G01 X34.448 Y114.174
G01 X34.298 Y114.297
G01 X34.174 Y114.448
G01 X34.082 Y114.619
G01 X34.026 Y114.806
G01 X34.007 Y115.0
G01 X34.026 Y115.193
G01 X34.082 Y115.38
G01 X34.174 Y115.551
G01 X34.298 Y115.702
G01 X34.448 Y115.825
G01 X34.619 Y115.917
G01 X34.805 Y115.973
G01 X35.0 Y115.992
G01 X35.194 Y115.973
G01 X35.38 Y115.917
G01 X35.551 Y115.825
G01 X35.701 Y115.702
G01 X35.825 Y115.551
G01 X35.917 Y115.38
G01 X35.973 Y115.193
G01 X35.992 Y115.0
G01 X35.973 Y114.806
G01 X35.917 Y114.619
G01 X35.825 Y114.448
G01 X35.701 Y114.297
G01 Z-6.3 F100
G01 X35.551 Y114.174 F1000
G01 X35.38 Y114.082
G01 X35.194 Y114.026
G01 X35.0 Y114.007
G01 X34.805 Y114.026
G01 X34.619 Y114.082
G01 X34.448 Y114.174
G01 X34.298 Y114.297
G01 X34.174 Y114.448
G01 X34.082 Y114.619
G01 X34.026 Y114.806
G01 X34.007 Y115.0
G01 X34.026 Y115.193
G01 X34.082 Y115.38
G01 X34.174 Y115.551
G01 X34.298 Y115.702
G01 X34.448 Y115.825
G01 X34.619 Y115.917
G01 X34.805 Y115.973
G01 X35.0 Y115.992
G01 X35.194 Y115.973
G01 X35.38 Y115.917
G01 X35.551 Y115.825
G01 X35.701 Y115.702
G01 X35.825 Y115.551
G01 X35.917 Y115.38
G01 X35.973 Y115.193
G01 X35.992 Y115.0
G01 X35.973 Y114.806
G01 X35.917 Y114.619
G01 X35.825 Y114.448
G01 X35.701 Y114.297
G00 Z2.0
 (--------------------------------------------------)
 (Object: #3)
 (Layer: 0)
 (Overcut: 0)
 (Depth: -6.300000)
 (Offset: Inside)
 (Tool-Num: 1)
 (Tool-Diameter: 3.00)
 (Tool-Speed: 12000)
 (--------------------------------------------------)

G00
G00 X107.407 Y107.5
G00 Z1.0
G01 Z-2.0 F100
G01 X107.409 Y107.517 F1000
G01 X107.414 Y107.535
G01 X107.422 Y107.551
G01 X107.434 Y107.565
G01 X107.448 Y107.577
G01 X107.464 Y107.585
G01 X107.482 Y107.59
G01 X107.5 Y107.592
G01 X107.517 Y107.59
G01 X107.535 Y107.585
G01 X107.551 Y107.577
G01 X107.565 Y107.565
G01 X107.577 Y107.551
G01 X107.585 Y107.535
G01 X107.59 Y107.517
G01 X107.592 Y107.5
G01 X107.59 Y107.482
G01 X107.585 Y107.464
G01 X107.577 Y107.448
G01 X107.565 Y107.434
G01 X107.551 Y107.422
G01 X107.535 Y107.414
G01 X107.517 Y107.409
G01 X107.5 Y107.407
G01 X107.482 Y107.409
G01 X107.464 Y107.414
G01 X107.448 Y107.422
G01 X107.434 Y107.434
G01 X107.422 Y107.448
G01 X107.414 Y107.464
G01 X107.409 Y107.482
G01 X107.407 Y107.5
G01 Z-4.0 F100
G01 X107.409 Y107.517 F1000
G01 X107.414 Y107.535
G01 X107.422 Y107.551
G01 X107.434 Y107.565
G01 X107.448 Y107.577
G01 X107.464 Y107.585
G01 X107.482 Y107.59
G01 X107.5 Y107.592
G01 X107.517 Y107.59
G01 X107.535 Y107.585
G01 X107.551 Y107.577
G01 X107.565 Y107.565
G01 X107.577 Y107.551
G01 X107.585 Y107.535
G01 X107.59 Y107.517
G01 X107.592 Y107.5
G01 X107.59 Y107.482
G01 X107.585 Y107.464
G01 X107.577 Y107.448
G01 X107.565 Y107.434
G01 X107.551 Y107.422
G01 X107.535 Y107.414
G01 X107.517 Y107.409
G01 X107.5 Y107.407
G01 X107.482 Y107.409
G01 X107.464 Y107.414
G01 X107.448 Y107.422
G01 X107.434 Y107.434
G01 X107.422 Y107.448
G01 X107.414 Y107.464
G01 X107.409 Y107.482
G01 X107.407 Y107.5
G01 Z-6.0 F100
G01 X107.409 Y107.517 F1000
G01 X107.414 Y107.535
G01 X107.422 Y107.551
G01 X107.434 Y107.565
G01 X107.448 Y107.577
G01 X107.464 Y107.585
G01 X107.482 Y107.59
G01 X107.5 Y107.592
G01 X107.517 Y107.59
G01 X107.535 Y107.585
G01 X107.551 Y107.577
G01 X107.565 Y107.565
G01 X107.577 Y107.551
G01 X107.585 Y107.535
G01 X107.59 Y107.517
G01 X107.592 Y107.5
G01 X107.59 Y107.482
G01 X107.585 Y107.464
G01 X107.577 Y107.448
G01 X107.565 Y107.434
G01 X107.551 Y107.422
G01 X107.535 Y107.414
G01 X107.517 Y107.409
G01 X107.5 Y107.407
G01 X107.482 Y107.409
G01 X107.464 Y107.414
G01 X107.448 Y107.422
G01 X107.434 Y107.434
G01 X107.422 Y107.448
G01 X107.414 Y107.464
G01 X107.409 Y107.482
G01 X107.407 Y107.5
G01 Z-6.3 F100
G01 X107.409 Y107.517 F1000
G01 X107.414 Y107.535
G01 X107.422 Y107.551
G01 X107.434 Y107.565
G01 X107.448 Y107.577
G01 X107.464 Y107.585
G01 X107.482 Y107.59
G01 X107.5 Y107.592
G01 X107.517 Y107.59
G01 X107.535 Y107.585
G01 X107.551 Y107.577
G01 X107.565 Y107.565
G01 X107.577 Y107.551
G01 X107.585 Y107.535
G01 X107.59 Y107.517
G01 X107.592 Y107.5
G01 X107.59 Y107.482
G01 X107.585 Y107.464
G01 X107.577 Y107.448
G01 X107.565 Y107.434
G01 X107.551 Y107.422
G01 X107.535 Y107.414
G01 X107.517 Y107.409
G01 X107.5 Y107.407
G01 X107.482 Y107.409
G01 X107.464 Y107.414
G01 X107.448 Y107.422
G01 X107.434 Y107.434
G01 X107.422 Y107.448
G01 X107.414 Y107.464
G01 X107.409 Y107.482
G01 X107.407 Y107.5
G00 Z2.0
 (--------------------------------------------------)
 (Object: #1)
 (Layer: 0)
 (Overcut: 0)
 (Depth: -6.300000)
 (Offset: Inside)
 (Tool-Num: 1)
 (Tool-Diameter: 3.00)
 (Tool-Speed: 12000)
 (--------------------------------------------------)

G00
G00 X114.297 Y114.297
G00 Z1.0
G01 Z-2.0 F100
G01 X114.174 Y114.448 F1000
G01 X114.082 Y114.619
G01 X114.026 Y114.805
G01 X114.007 Y115.0
G01 X114.026 Y115.194
G01 X114.082 Y115.38
G01 X114.174 Y115.551
G01 X114.297 Y115.702
G01 X114.448 Y115.825
G01 X114.619 Y115.917
G01 X114.805 Y115.973
G01 X115.0 Y115.992
G01 X115.194 Y115.973
G01 X115.38 Y115.917
G01 X115.551 Y115.825
G01 X115.702 Y115.702
G01 X115.825 Y115.551
G01 X115.917 Y115.38
G01 X115.973 Y115.194
G01 X115.992 Y115.0
G01 X115.973 Y114.805
G01 X115.917 Y114.619
G01 X115.825 Y114.448
G01 X115.702 Y114.297
G01 X115.551 Y114.174
G01 X115.38 Y114.082
G01 X115.194 Y114.026
G01 X115.0 Y114.007
G01 X114.805 Y114.026
G01 X114.619 Y114.082
G01 X114.448 Y114.174
G01 X114.297 Y114.297
G01 Z-4.0 F100
G01 X114.174 Y114.448 F1000
G01 X114.082 Y114.619
G01 X114.026 Y114.805
G01 X114.007 Y115.0
G01 X114.026 Y115.194
G01 X114.082 Y115.38
G01 X114.174 Y115.551
G01 X114.297 Y115.702
G01 X114.448 Y115.825
G01 X114.619 Y115.917
G01 X114.805 Y115.973
G01 X115.0 Y115.992
G01 X115.194 Y115.973
G01 X115.38 Y115.917
G01 X115.551 Y115.825
G01 X115.702 Y115.702
G01 X115.825 Y115.551
G01 X115.917 Y115.38
G01 X115.973 Y115.194
G01 X115.992 Y115.0
G01 X115.973 Y114.805
G01 X115.917 Y114.619
G01 X115.825 Y114.448
G01 X115.702 Y114.297
G01 X115.551 Y114.174
G01 X115.38 Y114.082
G01 X115.194 Y114.026
G01 X115.0 Y114.007
G01 X114.805 Y114.026
G01 X114.619 Y114.082
G01 X114.448 Y114.174
G01 X114.297 Y114.297
G01 Z-6.0 F100
G01 X114.174 Y114.448 F1000
G01 X114.082 Y114.619
G01 X114.026 Y114.805
G01 X114.007 Y115.0
G01 X114.026 Y115.194
G01 X114.082 Y115.38
G01 X114.174 Y115.551
G01 X114.297 Y115.702
G01 X114.448 Y115.825
G01 X114.619 Y115.917
G01 X114.805 Y115.973
G01 X115.0 Y115.992
G01 X115.194 Y115.973
G01 X115.38 Y115.917
G01 X115.551 Y115.825
G01 X115.702 Y115.702
G01 X115.825 Y115.551
G01 X115.917 Y115.38
G01 X115.973 Y115.194
G01 X115.992 Y115.0
G01 X115.973 Y114.805
G01 X115.917 Y114.619
G01 X115.825 Y114.448
G01 X115.702 Y114.297
G01 X115.551 Y114.174
G01 X115.38 Y114.082
G01 X115.194 Y114.026
G01 X115.0 Y114.007
G01 X114.805 Y114.026
G01 X114.619 Y114.082
G01 X114.448 Y114.174
G01 X114.297 Y114.297
G01 Z-6.3 F100
G01 X114.174 Y114.448 F1000
G01 X114.082 Y114.619
G01 X114.026 Y114.805
G01 X114.007 Y115.0
G01 X114.026 Y115.194
G01 X114.082 Y115.38
G01 X114.174 Y115.551
G01 X114.297 Y115.702
G01 X114.448 Y115.825
G01 X114.619 Y115.917
G01 X114.805 Y115.973
G01 X115.0 Y115.992
G01 X115.194 Y115.973
G01 X115.38 Y115.917
G01 X115.551 Y115.825
G01 X115.702 Y115.702
G01 X115.825 Y115.551
G01 X115.917 Y115.38
G01 X115.973 Y115.194
G01 X115.992 Y115.0
G01 X115.973 Y114.805
G01 X115.917 Y114.619
G01 X115.825 Y114.448
G01 X115.702 Y114.297
G01 X115.551 Y114.174
G01 X115.38 Y114.082
G01 X115.194 Y114.026
G01 X115.0 Y114.007
G01 X114.805 Y114.026
G01 X114.619 Y114.082
G01 X114.448 Y114.174
G01 X114.297 Y114.297
G00 Z2.0
 (--------------------------------------------------)
 (Object: #12)
 (Layer: 0)
 (Overcut: 0)
 (Depth: -6.300000)
 (Offset: Inside)
 (Tool-Num: 1)
 (Tool-Diameter: 3.00)
 (Tool-Speed: 12000)
 (--------------------------------------------------)

G00
G00 X133.107 Y115.0
G00 Z1.0
G01 Z-2.0 F100
G01 X133.126 Y115.194 F1000
G01 X133.182 Y115.38
G01 X133.274 Y115.551
G01 X133.397 Y115.702
G01 X133.548 Y115.825
G01 X133.719 Y115.917
G01 X133.905 Y115.973
G01 X134.1 Y115.992
G01 X134.294 Y115.973
G01 X134.48 Y115.917
G01 X134.651 Y115.825
G01 X134.802 Y115.702
G01 X134.925 Y115.551
G01 X135.017 Y115.38
G01 X135.073 Y115.194
G01 X135.092 Y115.0
G01 X135.073 Y114.805
G01 X135.017 Y114.619
G01 X134.925 Y114.448
G01 X134.802 Y114.297
G01 X134.651 Y114.174
G01 X134.48 Y114.082
G01 X134.294 Y114.026
G01 X134.1 Y114.007
G01 X133.905 Y114.026
G01 X133.719 Y114.082
G01 X133.548 Y114.174
G01 X133.397 Y114.297
G01 X133.274 Y114.448
G01 X133.182 Y114.619
G01 X133.126 Y114.805
G01 X133.107 Y115.0
G01 Z-4.0 F100
G01 X133.126 Y115.194 F1000
G01 X133.182 Y115.38
G01 X133.274 Y115.551
G01 X133.397 Y115.702
G01 X133.548 Y115.825
G01 X133.719 Y115.917
G01 X133.905 Y115.973
G01 X134.1 Y115.992
G01 X134.294 Y115.973
G01 X134.48 Y115.917
G01 X134.651 Y115.825
G01 X134.802 Y115.702
G01 X134.925 Y115.551
G01 X135.017 Y115.38
G01 X135.073 Y115.194
G01 X135.092 Y115.0
G01 X135.073 Y114.805
G01 X135.017 Y114.619
G01 X134.925 Y114.448
G01 X134.802 Y114.297
G01 X134.651 Y114.174
G01 X134.48 Y114.082
G01 X134.294 Y114.026
G01 X134.1 Y114.007
G01 X133.905 Y114.026
G01 X133.719 Y114.082
G01 X133.548 Y114.174
G01 X133.397 Y114.297
G01 X133.274 Y114.448
G01 X133.182 Y114.619
G01 X133.126 Y114.805
G01 X133.107 Y115.0
G01 Z-6.0 F100
G01 X133.126 Y115.194 F1000
G01 X133.182 Y115.38
G01 X133.274 Y115.551
G01 X133.397 Y115.702
G01 X133.548 Y115.825
G01 X133.719 Y115.917
G01 X133.905 Y115.973
G01 X134.1 Y115.992
G01 X134.294 Y115.973
G01 X134.48 Y115.917
G01 X134.651 Y115.825
G01 X134.802 Y115.702
G01 X134.925 Y115.551
G01 X135.017 Y115.38
G01 X135.073 Y115.194
G01 X135.092 Y115.0
G01 X135.073 Y114.805
G01 X135.017 Y114.619
G01 X134.925 Y114.448
G01 X134.802 Y114.297
G01 X134.651 Y114.174
G01 X134.48 Y114.082
G01 X134.294 Y114.026
G01 X134.1 Y114.007
G01 X133.905 Y114.026
G01 X133.719 Y114.082
G01 X133.548 Y114.174
G01 X133.397 Y114.297
G01 X133.274 Y114.448
G01 X133.182 Y114.619
G01 X133.126 Y114.805
G01 X133.107 Y115.0
G01 Z-6.3 F100
G01 X133.126 Y115.194 F1000
G01 X133.182 Y115.38
G01 X133.274 Y115.551
G01 X133.397 Y115.702
G01 X133.548 Y115.825
G01 X133.719 Y115.917
G01 X133.905 Y115.973
G01 X134.1 Y115.992
G01 X134.294 Y115.973
G01 X134.48 Y115.917
G01 X134.651 Y115.825
G01 X134.802 Y115.702
G01 X134.925 Y115.551
G01 X135.017 Y115.38
G01 X135.073 Y115.194
G01 X135.092 Y115.0
G01 X135.073 Y114.805
G01 X135.017 Y114.619
G01 X134.925 Y114.448
G01 X134.802 Y114.297
G01 X134.651 Y114.174
G01 X134.48 Y114.082
G01 X134.294 Y114.026
G01 X134.1 Y114.007
G01 X133.905 Y114.026
G01 X133.719 Y114.082
G01 X133.548 Y114.174
G01 X133.397 Y114.297
G01 X133.274 Y114.448
G01 X133.182 Y114.619
G01 X133.126 Y114.805
G01 X133.107 Y115.0
G00 Z2.0
 (--------------------------------------------------)
 (Object: #14)
 (Layer: 0)
 (Overcut: 0)
 (Depth: -6.300000)
 (Offset: Inside)
 (Tool-Num: 1)
 (Tool-Diameter: 3.00)
 (Tool-Speed: 12000)
 (--------------------------------------------------)

G00
G00 X141.534 Y107.565
G00 Z1.0
G01 Z-2.0 F100
G01 X141.548 Y107.577 F1000
G01 X141.564 Y107.585
G01 X141.582 Y107.59
G01 X141.6 Y107.592
G01 X141.617 Y107.59
G01 X141.635 Y107.585
G01 X141.651 Y107.577
G01 X141.665 Y107.565
G01 X141.677 Y107.551
G01 X141.685 Y107.535
G01 X141.69 Y107.517
G01 X141.692 Y107.5
G01 X141.69 Y107.482
G01 X141.685 Y107.464
G01 X141.677 Y107.448
G01 X141.665 Y107.434
G01 X141.651 Y107.422
G01 X141.635 Y107.414
G01 X141.617 Y107.409
G01 X141.6 Y107.407
G01 X141.582 Y107.409
G01 X141.564 Y107.414
G01 X141.548 Y107.422
G01 X141.534 Y107.434
G01 X141.522 Y107.448
G01 X141.514 Y107.464
G01 X141.509 Y107.482
G01 X141.507 Y107.5
G01 X141.509 Y107.517
G01 X141.514 Y107.535
G01 X141.522 Y107.551
G01 X141.534 Y107.565
G01 Z-4.0 F100
G01 X141.548 Y107.577 F1000
G01 X141.564 Y107.585
G01 X141.582 Y107.59
G01 X141.6 Y107.592
G01 X141.617 Y107.59
G01 X141.635 Y107.585
G01 X141.651 Y107.577
G01 X141.665 Y107.565
G01 X141.677 Y107.551
G01 X141.685 Y107.535
G01 X141.69 Y107.517
G01 X141.692 Y107.5
G01 X141.69 Y107.482
G01 X141.685 Y107.464
G01 X141.677 Y107.448
G01 X141.665 Y107.434
G01 X141.651 Y107.422
G01 X141.635 Y107.414
G01 X141.617 Y107.409
G01 X141.6 Y107.407
G01 X141.582 Y107.409
G01 X141.564 Y107.414
G01 X141.548 Y107.422
G01 X141.534 Y107.434
G01 X141.522 Y107.448
G01 X141.514 Y107.464
G01 X141.509 Y107.482
G01 X141.507 Y107.5
G01 X141.509 Y107.517
G01 X141.514 Y107.535
G01 X141.522 Y107.551
G01 X141.534 Y107.565
G01 Z-6.0 F100
G01 X141.548 Y107.577 F1000
G01 X141.564 Y107.585
G01 X141.582 Y107.59
G01 X141.6 Y107.592
G01 X141.617 Y107.59
G01 X141.635 Y107.585
G01 X141.651 Y107.577
G01 X141.665 Y107.565
G01 X141.677 Y107.551
G01 X141.685 Y107.535
G01 X141.69 Y107.517
G01 X141.692 Y107.5
G01 X141.69 Y107.482
G01 X141.685 Y107.464
G01 X141.677 Y107.448
G01 X141.665 Y107.434
G01 X141.651 Y107.422
G01 X141.635 Y107.414
G01 X141.617 Y107.409
G01 X141.6 Y107.407
G01 X141.582 Y107.409
G01 X141.564 Y107.414
G01 X141.548 Y107.422
G01 X141.534 Y107.434
G01 X141.522 Y107.448
G01 X141.514 Y107.464
G01 X141.509 Y107.482
G01 X141.507 Y107.5
G01 X141.509 Y107.517
G01 X141.514 Y107.535
G01 X141.522 Y107.551
G01 X141.534 Y107.565
G01 Z-6.3 F100
G01 X141.548 Y107.577 F1000
G01 X141.564 Y107.585
G01 X141.582 Y107.59
G01 X141.6 Y107.592
G01 X141.617 Y107.59
G01 X141.635 Y107.585
G01 X141.651 Y107.577
G01 X141.665 Y107.565
G01 X141.677 Y107.551
G01 X141.685 Y107.535
G01 X141.69 Y107.517
G01 X141.692 Y107.5
G01 X141.69 Y107.482
G01 X141.685 Y107.464
G01 X141.677 Y107.448
G01 X141.665 Y107.434
G01 X141.651 Y107.422
G01 X141.635 Y107.414
G01 X141.617 Y107.409
G01 X141.6 Y107.407
G01 X141.582 Y107.409
G01 X141.564 Y107.414
G01 X141.548 Y107.422
G01 X141.534 Y107.434
G01 X141.522 Y107.448
G01 X141.514 Y107.464
G01 X141.509 Y107.482
G01 X141.507 Y107.5
G01 X141.509 Y107.517
G01 X141.514 Y107.535
G01 X141.522 Y107.551
G01 X141.534 Y107.565
G00 Z2.0
 (--------------------------------------------------)
 (Object: #16)
 (Layer: 0)
 (Pocket-Operation)
 (--------------------------------------------------)
G00
G00 X163.6 Y92.5
G00 Z1.0
G01 Z-1.5 F100
G01 X184.6 F1000
G01 X185.35 Y91.0
G01 X162.85
G01 X162.1 Y89.5
G01 X186.1
G01 X187.6 Y88.0
G01 X160.6
G01 X158.35 Y86.5
G01 X189.85
G00 Z2.0
G00 X198.85 Y85.0
G00 Z1.0
G01 Z-1.5 F100
G01 X149.35 F1000
G01 Y83.5
G01 X171.1
G00 Z2.0
G00 X177.1
G00 Z1.0
G01 Z-1.5 F100
G01 X198.85 F1000
G01 Y82.0
G01 X180.1
G01 X181.6 Y80.5
G01 X198.85
G01 Y79.0
G01 X182.35
G01 X183.1 Y77.5
G01 X198.85
G01 Y76.0
G01 X183.1
G01 Y74.5
G01 X198.85
G01 Y73.0
G01 X183.1
G01 X182.35 Y71.5
G01 X198.85
G01 Y70.0
G01 X181.6
G01 X180.85 Y68.5
G01 X198.85
G01 Y67.0
G01 X178.6
G00 Z2.0
G00 X169.6
G00 Z1.0
G01 Z-1.5 F100
G01 X149.35 F1000
G01 Y65.5
G01 X198.85
G01 X198.1 Y64.0
G01 X150.1
G00 Z2.0
G00 X159.85 Y62.5
G00 Z1.0
G01 Z-1.5 F100
G01 X188.35 F1000
G01 X186.85 Y61.0
G01 X161.35
G01 X162.85 Y59.5
G01 X185.35
G01 Y58.0
G01 X162.85
G00 Z2.0
G00 X167.35 Y68.5
G00 Z1.0
G01 Z-1.5 F100
G01 X149.35 F1000
G01 Y70.0
G01 X166.6
G01 X165.85 Y71.5
G01 X149.35
G01 Y73.0
G01 X165.1
G01 Y74.5
G01 X149.35
G01 Y76.0
G01 X165.1
G01 Y77.5
G01 X149.35
G01 Y79.0
G01 X165.85
G01 X166.6 Y80.5
G01 X149.35
G01 Y82.0
G01 X168.1
 (--------------------------------------------------)
 (Object: #16)
 (Layer: 0)
 (Overcut: 0)
 (Depth: -1.500000)
 (Offset: Inside)
 (Tool-Num: 1)
 (Tool-Diameter: 3.00)
 (Tool-Speed: 12000)
 (--------------------------------------------------)

G00 Z2.0
G00 X149.528 Y86.379
G00 Z1.0
G01 Z-1.5 F100
G01 X149.809 Y86.464 F1000
G01 X150.173 Y86.5
G01 X155.1
G03 X155.246 Y86.507 I0.0 J1.5
G01 X156.417 Y86.622
G03 X156.706 Y86.679 I-0.146 J1.492
G01 X157.831 Y87.021
G03 X158.103 Y87.133 I-0.435 J1.435
G01 X159.14 Y87.688
G03 X159.384 Y87.851 I-0.707 J1.322
G01 X160.294 Y88.597
G03 X160.502 Y88.805 I-0.951 J1.159
G01 X161.248 Y89.715
G03 X161.412 Y89.959 I-1.159 J0.951
G01 X161.966 Y90.997
G03 X162.078 Y91.267 I-1.323 J0.706
G01 X162.42 Y92.393
G03 X162.477 Y92.682 I-1.435 J0.436
G01 X162.592 Y93.853
G03 X162.6 Y94.0 I-1.492 J0.146
G01 Y94.925
G01 X162.607 Y94.998
G01 X162.606 Y94.997
G01 X162.606 Y94.996
G01 X162.604 Y94.994
G01 X162.603 Y94.993
G01 X162.603 Y94.993
G01 X162.601 Y94.992
G01 X162.6 Y94.992
G01 X162.598 Y94.992
G01 X162.596 Y94.993
G01 X162.596 Y94.993
G01 X162.595 Y94.994
G01 X162.593 Y94.996
G01 X162.593 Y94.997
G01 X162.592 Y94.998
G01 X162.607 Y94.852
G03 X164.1 Y93.5 I1.492 J0.147
G01 X184.1
G03 X185.592 Y94.852 I0.0 J1.5
G01 X185.607 Y94.998
G01 X185.606 Y94.997
G01 X185.606 Y94.996
G01 X185.604 Y94.994
G01 X185.603 Y94.993
G01 X185.603 Y94.993
G01 X185.601 Y94.992
G01 X185.6 Y94.992
G01 X185.598 Y94.992
G01 X185.596 Y94.993
G01 X185.596 Y94.993
G01 X185.595 Y94.994
G01 X185.593 Y94.996
G01 X185.593 Y94.997
G01 X185.592 Y94.998
G01 X185.6 Y94.925
G01 Y94.0
G03 X185.607 Y93.853 I1.5 J-0.0
G01 X185.722 Y92.682
G03 X185.779 Y92.393 I1.492 J0.146
G01 X186.121 Y91.267
G03 X186.233 Y90.997 I1.435 J0.436
G01 X186.787 Y89.959
G03 X186.951 Y89.715 I1.323 J0.706
G01 X187.697 Y88.805
G03 X187.905 Y88.597 I1.159 J0.951
G01 X188.815 Y87.851
G03 X189.059 Y87.688 I0.951 J1.159
G01 X190.096 Y87.133
G03 X190.368 Y87.021 I0.707 J1.322
G01 X191.493 Y86.679
G03 X191.782 Y86.622 I0.435 J1.435
G01 X192.953 Y86.507
G03 X193.1 Y86.5 I0.146 J1.492
G01 X198.026
G01 X198.39 Y86.464
G01 X198.671 Y86.379
G01 X198.929 Y86.241
G01 X199.154 Y86.055
G01 X199.341 Y85.828
G01 X199.479 Y85.571
G01 X199.563 Y85.291
G01 X199.6 Y84.925
G01 Y65.074
G01 X199.563 Y64.708
G01 X199.479 Y64.428
G01 X199.341 Y64.171
G01 X199.154 Y63.944
G01 X198.929 Y63.758
G01 X198.671 Y63.62
G01 X198.39 Y63.535
G01 X198.026 Y63.5
G01 X193.1
G03 X192.953 Y63.492 I-0.0 J-1.5
G01 X191.782 Y63.377
G03 X191.493 Y63.32 I0.146 J-1.492
G01 X190.368 Y62.978
G03 X190.096 Y62.866 I0.435 J-1.435
G01 X189.059 Y62.311
G03 X188.815 Y62.148 I0.707 J-1.322
G01 X187.905 Y61.402
G03 X187.697 Y61.194 I0.951 J-1.159
G01 X186.951 Y60.284
G03 X186.787 Y60.04 I1.159 J-0.951
G01 X186.233 Y59.002
G03 X186.121 Y58.732 I1.323 J-0.706
G01 X185.779 Y57.606
G03 X185.722 Y57.317 I1.435 J-0.436
G01 X185.607 Y56.146
G03 X185.6 Y56.0 I1.492 J-0.146
G01 Y55.074
G01 X185.592 Y55.001
G01 X185.593 Y55.002
G01 X185.593 Y55.003
G01 X185.595 Y55.005
G01 X185.596 Y55.006
G01 X185.596 Y55.006
G01 X185.598 Y55.007
G01 X185.6 Y55.007
G01 X185.601 Y55.007
G01 X185.603 Y55.006
G01 X185.603 Y55.006
G01 X185.604 Y55.005
G01 X185.606 Y55.003
G01 X185.606 Y55.002
G01 X185.607 Y55.001
G01 X185.592 Y55.147
G03 X184.1 Y56.5 I-1.492 J-0.147
G01 X164.1
G03 X162.607 Y55.147 I0.0 J-1.5
G01 X162.592 Y55.001
G01 X162.593 Y55.002
G01 X162.593 Y55.003
G01 X162.595 Y55.005
G01 X162.596 Y55.006
G01 X162.596 Y55.006
G01 X162.598 Y55.007
G01 X162.6 Y55.007
G01 X162.601 Y55.007
G01 X162.603 Y55.006
G01 X162.603 Y55.006
G01 X162.604 Y55.005
G01 X162.606 Y55.003
G01 X162.606 Y55.002
G01 X162.607 Y55.001
G01 X162.6 Y55.074
G01 Y56.0
G03 X162.592 Y56.146 I-1.5 J0.0
G01 X162.477 Y57.317
G03 X162.42 Y57.606 I-1.492 J-0.146
G01 X162.078 Y58.732
G03 X161.966 Y59.002 I-1.435 J-0.436
G01 X161.412 Y60.04
G03 X161.248 Y60.284 I-1.323 J-0.706
G01 X160.502 Y61.194
G03 X160.294 Y61.402 I-1.159 J-0.951
G01 X159.384 Y62.148
G03 X159.14 Y62.311 I-0.951 J-1.159
G01 X158.103 Y62.866
G03 X157.831 Y62.978 I-0.707 J-1.322
G01 X156.706 Y63.32
G03 X156.417 Y63.377 I-0.435 J-1.435
G01 X155.246 Y63.492
G03 X155.1 Y63.5 I-0.146 J-1.492
G01 X150.173
G01 X149.809 Y63.535
G01 X149.528 Y63.62
G01 X149.27 Y63.758
G01 X149.045 Y63.944
G01 X148.858 Y64.171
G01 X148.72 Y64.428
G01 X148.636 Y64.708
G01 X148.6 Y65.074
G01 Y84.925
G01 X148.636 Y85.291
G01 X148.72 Y85.571
G01 X148.858 Y85.828
G01 X149.045 Y86.055
G01 X149.27 Y86.241
G01 X149.528 Y86.379
G00 Z2.0
 (--------------------------------------------------)
 (Object: #19)
 (Layer: 0)
 (Overcut: 0)
 (Depth: -6.300000)
 (Offset: Inside)
 (Tool-Num: 1)
 (Tool-Diameter: 3.00)
 (Tool-Speed: 12000)
 (--------------------------------------------------)

G00
G00 X141.617 Y42.591
G00 Z1.0
G01 Z-2.0 F100
G01 X141.635 Y42.585 F1000
G01 X141.651 Y42.577
G01 X141.664 Y42.566
G01 X141.676 Y42.551
G01 X141.685 Y42.535
G01 X141.69 Y42.517
G01 X141.692 Y42.5
G01 X141.69 Y42.482
G01 X141.685 Y42.464
G01 X141.676 Y42.448
G01 X141.664 Y42.433
G01 X141.651 Y42.422
G01 X141.635 Y42.414
G01 X141.617 Y42.409
G01 X141.6 Y42.407
G01 X141.582 Y42.409
G01 X141.564 Y42.414
G01 X141.548 Y42.422
G01 X141.535 Y42.433
G01 X141.523 Y42.448
G01 X141.514 Y42.464
G01 X141.509 Y42.482
G01 X141.507 Y42.5
G01 X141.509 Y42.517
G01 X141.514 Y42.535
G01 X141.523 Y42.551
G01 X141.535 Y42.566
G01 X141.548 Y42.577
G01 X141.564 Y42.585
G01 X141.582 Y42.591
G01 X141.6 Y42.592
G01 X141.617 Y42.591
G01 Z-4.0 F100
G01 X141.635 Y42.585 F1000
G01 X141.651 Y42.577
G01 X141.664 Y42.566
G01 X141.676 Y42.551
G01 X141.685 Y42.535
G01 X141.69 Y42.517
G01 X141.692 Y42.5
G01 X141.69 Y42.482
G01 X141.685 Y42.464
G01 X141.676 Y42.448
G01 X141.664 Y42.433
G01 X141.651 Y42.422
G01 X141.635 Y42.414
G01 X141.617 Y42.409
G01 X141.6 Y42.407
G01 X141.582 Y42.409
G01 X141.564 Y42.414
G01 X141.548 Y42.422
G01 X141.535 Y42.433
G01 X141.523 Y42.448
G01 X141.514 Y42.464
G01 X141.509 Y42.482
G01 X141.507 Y42.5
G01 X141.509 Y42.517
G01 X141.514 Y42.535
G01 X141.523 Y42.551
G01 X141.535 Y42.566
G01 X141.548 Y42.577
G01 X141.564 Y42.585
G01 X141.582 Y42.591
G01 X141.6 Y42.592
G01 X141.617 Y42.591
G01 Z-6.0 F100
G01 X141.635 Y42.585 F1000
G01 X141.651 Y42.577
G01 X141.664 Y42.566
G01 X141.676 Y42.551
G01 X141.685 Y42.535
G01 X141.69 Y42.517
G01 X141.692 Y42.5
G01 X141.69 Y42.482
G01 X141.685 Y42.464
G01 X141.676 Y42.448
G01 X141.664 Y42.433
G01 X141.651 Y42.422
G01 X141.635 Y42.414
G01 X141.617 Y42.409
G01 X141.6 Y42.407
G01 X141.582 Y42.409
G01 X141.564 Y42.414
G01 X141.548 Y42.422
G01 X141.535 Y42.433
G01 X141.523 Y42.448
G01 X141.514 Y42.464
G01 X141.509 Y42.482
G01 X141.507 Y42.5
G01 X141.509 Y42.517
G01 X141.514 Y42.535
G01 X141.523 Y42.551
G01 X141.535 Y42.566
G01 X141.548 Y42.577
G01 X141.564 Y42.585
G01 X141.582 Y42.591
G01 X141.6 Y42.592
G01 X141.617 Y42.591
G01 Z-6.3 F100
G01 X141.635 Y42.585 F1000
G01 X141.651 Y42.577
G01 X141.664 Y42.566
G01 X141.676 Y42.551
G01 X141.685 Y42.535
G01 X141.69 Y42.517
G01 X141.692 Y42.5
G01 X141.69 Y42.482
G01 X141.685 Y42.464
G01 X141.676 Y42.448
G01 X141.664 Y42.433
G01 X141.651 Y42.422
G01 X141.635 Y42.414
G01 X141.617 Y42.409
G01 X141.6 Y42.407
G01 X141.582 Y42.409
G01 X141.564 Y42.414
G01 X141.548 Y42.422
G01 X141.535 Y42.433
G01 X141.523 Y42.448
G01 X141.514 Y42.464
G01 X141.509 Y42.482
G01 X141.507 Y42.5
G01 X141.509 Y42.517
G01 X141.514 Y42.535
G01 X141.523 Y42.551
G01 X141.535 Y42.566
G01 X141.548 Y42.577
G01 X141.564 Y42.585
G01 X141.582 Y42.591
G01 X141.6 Y42.592
G01 X141.617 Y42.591
G00 Z2.0
 (--------------------------------------------------)
 (Object: #21)
 (Layer: 0)
 (Overcut: 0)
 (Depth: -6.300000)
 (Offset: Inside)
 (Tool-Num: 1)
 (Tool-Diameter: 3.00)
 (Tool-Speed: 12000)
 (--------------------------------------------------)

G00
G00 X134.802 Y35.701
G00 Z1.0
G01 Z-2.0 F100
G01 X134.925 Y35.551 F1000
G01 X135.017 Y35.38
G01 X135.073 Y35.194
G01 X135.092 Y35.0
G01 X135.073 Y34.805
G01 X135.017 Y34.619
G01 X134.925 Y34.448
G01 X134.802 Y34.298
G01 X134.651 Y34.174
G01 X134.48 Y34.082
G01 X134.293 Y34.026
G01 X134.1 Y34.007
G01 X133.906 Y34.026
G01 X133.719 Y34.082
G01 X133.548 Y34.174
G01 X133.397 Y34.298
G01 X133.274 Y34.448
G01 X133.182 Y34.619
G01 X133.126 Y34.805
G01 X133.107 Y35.0
G01 X133.126 Y35.194
G01 X133.182 Y35.38
G01 X133.274 Y35.551
G01 X133.397 Y35.701
G01 X133.548 Y35.825
G01 X133.719 Y35.917
G01 X133.906 Y35.973
G01 X134.1 Y35.992
G01 X134.293 Y35.973
G01 X134.48 Y35.917
G01 X134.651 Y35.825
G01 X134.802 Y35.701
G01 Z-4.0 F100
G01 X134.925 Y35.551 F1000
G01 X135.017 Y35.38
G01 X135.073 Y35.194
G01 X135.092 Y35.0
G01 X135.073 Y34.805
G01 X135.017 Y34.619
G01 X134.925 Y34.448
G01 X134.802 Y34.298
G01 X134.651 Y34.174
G01 X134.48 Y34.082
G01 X134.293 Y34.026
G01 X134.1 Y34.007
G01 X133.906 Y34.026
G01 X133.719 Y34.082
G01 X133.548 Y34.174
G01 X133.397 Y34.298
G01 X133.274 Y34.448
G01 X133.182 Y34.619
G01 X133.126 Y34.805
G01 X133.107 Y35.0
G01 X133.126 Y35.194
G01 X133.182 Y35.38
G01 X133.274 Y35.551
G01 X133.397 Y35.701
G01 X133.548 Y35.825
G01 X133.719 Y35.917
G01 X133.906 Y35.973
G01 X134.1 Y35.992
G01 X134.293 Y35.973
G01 X134.48 Y35.917
G01 X134.651 Y35.825
G01 X134.802 Y35.701
G01 Z-6.0 F100
G01 X134.925 Y35.551 F1000
G01 X135.017 Y35.38
G01 X135.073 Y35.194
G01 X135.092 Y35.0
G01 X135.073 Y34.805
G01 X135.017 Y34.619
G01 X134.925 Y34.448
G01 X134.802 Y34.298
G01 X134.651 Y34.174
G01 X134.48 Y34.082
G01 X134.293 Y34.026
G01 X134.1 Y34.007
G01 X133.906 Y34.026
G01 X133.719 Y34.082
G01 X133.548 Y34.174
G01 X133.397 Y34.298
G01 X133.274 Y34.448
G01 X133.182 Y34.619
G01 X133.126 Y34.805
G01 X133.107 Y35.0
G01 X133.126 Y35.194
G01 X133.182 Y35.38
G01 X133.274 Y35.551
G01 X133.397 Y35.701
G01 X133.548 Y35.825
G01 X133.719 Y35.917
G01 X133.906 Y35.973
G01 X134.1 Y35.992
G01 X134.293 Y35.973
G01 X134.48 Y35.917
G01 X134.651 Y35.825
G01 X134.802 Y35.701
G01 Z-6.3 F100
G01 X134.925 Y35.551 F1000
G01 X135.017 Y35.38
G01 X135.073 Y35.194
G01 X135.092 Y35.0
G01 X135.073 Y34.805
G01 X135.017 Y34.619
G01 X134.925 Y34.448
G01 X134.802 Y34.298
G01 X134.651 Y34.174
G01 X134.48 Y34.082
G01 X134.293 Y34.026
G01 X134.1 Y34.007
G01 X133.906 Y34.026
G01 X133.719 Y34.082
G01 X133.548 Y34.174
G01 X133.397 Y34.298
G01 X133.274 Y34.448
G01 X133.182 Y34.619
G01 X133.126 Y34.805
G01 X133.107 Y35.0
G01 X133.126 Y35.194
G01 X133.182 Y35.38
G01 X133.274 Y35.551
G01 X133.397 Y35.701
G01 X133.548 Y35.825
G01 X133.719 Y35.917
G01 X133.906 Y35.973
G01 X134.1 Y35.992
G01 X134.293 Y35.973
G01 X134.48 Y35.917
G01 X134.651 Y35.825
G01 X134.802 Y35.701
G00 Z2.0
 (--------------------------------------------------)
 (Object: #10)
 (Layer: 0)
 (Overcut: 0)
 (Depth: -6.300000)
 (Offset: Inside)
 (Tool-Num: 1)
 (Tool-Diameter: 3.00)
 (Tool-Speed: 12000)
 (--------------------------------------------------)

G00
G00 X115.992 Y35.0
G00 Z1.0
G01 Z-2.0 F100
G01 X115.973 Y34.805 F1000
G01 X115.917 Y34.619
G01 X115.825 Y34.448
G01 X115.702 Y34.298
G01 X115.551 Y34.174
G01 X115.38 Y34.082
G01 X115.193 Y34.026
G01 X115.0 Y34.007
G01 X114.806 Y34.026
G01 X114.619 Y34.082
G01 X114.448 Y34.174
G01 X114.297 Y34.298
G01 X114.174 Y34.448
G01 X114.082 Y34.619
G01 X114.026 Y34.805
G01 X114.007 Y35.0
G01 X114.026 Y35.194
G01 X114.082 Y35.38
G01 X114.174 Y35.551
G01 X114.297 Y35.701
G01 X114.448 Y35.825
G01 X114.619 Y35.917
G01 X114.806 Y35.973
G01 X115.0 Y35.992
G01 X115.193 Y35.973
G01 X115.38 Y35.917
G01 X115.551 Y35.825
G01 X115.702 Y35.701
G01 X115.825 Y35.551
G01 X115.917 Y35.38
G01 X115.973 Y35.194
G01 X115.992 Y35.0
G01 Z-4.0 F100
G01 X115.973 Y34.805 F1000
G01 X115.917 Y34.619
G01 X115.825 Y34.448
G01 X115.702 Y34.298
G01 X115.551 Y34.174
G01 X115.38 Y34.082
G01 X115.193 Y34.026
G01 X115.0 Y34.007
G01 X114.806 Y34.026
G01 X114.619 Y34.082
G01 X114.448 Y34.174
G01 X114.297 Y34.298
G01 X114.174 Y34.448
G01 X114.082 Y34.619
G01 X114.026 Y34.805
G01 X114.007 Y35.0
G01 X114.026 Y35.194
G01 X114.082 Y35.38
G01 X114.174 Y35.551
G01 X114.297 Y35.701
G01 X114.448 Y35.825
G01 X114.619 Y35.917
G01 X114.806 Y35.973
G01 X115.0 Y35.992
G01 X115.193 Y35.973
G01 X115.38 Y35.917
G01 X115.551 Y35.825
G01 X115.702 Y35.701
G01 X115.825 Y35.551
G01 X115.917 Y35.38
G01 X115.973 Y35.194
G01 X115.992 Y35.0
G01 Z-6.0 F100
G01 X115.973 Y34.805 F1000
G01 X115.917 Y34.619
G01 X115.825 Y34.448
G01 X115.702 Y34.298
G01 X115.551 Y34.174
G01 X115.38 Y34.082
G01 X115.193 Y34.026
G01 X115.0 Y34.007
G01 X114.806 Y34.026
G01 X114.619 Y34.082
G01 X114.448 Y34.174
G01 X114.297 Y34.298
G01 X114.174 Y34.448
G01 X114.082 Y34.619
G01 X114.026 Y34.805
G01 X114.007 Y35.0
G01 X114.026 Y35.194
G01 X114.082 Y35.38
G01 X114.174 Y35.551
G01 X114.297 Y35.701
G01 X114.448 Y35.825
G01 X114.619 Y35.917
G01 X114.806 Y35.973
G01 X115.0 Y35.992
G01 X115.193 Y35.973
G01 X115.38 Y35.917
G01 X115.551 Y35.825
G01 X115.702 Y35.701
G01 X115.825 Y35.551
G01 X115.917 Y35.38
G01 X115.973 Y35.194
G01 X115.992 Y35.0
G01 Z-6.3 F100
G01 X115.973 Y34.805 F1000
G01 X115.917 Y34.619
G01 X115.825 Y34.448
G01 X115.702 Y34.298
G01 X115.551 Y34.174
G01 X115.38 Y34.082
G01 X115.193 Y34.026
G01 X115.0 Y34.007
G01 X114.806 Y34.026
G01 X114.619 Y34.082
G01 X114.448 Y34.174
G01 X114.297 Y34.298
G01 X114.174 Y34.448
G01 X114.082 Y34.619
G01 X114.026 Y34.805
G01 X114.007 Y35.0
G01 X114.026 Y35.194
G01 X114.082 Y35.38
G01 X114.174 Y35.551
G01 X114.297 Y35.701
G01 X114.448 Y35.825
G01 X114.619 Y35.917
G01 X114.806 Y35.973
G01 X115.0 Y35.992
G01 X115.193 Y35.973
G01 X115.38 Y35.917
G01 X115.551 Y35.825
G01 X115.702 Y35.701
G01 X115.825 Y35.551
G01 X115.917 Y35.38
G01 X115.973 Y35.194
G01 X115.992 Y35.0
G00 Z2.0
 (--------------------------------------------------)
 (Object: #8)
 (Layer: 0)
 (Overcut: 0)
 (Depth: -6.300000)
 (Offset: Inside)
 (Tool-Num: 1)
 (Tool-Diameter: 3.00)
 (Tool-Speed: 12000)
 (--------------------------------------------------)

G00
G00 X107.564 Y42.433
G00 Z1.0
G01 Z-2.0 F100
G01 X107.551 Y42.422 F1000
G01 X107.535 Y42.414
G01 X107.517 Y42.409
G01 X107.5 Y42.407
G01 X107.482 Y42.409
G01 X107.464 Y42.414
G01 X107.448 Y42.422
G01 X107.435 Y42.433
G01 X107.423 Y42.448
G01 X107.414 Y42.464
G01 X107.409 Y42.482
G01 X107.407 Y42.5
G01 X107.409 Y42.517
G01 X107.414 Y42.535
G01 X107.423 Y42.551
G01 X107.435 Y42.566
G01 X107.448 Y42.577
G01 X107.464 Y42.585
G01 X107.482 Y42.591
G01 X107.5 Y42.592
G01 X107.517 Y42.591
G01 X107.535 Y42.585
G01 X107.551 Y42.577
G01 X107.564 Y42.566
G01 X107.576 Y42.551
G01 X107.585 Y42.535
G01 X107.59 Y42.517
G01 X107.592 Y42.5
G01 X107.59 Y42.482
G01 X107.585 Y42.464
G01 X107.576 Y42.448
G01 X107.564 Y42.433
G01 Z-4.0 F100
G01 X107.551 Y42.422 F1000
G01 X107.535 Y42.414
G01 X107.517 Y42.409
G01 X107.5 Y42.407
G01 X107.482 Y42.409
G01 X107.464 Y42.414
G01 X107.448 Y42.422
G01 X107.435 Y42.433
G01 X107.423 Y42.448
G01 X107.414 Y42.464
G01 X107.409 Y42.482
G01 X107.407 Y42.5
G01 X107.409 Y42.517
G01 X107.414 Y42.535
G01 X107.423 Y42.551
G01 X107.435 Y42.566
G01 X107.448 Y42.577
G01 X107.464 Y42.585
G01 X107.482 Y42.591
G01 X107.5 Y42.592
G01 X107.517 Y42.591
G01 X107.535 Y42.585
G01 X107.551 Y42.577
G01 X107.564 Y42.566
G01 X107.576 Y42.551
G01 X107.585 Y42.535
G01 X107.59 Y42.517
G01 X107.592 Y42.5
G01 X107.59 Y42.482
G01 X107.585 Y42.464
G01 X107.576 Y42.448
G01 X107.564 Y42.433
G01 Z-6.0 F100
G01 X107.551 Y42.422 F1000
G01 X107.535 Y42.414
G01 X107.517 Y42.409
G01 X107.5 Y42.407
G01 X107.482 Y42.409
G01 X107.464 Y42.414
G01 X107.448 Y42.422
G01 X107.435 Y42.433
G01 X107.423 Y42.448
G01 X107.414 Y42.464
G01 X107.409 Y42.482
G01 X107.407 Y42.5
G01 X107.409 Y42.517
G01 X107.414 Y42.535
G01 X107.423 Y42.551
G01 X107.435 Y42.566
G01 X107.448 Y42.577
G01 X107.464 Y42.585
G01 X107.482 Y42.591
G01 X107.5 Y42.592
G01 X107.517 Y42.591
G01 X107.535 Y42.585
G01 X107.551 Y42.577
G01 X107.564 Y42.566
G01 X107.576 Y42.551
G01 X107.585 Y42.535
G01 X107.59 Y42.517
G01 X107.592 Y42.5
G01 X107.59 Y42.482
G01 X107.585 Y42.464
G01 X107.576 Y42.448
G01 X107.564 Y42.433
G01 Z-6.3 F100
G01 X107.551 Y42.422 F1000
G01 X107.535 Y42.414
G01 X107.517 Y42.409
G01 X107.5 Y42.407
G01 X107.482 Y42.409
G01 X107.464 Y42.414
G01 X107.448 Y42.422
G01 X107.435 Y42.433
G01 X107.423 Y42.448
G01 X107.414 Y42.464
G01 X107.409 Y42.482
G01 X107.407 Y42.5
G01 X107.409 Y42.517
G01 X107.414 Y42.535
G01 X107.423 Y42.551
G01 X107.435 Y42.566
G01 X107.448 Y42.577
G01 X107.464 Y42.585
G01 X107.482 Y42.591
G01 X107.5 Y42.592
G01 X107.517 Y42.591
G01 X107.535 Y42.585
G01 X107.551 Y42.577
G01 X107.564 Y42.566
G01 X107.576 Y42.551
G01 X107.585 Y42.535
G01 X107.59 Y42.517
G01 X107.592 Y42.5
G01 X107.59 Y42.482
G01 X107.585 Y42.464
G01 X107.576 Y42.448
G01 X107.564 Y42.433
G00 Z2.0
 (--------------------------------------------------)
 (Object: #18)
 (Layer: 0)
 (Overcut: 0)
 (Depth: -6.300000)
 (Offset: Inside)
 (Tool-Num: 1)
 (Tool-Diameter: 3.00)
 (Tool-Speed: 12000)
 (--------------------------------------------------)

G00
G00 X206.507 Y42.5
G00 Z1.0
G01 Z-2.0 F100
G01 X206.509 Y42.517 F1000
G01 X206.514 Y42.535
G01 X206.523 Y42.551
G01 X206.535 Y42.566
G01 X206.548 Y42.577
G01 X206.564 Y42.585
G01 X206.582 Y42.591
G01 X206.6 Y42.592
G01 X206.617 Y42.591
G01 X206.635 Y42.585
G01 X206.651 Y42.577
G01 X206.664 Y42.566
G01 X206.676 Y42.551
G01 X206.685 Y42.535
G01 X206.69 Y42.517
G01 X206.692 Y42.5
G01 X206.69 Y42.482
G01 X206.685 Y42.464
G01 X206.676 Y42.448
G01 X206.664 Y42.433
G01 X206.651 Y42.422
G01 X206.635 Y42.414
G01 X206.617 Y42.409
G01 X206.6 Y42.407
G01 X206.582 Y42.409
G01 X206.564 Y42.414
G01 X206.548 Y42.422
G01 X206.535 Y42.433
G01 X206.523 Y42.448
G01 X206.514 Y42.464
G01 X206.509 Y42.482
G01 X206.507 Y42.5
G01 Z-4.0 F100
G01 X206.509 Y42.517 F1000
G01 X206.514 Y42.535
G01 X206.523 Y42.551
G01 X206.535 Y42.566
G01 X206.548 Y42.577
G01 X206.564 Y42.585
G01 X206.582 Y42.591
G01 X206.6 Y42.592
G01 X206.617 Y42.591
G01 X206.635 Y42.585
G01 X206.651 Y42.577
G01 X206.664 Y42.566
G01 X206.676 Y42.551
G01 X206.685 Y42.535
G01 X206.69 Y42.517
G01 X206.692 Y42.5
G01 X206.69 Y42.482
G01 X206.685 Y42.464
G01 X206.676 Y42.448
G01 X206.664 Y42.433
G01 X206.651 Y42.422
G01 X206.635 Y42.414
G01 X206.617 Y42.409
G01 X206.6 Y42.407
G01 X206.582 Y42.409
G01 X206.564 Y42.414
G01 X206.548 Y42.422
G01 X206.535 Y42.433
G01 X206.523 Y42.448
G01 X206.514 Y42.464
G01 X206.509 Y42.482
G01 X206.507 Y42.5
G01 Z-6.0 F100
G01 X206.509 Y42.517 F1000
G01 X206.514 Y42.535
G01 X206.523 Y42.551
G01 X206.535 Y42.566
G01 X206.548 Y42.577
G01 X206.564 Y42.585
G01 X206.582 Y42.591
G01 X206.6 Y42.592
G01 X206.617 Y42.591
G01 X206.635 Y42.585
G01 X206.651 Y42.577
G01 X206.664 Y42.566
G01 X206.676 Y42.551
G01 X206.685 Y42.535
G01 X206.69 Y42.517
G01 X206.692 Y42.5
G01 X206.69 Y42.482
G01 X206.685 Y42.464
G01 X206.676 Y42.448
G01 X206.664 Y42.433
G01 X206.651 Y42.422
G01 X206.635 Y42.414
G01 X206.617 Y42.409
G01 X206.6 Y42.407
G01 X206.582 Y42.409
G01 X206.564 Y42.414
G01 X206.548 Y42.422
G01 X206.535 Y42.433
G01 X206.523 Y42.448
G01 X206.514 Y42.464
G01 X206.509 Y42.482
G01 X206.507 Y42.5
G01 Z-6.3 F100
G01 X206.509 Y42.517 F1000
G01 X206.514 Y42.535
G01 X206.523 Y42.551
G01 X206.535 Y42.566
G01 X206.548 Y42.577
G01 X206.564 Y42.585
G01 X206.582 Y42.591
G01 X206.6 Y42.592
G01 X206.617 Y42.591
G01 X206.635 Y42.585
G01 X206.651 Y42.577
G01 X206.664 Y42.566
G01 X206.676 Y42.551
G01 X206.685 Y42.535
G01 X206.69 Y42.517
G01 X206.692 Y42.5
G01 X206.69 Y42.482
G01 X206.685 Y42.464
G01 X206.676 Y42.448
G01 X206.664 Y42.433
G01 X206.651 Y42.422
G01 X206.635 Y42.414
G01 X206.617 Y42.409
G01 X206.6 Y42.407
G01 X206.582 Y42.409
G01 X206.564 Y42.414
G01 X206.548 Y42.422
G01 X206.535 Y42.433
G01 X206.523 Y42.448
G01 X206.514 Y42.464
G01 X206.509 Y42.482
G01 X206.507 Y42.5
G00 Z2.0
 (--------------------------------------------------)
 (Object: #20)
 (Layer: 0)
 (Overcut: 0)
 (Depth: -6.300000)
 (Offset: Inside)
 (Tool-Num: 1)
 (Tool-Diameter: 3.00)
 (Tool-Speed: 12000)
 (--------------------------------------------------)

G00
G00 X213.397 Y35.701
G00 Z1.0
G01 Z-2.0 F100
G01 X213.548 Y35.825 F1000
G01 X213.719 Y35.917
G01 X213.906 Y35.973
G01 X214.1 Y35.992
G01 X214.293 Y35.973
G01 X214.48 Y35.917
G01 X214.651 Y35.825
G01 X214.802 Y35.701
G01 X214.925 Y35.551
G01 X215.017 Y35.38
G01 X215.073 Y35.194
G01 X215.092 Y35.0
G01 X215.073 Y34.805
G01 X215.017 Y34.619
G01 X214.925 Y34.448
G01 X214.802 Y34.298
G01 X214.651 Y34.174
G01 X214.48 Y34.082
G01 X214.293 Y34.026
G01 X214.1 Y34.007
G01 X213.906 Y34.026
G01 X213.719 Y34.082
G01 X213.548 Y34.174
G01 X213.397 Y34.298
G01 X213.274 Y34.448
G01 X213.182 Y34.619
G01 X213.126 Y34.805
G01 X213.107 Y35.0
G01 X213.126 Y35.194
G01 X213.182 Y35.38
G01 X213.274 Y35.551
G01 X213.397 Y35.701
G01 Z-4.0 F100
G01 X213.548 Y35.825 F1000
G01 X213.719 Y35.917
G01 X213.906 Y35.973
G01 X214.1 Y35.992
G01 X214.293 Y35.973
G01 X214.48 Y35.917
G01 X214.651 Y35.825
G01 X214.802 Y35.701
G01 X214.925 Y35.551
G01 X215.017 Y35.38
G01 X215.073 Y35.194
G01 X215.092 Y35.0
G01 X215.073 Y34.805
G01 X215.017 Y34.619
G01 X214.925 Y34.448
G01 X214.802 Y34.298
G01 X214.651 Y34.174
G01 X214.48 Y34.082
G01 X214.293 Y34.026
G01 X214.1 Y34.007
G01 X213.906 Y34.026
G01 X213.719 Y34.082
G01 X213.548 Y34.174
G01 X213.397 Y34.298
G01 X213.274 Y34.448
G01 X213.182 Y34.619
G01 X213.126 Y34.805
G01 X213.107 Y35.0
G01 X213.126 Y35.194
G01 X213.182 Y35.38
G01 X213.274 Y35.551
G01 X213.397 Y35.701
G01 Z-6.0 F100
G01 X213.548 Y35.825 F1000
G01 X213.719 Y35.917
G01 X213.906 Y35.973
G01 X214.1 Y35.992
G01 X214.293 Y35.973
G01 X214.48 Y35.917
G01 X214.651 Y35.825
G01 X214.802 Y35.701
G01 X214.925 Y35.551
G01 X215.017 Y35.38
G01 X215.073 Y35.194
G01 X215.092 Y35.0
G01 X215.073 Y34.805
G01 X215.017 Y34.619
G01 X214.925 Y34.448
G01 X214.802 Y34.298
G01 X214.651 Y34.174
G01 X214.48 Y34.082
G01 X214.293 Y34.026
G01 X214.1 Y34.007
G01 X213.906 Y34.026
G01 X213.719 Y34.082
G01 X213.548 Y34.174
G01 X213.397 Y34.298
G01 X213.274 Y34.448
G01 X213.182 Y34.619
G01 X213.126 Y34.805
G01 X213.107 Y35.0
G01 X213.126 Y35.194
G01 X213.182 Y35.38
G01 X213.274 Y35.551
G01 X213.397 Y35.701
G01 Z-6.3 F100
G01 X213.548 Y35.825 F1000
G01 X213.719 Y35.917
G01 X213.906 Y35.973
G01 X214.1 Y35.992
G01 X214.293 Y35.973
G01 X214.48 Y35.917
G01 X214.651 Y35.825
G01 X214.802 Y35.701
G01 X214.925 Y35.551
G01 X215.017 Y35.38
G01 X215.073 Y35.194
G01 X215.092 Y35.0
G01 X215.073 Y34.805
G01 X215.017 Y34.619
G01 X214.925 Y34.448
G01 X214.802 Y34.298
G01 X214.651 Y34.174
G01 X214.48 Y34.082
G01 X214.293 Y34.026
G01 X214.1 Y34.007
G01 X213.906 Y34.026
G01 X213.719 Y34.082
G01 X213.548 Y34.174
G01 X213.397 Y34.298
G01 X213.274 Y34.448
G01 X213.182 Y34.619
G01 X213.126 Y34.805
G01 X213.107 Y35.0
G01 X213.126 Y35.194
G01 X213.182 Y35.38
G01 X213.274 Y35.551
G01 X213.397 Y35.701
G00 Z2.0
 (--------------------------------------------------)
 (Object: #15)
 (Layer: 0)
 (Overcut: 0)
 (Depth: -6.300000)
 (Offset: Inside)
 (Tool-Num: 1)
 (Tool-Diameter: 3.00)
 (Tool-Speed: 12000)
 (--------------------------------------------------)

G00
G00 X206.6 Y107.407
G00 Z1.0
G01 Z-2.0 F100
G01 X206.582 Y107.409 F1000
G01 X206.564 Y107.414
G01 X206.548 Y107.422
G01 X206.534 Y107.434
G01 X206.522 Y107.448
G01 X206.514 Y107.464
G01 X206.509 Y107.482
G01 X206.507 Y107.5
G01 X206.509 Y107.517
G01 X206.514 Y107.535
G01 X206.522 Y107.551
G01 X206.534 Y107.565
G01 X206.548 Y107.577
G01 X206.564 Y107.585
G01 X206.582 Y107.59
G01 X206.6 Y107.592
G01 X206.617 Y107.59
G01 X206.635 Y107.585
G01 X206.651 Y107.577
G01 X206.665 Y107.565
G01 X206.677 Y107.551
G01 X206.685 Y107.535
G01 X206.69 Y107.517
G01 X206.692 Y107.5
G01 X206.69 Y107.482
G01 X206.685 Y107.464
G01 X206.677 Y107.448
G01 X206.665 Y107.434
G01 X206.651 Y107.422
G01 X206.635 Y107.414
G01 X206.617 Y107.409
G01 X206.6 Y107.407
G01 Z-4.0 F100
G01 X206.582 Y107.409 F1000
G01 X206.564 Y107.414
G01 X206.548 Y107.422
G01 X206.534 Y107.434
G01 X206.522 Y107.448
G01 X206.514 Y107.464
G01 X206.509 Y107.482
G01 X206.507 Y107.5
G01 X206.509 Y107.517
G01 X206.514 Y107.535
G01 X206.522 Y107.551
G01 X206.534 Y107.565
G01 X206.548 Y107.577
G01 X206.564 Y107.585
G01 X206.582 Y107.59
G01 X206.6 Y107.592
G01 X206.617 Y107.59
G01 X206.635 Y107.585
G01 X206.651 Y107.577
G01 X206.665 Y107.565
G01 X206.677 Y107.551
G01 X206.685 Y107.535
G01 X206.69 Y107.517
G01 X206.692 Y107.5
G01 X206.69 Y107.482
G01 X206.685 Y107.464
G01 X206.677 Y107.448
G01 X206.665 Y107.434
G01 X206.651 Y107.422
G01 X206.635 Y107.414
G01 X206.617 Y107.409
G01 X206.6 Y107.407
G01 Z-6.0 F100
G01 X206.582 Y107.409 F1000
G01 X206.564 Y107.414
G01 X206.548 Y107.422
G01 X206.534 Y107.434
G01 X206.522 Y107.448
G01 X206.514 Y107.464
G01 X206.509 Y107.482
G01 X206.507 Y107.5
G01 X206.509 Y107.517
G01 X206.514 Y107.535
G01 X206.522 Y107.551
G01 X206.534 Y107.565
G01 X206.548 Y107.577
G01 X206.564 Y107.585
G01 X206.582 Y107.59
G01 X206.6 Y107.592
G01 X206.617 Y107.59
G01 X206.635 Y107.585
G01 X206.651 Y107.577
G01 X206.665 Y107.565
G01 X206.677 Y107.551
G01 X206.685 Y107.535
G01 X206.69 Y107.517
G01 X206.692 Y107.5
G01 X206.69 Y107.482
G01 X206.685 Y107.464
G01 X206.677 Y107.448
G01 X206.665 Y107.434
G01 X206.651 Y107.422
G01 X206.635 Y107.414
G01 X206.617 Y107.409
G01 X206.6 Y107.407
G01 Z-6.3 F100
G01 X206.582 Y107.409 F1000
G01 X206.564 Y107.414
G01 X206.548 Y107.422
G01 X206.534 Y107.434
G01 X206.522 Y107.448
G01 X206.514 Y107.464
G01 X206.509 Y107.482
G01 X206.507 Y107.5
G01 X206.509 Y107.517
G01 X206.514 Y107.535
G01 X206.522 Y107.551
G01 X206.534 Y107.565
G01 X206.548 Y107.577
G01 X206.564 Y107.585
G01 X206.582 Y107.59
G01 X206.6 Y107.592
G01 X206.617 Y107.59
G01 X206.635 Y107.585
G01 X206.651 Y107.577
G01 X206.665 Y107.565
G01 X206.677 Y107.551
G01 X206.685 Y107.535
G01 X206.69 Y107.517
G01 X206.692 Y107.5
G01 X206.69 Y107.482
G01 X206.685 Y107.464
G01 X206.677 Y107.448
G01 X206.665 Y107.434
G01 X206.651 Y107.422
G01 X206.635 Y107.414
G01 X206.617 Y107.409
G01 X206.6 Y107.407
G00 Z2.0
 (--------------------------------------------------)
 (Object: #13)
 (Layer: 0)
 (Overcut: 0)
 (Depth: -6.300000)
 (Offset: Inside)
 (Tool-Num: 1)
 (Tool-Diameter: 3.00)
 (Tool-Speed: 12000)
 (--------------------------------------------------)

G00
G00 X213.397 Y114.297
G00 Z1.0
G01 Z-2.0 F100
G01 X213.274 Y114.448 F1000
G01 X213.182 Y114.619
G01 X213.126 Y114.805
G01 X213.107 Y115.0
G01 X213.126 Y115.194
G01 X213.182 Y115.38
G01 X213.274 Y115.551
G01 X213.397 Y115.702
G01 X213.548 Y115.825
G01 X213.719 Y115.917
G01 X213.905 Y115.973
G01 X214.1 Y115.992
G01 X214.294 Y115.973
G01 X214.48 Y115.917
G01 X214.651 Y115.825
G01 X214.802 Y115.702
G01 X214.925 Y115.551
G01 X215.017 Y115.38
G01 X215.073 Y115.194
G01 X215.092 Y115.0
G01 X215.073 Y114.805
G01 X215.017 Y114.619
G01 X214.925 Y114.448
G01 X214.802 Y114.297
G01 X214.651 Y114.174
G01 X214.48 Y114.082
G01 X214.294 Y114.026
G01 X214.1 Y114.007
G01 X213.905 Y114.026
G01 X213.719 Y114.082
G01 X213.548 Y114.174
G01 X213.397 Y114.297
G01 Z-4.0 F100
G01 X213.274 Y114.448 F1000
G01 X213.182 Y114.619
G01 X213.126 Y114.805
G01 X213.107 Y115.0
G01 X213.126 Y115.194
G01 X213.182 Y115.38
G01 X213.274 Y115.551
G01 X213.397 Y115.702
G01 X213.548 Y115.825
G01 X213.719 Y115.917
G01 X213.905 Y115.973
G01 X214.1 Y115.992
G01 X214.294 Y115.973
G01 X214.48 Y115.917
G01 X214.651 Y115.825
G01 X214.802 Y115.702
G01 X214.925 Y115.551
G01 X215.017 Y115.38
G01 X215.073 Y115.194
G01 X215.092 Y115.0
G01 X215.073 Y114.805
G01 X215.017 Y114.619
G01 X214.925 Y114.448
G01 X214.802 Y114.297
G01 X214.651 Y114.174
G01 X214.48 Y114.082
G01 X214.294 Y114.026
G01 X214.1 Y114.007
G01 X213.905 Y114.026
G01 X213.719 Y114.082
G01 X213.548 Y114.174
G01 X213.397 Y114.297
G01 Z-6.0 F100
G01 X213.274 Y114.448 F1000
G01 X213.182 Y114.619
G01 X213.126 Y114.805
G01 X213.107 Y115.0
G01 X213.126 Y115.194
G01 X213.182 Y115.38
G01 X213.274 Y115.551
G01 X213.397 Y115.702
G01 X213.548 Y115.825
G01 X213.719 Y115.917
G01 X213.905 Y115.973
G01 X214.1 Y115.992
G01 X214.294 Y115.973
G01 X214.48 Y115.917
G01 X214.651 Y115.825
G01 X214.802 Y115.702
G01 X214.925 Y115.551
G01 X215.017 Y115.38
G01 X215.073 Y115.194
G01 X215.092 Y115.0
G01 X215.073 Y114.805
G01 X215.017 Y114.619
G01 X214.925 Y114.448
G01 X214.802 Y114.297
G01 X214.651 Y114.174
G01 X214.48 Y114.082
G01 X214.294 Y114.026
G01 X214.1 Y114.007
G01 X213.905 Y114.026
G01 X213.719 Y114.082
G01 X213.548 Y114.174
G01 X213.397 Y114.297
G01 Z-6.3 F100
G01 X213.274 Y114.448 F1000
G01 X213.182 Y114.619
G01 X213.126 Y114.805
G01 X213.107 Y115.0
G01 X213.126 Y115.194
G01 X213.182 Y115.38
G01 X213.274 Y115.551
G01 X213.397 Y115.702
G01 X213.548 Y115.825
G01 X213.719 Y115.917
G01 X213.905 Y115.973
G01 X214.1 Y115.992
G01 X214.294 Y115.973
G01 X214.48 Y115.917
G01 X214.651 Y115.825
G01 X214.802 Y115.702
G01 X214.925 Y115.551
G01 X215.017 Y115.38
G01 X215.073 Y115.194
G01 X215.092 Y115.0
G01 X215.073 Y114.805
G01 X215.017 Y114.619
G01 X214.925 Y114.448
G01 X214.802 Y114.297
G01 X214.651 Y114.174
G01 X214.48 Y114.082
G01 X214.294 Y114.026
G01 X214.1 Y114.007
G01 X213.905 Y114.026
G01 X213.719 Y114.082
G01 X213.548 Y114.174
G01 X213.397 Y114.297
G00 Z2.0
 (--------------------------------------------------)
 (Object: #11)
 (Layer: 0)
 (Overcut: 0)
 (Depth: -6.300000)
 (Offset: Outside)
 (Tool-Num: 1)
 (Tool-Diameter: 3.00)
 (Tool-Speed: 12000)
 (--------------------------------------------------)

G00
G00 X214.247 Y124.492
G00 Z1.0
G01 Z-2.0 F100
G03 X214.1 Y124.5 I-0.147 J-1.492 F1000
G01 X134.1
G03 X133.952 Y124.492 I0.0 J-1.5
G01 X132.391 Y124.338
G03 X132.103 Y124.281 I0.147 J-1.492
G01 X130.603 Y123.826
G03 X130.332 Y123.714 I0.435 J-1.435
G01 X128.948 Y122.975
G03 X128.703 Y122.811 I0.706 J-1.323
G01 X127.491 Y121.816
G03 X127.283 Y121.608 I0.951 J-1.159
G01 X126.288 Y120.396
G03 X126.124 Y120.151 I1.159 J-0.951
G01 X125.385 Y118.767
G03 X125.273 Y118.496 I1.323 J-0.706
G01 X124.818 Y116.996
G03 X124.761 Y116.708 I1.435 J-0.435
G01 X124.607 Y115.147
G03 X124.6 Y115.0 I1.492 J-0.147
G01 Y35.0
G03 X124.607 Y34.852 I1.5 J-0.0
G01 X124.761 Y33.292
G03 X124.818 Y33.004 I1.492 J0.147
G01 X125.273 Y31.503
G03 X125.386 Y31.231 I1.435 J0.435
G01 X126.125 Y29.848
G03 X126.288 Y29.603 I1.322 J0.706
G01 X127.283 Y28.391
G03 X127.491 Y28.183 I1.159 J0.951
G01 X128.703 Y27.188
G03 X128.948 Y27.025 I0.951 J1.159
G01 X130.332 Y26.285
G03 X130.603 Y26.173 I0.706 J1.323
G01 X132.103 Y25.718
G03 X132.392 Y25.66 I0.435 J1.435
G01 X133.953 Y25.507
G03 X134.1 Y25.5 I0.146 J1.492
G01 X214.1
G03 X214.246 Y25.507 I0.0 J1.5
G01 X215.807 Y25.66
G03 X216.096 Y25.718 I-0.146 J1.492
G01 X217.596 Y26.173
G03 X217.867 Y26.285 I-0.435 J1.435
G01 X219.251 Y27.025
G03 X219.496 Y27.188 I-0.706 J1.323
G01 X220.708 Y28.183
G03 X220.916 Y28.391 I-0.951 J1.159
G01 X221.911 Y29.603
G03 X222.074 Y29.848 I-1.159 J0.951
G01 X222.813 Y31.231
G03 X222.926 Y31.503 I-1.322 J0.706
G01 X223.381 Y33.004
G03 X223.438 Y33.292 I-1.435 J0.435
G01 X223.592 Y34.852
G03 X223.6 Y35.0 I-1.492 J0.147
G01 Y115.0
G03 X223.592 Y115.147 I-1.5 J-0.0
G01 X223.438 Y116.708
G03 X223.381 Y116.996 I-1.492 J-0.147
G01 X222.926 Y118.496
G03 X222.814 Y118.767 I-1.435 J-0.435
G01 X222.075 Y120.151
G03 X221.911 Y120.396 I-1.323 J-0.706
G01 X220.916 Y121.608
G03 X220.708 Y121.816 I-1.159 J-0.951
G01 X219.496 Y122.811
G03 X219.251 Y122.975 I-0.951 J-1.159
G01 X217.867 Y123.714
G03 X217.596 Y123.826 I-0.706 J-1.323
G01 X216.096 Y124.281
G03 X215.808 Y124.338 I-0.435 J-1.435
G01 X214.247 Y124.492
G01 Z-4.0 F100
G03 X214.1 Y124.5 I-0.147 J-1.492 F1000
G01 X134.1
G03 X133.952 Y124.492 I0.0 J-1.5
G01 X132.391 Y124.338
G03 X132.103 Y124.281 I0.147 J-1.492
G01 X130.603 Y123.826
G03 X130.332 Y123.714 I0.435 J-1.435
G01 X128.948 Y122.975
G03 X128.703 Y122.811 I0.706 J-1.323
G01 X127.491 Y121.816
G03 X127.283 Y121.608 I0.951 J-1.159
G01 X126.288 Y120.396
G03 X126.124 Y120.151 I1.159 J-0.951
G01 X125.385 Y118.767
G03 X125.273 Y118.496 I1.323 J-0.706
G01 X124.818 Y116.996
G03 X124.761 Y116.708 I1.435 J-0.435
G01 X124.607 Y115.147
G03 X124.6 Y115.0 I1.492 J-0.147
G01 Y35.0
G03 X124.607 Y34.852 I1.5 J-0.0
G01 X124.761 Y33.292
G03 X124.818 Y33.004 I1.492 J0.147
G01 X125.273 Y31.503
G03 X125.386 Y31.231 I1.435 J0.435
G01 X126.125 Y29.848
G03 X126.288 Y29.603 I1.322 J0.706
G01 X127.283 Y28.391
G03 X127.491 Y28.183 I1.159 J0.951
G01 X128.703 Y27.188
G03 X128.948 Y27.025 I0.951 J1.159
G01 X130.332 Y26.285
G03 X130.603 Y26.173 I0.706 J1.323
G01 X132.103 Y25.718
G03 X132.392 Y25.66 I0.435 J1.435
G01 X133.953 Y25.507
G03 X134.1 Y25.5 I0.146 J1.492
G01 X214.1
G03 X214.246 Y25.507 I0.0 J1.5
G01 X215.807 Y25.66
G03 X216.096 Y25.718 I-0.146 J1.492
G01 X217.596 Y26.173
G03 X217.867 Y26.285 I-0.435 J1.435
G01 X219.251 Y27.025
G03 X219.496 Y27.188 I-0.706 J1.323
G01 X220.708 Y28.183
G03 X220.916 Y28.391 I-0.951 J1.159
G01 X221.911 Y29.603
G03 X222.074 Y29.848 I-1.159 J0.951
G01 X222.813 Y31.231
G03 X222.926 Y31.503 I-1.322 J0.706
G01 X223.381 Y33.004
G03 X223.438 Y33.292 I-1.435 J0.435
G01 X223.592 Y34.852
G03 X223.6 Y35.0 I-1.492 J0.147
G01 Y115.0
G03 X223.592 Y115.147 I-1.5 J-0.0
G01 X223.438 Y116.708
G03 X223.381 Y116.996 I-1.492 J-0.147
G01 X222.926 Y118.496
G03 X222.814 Y118.767 I-1.435 J-0.435
G01 X222.075 Y120.151
G03 X221.911 Y120.396 I-1.323 J-0.706
G01 X220.916 Y121.608
G03 X220.708 Y121.816 I-1.159 J-0.951
G01 X219.496 Y122.811
G03 X219.251 Y122.975 I-0.951 J-1.159
G01 X217.867 Y123.714
G03 X217.596 Y123.826 I-0.706 J-1.323
G01 X216.096 Y124.281
G03 X215.808 Y124.338 I-0.435 J-1.435
G01 X214.247 Y124.492
G01 Z-6.0 F100
G03 X214.1 Y124.5 I-0.147 J-1.492 F1000
G01 X181.0
G01 Z-5.0
G01 X173.0
G01 Z-6.0
G01 X134.1
G03 X133.952 Y124.492 I0.0 J-1.5
G01 X132.391 Y124.338
G03 X132.103 Y124.281 I0.147 J-1.492
G01 X130.603 Y123.826
G03 X130.332 Y123.714 I0.435 J-1.435
G01 X128.948 Y122.975
G03 X128.703 Y122.811 I0.706 J-1.323
G01 X127.491 Y121.816
G03 X127.283 Y121.608 I0.951 J-1.159
G01 X126.288 Y120.396
G03 X126.124 Y120.151 I1.159 J-0.951
G01 X125.385 Y118.767
G03 X125.273 Y118.496 I1.323 J-0.706
G01 X124.818 Y116.996
G03 X124.761 Y116.708 I1.435 J-0.435
G01 X124.607 Y115.147
G03 X124.6 Y115.0 I1.492 J-0.147
G01 Y81.0
G01 Z-5.0
G01 Y73.0
G01 Z-6.0
G01 Y35.0
G03 X124.607 Y34.852 I1.5 J-0.0
G01 X124.761 Y33.292
G03 X124.818 Y33.004 I1.492 J0.147
G01 X125.273 Y31.503
G03 X125.386 Y31.231 I1.435 J0.435
G01 X126.125 Y29.848
G03 X126.288 Y29.603 I1.322 J0.706
G01 X127.283 Y28.391
G03 X127.491 Y28.183 I1.159 J0.951
G01 X128.703 Y27.188
G03 X128.948 Y27.025 I0.951 J1.159
G01 X130.332 Y26.285
G03 X130.603 Y26.173 I0.706 J1.323
G01 X132.103 Y25.718
G03 X132.392 Y25.66 I0.435 J1.435
G01 X133.953 Y25.507
G03 X134.1 Y25.5 I0.146 J1.492
G01 X173.0
G01 Z-5.0
G01 X181.0
G01 Z-6.0
G01 X214.1
G03 X214.246 Y25.507 I0.0 J1.5
G01 X215.807 Y25.66
G03 X216.096 Y25.718 I-0.146 J1.492
G01 X217.596 Y26.173
G03 X217.867 Y26.285 I-0.435 J1.435
G01 X219.251 Y27.025
G03 X219.496 Y27.188 I-0.706 J1.323
G01 X220.708 Y28.183
G03 X220.916 Y28.391 I-0.951 J1.159
G01 X221.911 Y29.603
G03 X222.074 Y29.848 I-1.159 J0.951
G01 X222.813 Y31.231
G03 X222.926 Y31.503 I-1.322 J0.706
G01 X223.381 Y33.004
G03 X223.438 Y33.292 I-1.435 J0.435
G01 X223.592 Y34.852
G03 X223.6 Y35.0 I-1.492 J0.147
G01 Y73.0
G01 Z-5.0
G01 Y81.0
G01 Z-6.0
G01 Y115.0
G03 X223.592 Y115.147 I-1.5 J-0.0
G01 X223.438 Y116.708
G03 X223.381 Y116.996 I-1.492 J-0.147
G01 X222.926 Y118.496
G03 X222.814 Y118.767 I-1.435 J-0.435
G01 X222.075 Y120.151
G03 X221.911 Y120.396 I-1.323 J-0.706
G01 X220.916 Y121.608
G03 X220.708 Y121.816 I-1.159 J-0.951
G01 X219.496 Y122.811
G03 X219.251 Y122.975 I-0.951 J-1.159
G01 X217.867 Y123.714
G03 X217.596 Y123.826 I-0.706 J-1.323
G01 X216.096 Y124.281
G03 X215.808 Y124.338 I-0.435 J-1.435
G01 X214.247 Y124.492
G01 Z-6.3 F100
G03 X214.1 Y124.5 I-0.147 J-1.492 F1000
G01 X181.0
G01 Z-5.0
G01 X173.0
G01 Z-6.3
G01 X134.1
G03 X133.952 Y124.492 I0.0 J-1.5
G01 X132.391 Y124.338
G03 X132.103 Y124.281 I0.147 J-1.492
G01 X130.603 Y123.826
G03 X130.332 Y123.714 I0.435 J-1.435
G01 X128.948 Y122.975
G03 X128.703 Y122.811 I0.706 J-1.323
G01 X127.491 Y121.816
G03 X127.283 Y121.608 I0.951 J-1.159
G01 X126.288 Y120.396
G03 X126.124 Y120.151 I1.159 J-0.951
G01 X125.385 Y118.767
G03 X125.273 Y118.496 I1.323 J-0.706
G01 X124.818 Y116.996
G03 X124.761 Y116.708 I1.435 J-0.435
G01 X124.607 Y115.147
G03 X124.6 Y115.0 I1.492 J-0.147
G01 Y81.0
G01 Z-5.0
G01 Y73.0
G01 Z-6.3
G01 Y35.0
G03 X124.607 Y34.852 I1.5 J-0.0
G01 X124.761 Y33.292
G03 X124.818 Y33.004 I1.492 J0.147
G01 X125.273 Y31.503
G03 X125.386 Y31.231 I1.435 J0.435
G01 X126.125 Y29.848
G03 X126.288 Y29.603 I1.322 J0.706
G01 X127.283 Y28.391
G03 X127.491 Y28.183 I1.159 J0.951
G01 X128.703 Y27.188
G03 X128.948 Y27.025 I0.951 J1.159
G01 X130.332 Y26.285
G03 X130.603 Y26.173 I0.706 J1.323
G01 X132.103 Y25.718
G03 X132.392 Y25.66 I0.435 J1.435
G01 X133.953 Y25.507
G03 X134.1 Y25.5 I0.146 J1.492
G01 X173.0
G01 Z-5.0
G01 X181.0
G01 Z-6.3
G01 X214.1
G03 X214.246 Y25.507 I0.0 J1.5
G01 X215.807 Y25.66
G03 X216.096 Y25.718 I-0.146 J1.492
G01 X217.596 Y26.173
G03 X217.867 Y26.285 I-0.435 J1.435
G01 X219.251 Y27.025
G03 X219.496 Y27.188 I-0.706 J1.323
G01 X220.708 Y28.183
G03 X220.916 Y28.391 I-0.951 J1.159
G01 X221.911 Y29.603
G03 X222.074 Y29.848 I-1.159 J0.951
G01 X222.813 Y31.231
G03 X222.926 Y31.503 I-1.322 J0.706
G01 X223.381 Y33.004
G03 X223.438 Y33.292 I-1.435 J0.435
G01 X223.592 Y34.852
G03 X223.6 Y35.0 I-1.492 J0.147
G01 Y73.0
G01 Z-5.0
G01 Y81.0
G01 Z-6.3
G01 Y115.0
G03 X223.592 Y115.147 I-1.5 J-0.0
G01 X223.438 Y116.708
G03 X223.381 Y116.996 I-1.492 J-0.147
G01 X222.926 Y118.496
G03 X222.814 Y118.767 I-1.435 J-0.435
G01 X222.075 Y120.151
G03 X221.911 Y120.396 I-1.323 J-0.706
G01 X220.916 Y121.608
G03 X220.708 Y121.816 I-1.159 J-0.951
G01 X219.496 Y122.811
G03 X219.251 Y122.975 I-0.951 J-1.159
G01 X217.867 Y123.714
G03 X217.596 Y123.826 I-0.706 J-1.323
G01 X216.096 Y124.281
G03 X215.808 Y124.338 I-0.435 J-1.435
G01 X214.247 Y124.492
G00 Z2.0
 (--------------------------------------------------)
 (Object: #17)
 (Layer: 0)
 (Overcut: 0)
 (Depth: -6.300000)
 (Offset: Outside)
 (Tool-Num: 1)
 (Tool-Diameter: 3.00)
 (Tool-Speed: 12000)
 (--------------------------------------------------)

G00
G00 X179.417 Y81.63
G00 Z1.0
G01 Z-2.0 F100
G02 X179.478 Y81.581 I-0.912 J-1.19 F1000
G01 X179.757 Y81.343
G02 X179.816 Y81.29 I-0.973 J-1.141
G01 X180.082 Y81.038
G02 X180.138 Y80.981 I-1.032 J-1.088
G01 X180.39 Y80.715
G02 X180.442 Y80.657 I-1.088 J-1.032
G01 X180.68 Y80.379
G02 X180.73 Y80.318 I-1.14 J-0.974
G01 X180.953 Y80.027
G02 X180.998 Y79.965 I-1.19 J-0.912
G01 X181.206 Y79.663
G02 X181.25 Y79.594 I-1.235 J-0.85
G01 X181.441 Y79.282
G02 X181.48 Y79.216 I-1.279 J-0.782
G01 X181.655 Y78.893
G02 X181.69 Y78.824 I-1.318 J-0.716
G01 X181.848 Y78.493
G02 X181.881 Y78.42 I-1.353 J-0.646
G01 X182.021 Y78.081
G02 X182.049 Y78.008 I-1.386 J-0.573
G01 X182.171 Y77.662
G02 X182.195 Y77.588 I-1.414 J-0.499
G01 X182.299 Y77.237
G02 X182.319 Y77.163 I-1.438 J-0.425
G01 X182.405 Y76.807
G02 X182.421 Y76.729 I-1.458 J-0.351
G01 X182.488 Y76.369
G02 X182.501 Y76.291 I-1.474 J-0.274
G01 X182.549 Y75.928
G02 X182.557 Y75.846 I-1.487 J-0.196
G01 X182.585 Y75.48
G02 X182.589 Y75.407 I-1.495 J-0.114
G01 X182.599 Y75.04
G02 Y74.959 I-1.499 J-0.04
G01 X182.589 Y74.592
G02 X182.585 Y74.519 I-1.499 J0.04
G01 X182.557 Y74.153
G02 X182.549 Y74.071 I-1.495 J0.114
G01 X182.501 Y73.708
G02 X182.488 Y73.63 I-1.487 J0.196
G01 X182.421 Y73.27
G02 X182.405 Y73.192 I-1.474 J0.274
G01 X182.319 Y72.836
G02 X182.299 Y72.762 I-1.458 J0.351
G01 X182.195 Y72.411
G02 X182.171 Y72.337 I-1.438 J0.425
G01 X182.049 Y71.991
G02 X182.021 Y71.918 I-1.414 J0.499
G01 X181.881 Y71.579
G02 X181.848 Y71.506 I-1.386 J0.573
G01 X181.69 Y71.175
G02 X181.655 Y71.106 I-1.353 J0.646
G01 X181.48 Y70.783
G02 X181.441 Y70.717 I-1.318 J0.716
G01 X181.25 Y70.405
G02 X181.206 Y70.336 I-1.279 J0.782
G01 X180.998 Y70.034
G02 X180.953 Y69.972 I-1.235 J0.85
G01 X180.73 Y69.681
G02 X180.68 Y69.62 I-1.19 J0.912
G01 X180.442 Y69.342
G02 X180.39 Y69.284 I-1.14 J0.974
G01 X180.138 Y69.018
G02 X180.082 Y68.961 I-1.088 J1.032
G01 X179.816 Y68.709
G02 X179.757 Y68.656 I-1.032 J1.088
G01 X179.478 Y68.418
G02 X179.417 Y68.369 I-0.973 J1.141
G01 X179.126 Y68.146
G02 X179.063 Y68.1 I-0.912 J1.19
G01 X178.761 Y67.893
G02 X178.696 Y67.85 I-0.849 J1.236
G01 X178.384 Y67.659
G02 X178.315 Y67.619 I-0.784 J1.278
G01 X177.993 Y67.444
G02 X177.923 Y67.408 I-0.715 J1.318
G01 X177.592 Y67.251
G02 X177.521 Y67.219 I-0.645 J1.354
G01 X177.183 Y67.079
G02 X177.109 Y67.05 I-0.574 J1.385
G01 X176.763 Y66.928
G02 X176.689 Y66.904 I-0.5 J1.414
G01 X176.338 Y66.8
G02 X176.261 Y66.779 I-0.426 J1.438
G01 X175.904 Y66.694
G02 X175.828 Y66.678 I-0.349 J1.458
G01 X175.468 Y66.611
G02 X175.39 Y66.599 I-0.273 J1.474
G01 X175.027 Y66.551
G02 X174.949 Y66.543 I-0.195 J1.487
G01 X174.583 Y66.514
G02 X174.505 Y66.51 I-0.117 J1.495
G01 X174.139 Y66.5
G02 X174.06 I-0.039 J1.499
G01 X173.694 Y66.51
G02 X173.616 Y66.514 I0.039 J1.499
G01 X173.25 Y66.543
G02 X173.172 Y66.551 I0.117 J1.495
G01 X172.809 Y66.599
G02 X172.731 Y66.611 I0.195 J1.487
G01 X172.371 Y66.678
G02 X172.295 Y66.694 I0.273 J1.474
G01 X171.938 Y66.779
G02 X171.861 Y66.8 I0.349 J1.458
G01 X171.51 Y66.904
G02 X171.436 Y66.928 I0.426 J1.438
G01 X171.09 Y67.05
G02 X171.016 Y67.079 I0.5 J1.414
G01 X170.678 Y67.219
G02 X170.607 Y67.251 I0.574 J1.385
G01 X170.276 Y67.408
G02 X170.206 Y67.444 I0.645 J1.354
G01 X169.884 Y67.619
G02 X169.815 Y67.659 I0.715 J1.318
G01 X169.503 Y67.85
G02 X169.438 Y67.893 I0.784 J1.278
G01 X169.136 Y68.1
G02 X169.073 Y68.146 I0.849 J1.236
G01 X168.782 Y68.369
G02 X168.721 Y68.418 I0.912 J1.19
G01 X168.442 Y68.656
G02 X168.383 Y68.709 I0.973 J1.141
G01 X168.117 Y68.961
G02 X168.061 Y69.018 I1.032 J1.088
G01 X167.809 Y69.284
G02 X167.757 Y69.342 I1.088 J1.032
G01 X167.519 Y69.62
G02 X167.469 Y69.681 I1.14 J0.974
G01 X167.246 Y69.972
G02 X167.201 Y70.034 I1.19 J0.912
G01 X166.993 Y70.336
G02 X166.949 Y70.405 I1.235 J0.85
G01 X166.758 Y70.717
G02 X166.719 Y70.783 I1.279 J0.782
G01 X166.544 Y71.106
G02 X166.509 Y71.175 I1.318 J0.716
G01 X166.351 Y71.506
G02 X166.318 Y71.579 I1.353 J0.646
G01 X166.178 Y71.918
G02 X166.15 Y71.991 I1.386 J0.573
G01 X166.028 Y72.337
G02 X166.004 Y72.411 I1.414 J0.499
G01 X165.9 Y72.762
G02 X165.88 Y72.836 I1.438 J0.425
G01 X165.794 Y73.192
G02 X165.778 Y73.27 I1.458 J0.351
G01 X165.711 Y73.63
G02 X165.698 Y73.708 I1.474 J0.274
G01 X165.65 Y74.071
G02 X165.642 Y74.153 I1.487 J0.196
G01 X165.614 Y74.519
G02 X165.61 Y74.592 I1.495 J0.114
G01 X165.6 Y74.959
G02 Y75.04 I1.499 J0.04
G01 X165.61 Y75.407
G02 X165.614 Y75.48 I1.499 J-0.04
G01 X165.642 Y75.846
G02 X165.65 Y75.928 I1.495 J-0.114
G01 X165.698 Y76.291
G02 X165.711 Y76.369 I1.487 J-0.196
G01 X165.778 Y76.729
G02 X165.794 Y76.807 I1.474 J-0.274
G01 X165.88 Y77.163
G02 X165.9 Y77.237 I1.458 J-0.351
G01 X166.004 Y77.588
G02 X166.028 Y77.662 I1.438 J-0.425
G01 X166.15 Y78.008
G02 X166.178 Y78.081 I1.414 J-0.499
G01 X166.318 Y78.42
G02 X166.351 Y78.493 I1.386 J-0.573
G01 X166.509 Y78.824
G02 X166.544 Y78.893 I1.353 J-0.646
G01 X166.719 Y79.216
G02 X166.758 Y79.282 I1.318 J-0.716
G01 X166.949 Y79.594
G02 X166.993 Y79.663 I1.279 J-0.782
G01 X167.201 Y79.965
G02 X167.246 Y80.027 I1.235 J-0.85
G01 X167.469 Y80.318
G02 X167.519 Y80.379 I1.19 J-0.912
G01 X167.757 Y80.657
G02 X167.809 Y80.715 I1.14 J-0.974
G01 X168.061 Y80.981
G02 X168.117 Y81.038 I1.088 J-1.032
G01 X168.383 Y81.29
G02 X168.442 Y81.343 I1.032 J-1.088
G01 X168.721 Y81.581
G02 X168.782 Y81.63 I0.973 J-1.141
G01 X169.073 Y81.853
G02 X169.136 Y81.899 I0.912 J-1.19
G01 X169.438 Y82.106
G02 X169.503 Y82.149 I0.849 J-1.236
G01 X169.815 Y82.34
G02 X169.884 Y82.38 I0.784 J-1.278
G01 X170.206 Y82.555
G02 X170.276 Y82.591 I0.715 J-1.318
G01 X170.607 Y82.748
G02 X170.678 Y82.78 I0.645 J-1.354
G01 X171.016 Y82.92
G02 X171.09 Y82.949 I0.574 J-1.385
G01 X171.436 Y83.071
G02 X171.51 Y83.095 I0.5 J-1.414
G01 X171.861 Y83.199
G02 X171.938 Y83.22 I0.426 J-1.438
G01 X172.295 Y83.305
G02 X172.371 Y83.321 I0.349 J-1.458
G01 X172.731 Y83.388
G02 X172.809 Y83.4 I0.273 J-1.474
G01 X173.172 Y83.448
G02 X173.25 Y83.456 I0.195 J-1.487
G01 X173.616 Y83.485
G02 X173.694 Y83.489 I0.117 J-1.495
G01 X174.06 Y83.499
G02 X174.139 I0.039 J-1.499
G01 X174.505 Y83.489
G02 X174.583 Y83.485 I-0.039 J-1.499
G01 X174.949 Y83.456
G02 X175.027 Y83.448 I-0.117 J-1.495
G01 X175.39 Y83.4
G02 X175.468 Y83.388 I-0.195 J-1.487
G01 X175.828 Y83.321
G02 X175.904 Y83.305 I-0.273 J-1.474
G01 X176.261 Y83.22
G02 X176.338 Y83.199 I-0.349 J-1.458
G01 X176.689 Y83.095
G02 X176.763 Y83.071 I-0.426 J-1.438
G01 X177.109 Y82.949
G02 X177.183 Y82.92 I-0.5 J-1.414
G01 X177.521 Y82.78
G02 X177.592 Y82.748 I-0.574 J-1.385
G01 X177.923 Y82.591
G02 X177.993 Y82.555 I-0.645 J-1.354
G01 X178.315 Y82.38
G02 X178.384 Y82.34 I-0.715 J-1.318
G01 X178.696 Y82.149
G02 X178.761 Y82.106 I-0.784 J-1.278
G01 X179.063 Y81.899
G02 X179.126 Y81.853 I-0.849 J-1.236
G01 X179.417 Y81.63
G01 Z-4.0 F100
G02 X179.478 Y81.581 I-0.912 J-1.19 F1000
G01 X179.757 Y81.343
G02 X179.816 Y81.29 I-0.973 J-1.141
G01 X180.082 Y81.038
G02 X180.138 Y80.981 I-1.032 J-1.088
G01 X180.39 Y80.715
G02 X180.442 Y80.657 I-1.088 J-1.032
G01 X180.68 Y80.379
G02 X180.73 Y80.318 I-1.14 J-0.974
G01 X180.953 Y80.027
G02 X180.998 Y79.965 I-1.19 J-0.912
G01 X181.206 Y79.663
G02 X181.25 Y79.594 I-1.235 J-0.85
G01 X181.441 Y79.282
G02 X181.48 Y79.216 I-1.279 J-0.782
G01 X181.655 Y78.893
G02 X181.69 Y78.824 I-1.318 J-0.716
G01 X181.848 Y78.493
G02 X181.881 Y78.42 I-1.353 J-0.646
G01 X182.021 Y78.081
G02 X182.049 Y78.008 I-1.386 J-0.573
G01 X182.171 Y77.662
G02 X182.195 Y77.588 I-1.414 J-0.499
G01 X182.299 Y77.237
G02 X182.319 Y77.163 I-1.438 J-0.425
G01 X182.405 Y76.807
G02 X182.421 Y76.729 I-1.458 J-0.351
G01 X182.488 Y76.369
G02 X182.501 Y76.291 I-1.474 J-0.274
G01 X182.549 Y75.928
G02 X182.557 Y75.846 I-1.487 J-0.196
G01 X182.585 Y75.48
G02 X182.589 Y75.407 I-1.495 J-0.114
G01 X182.599 Y75.04
G02 Y74.959 I-1.499 J-0.04
G01 X182.589 Y74.592
G02 X182.585 Y74.519 I-1.499 J0.04
G01 X182.557 Y74.153
G02 X182.549 Y74.071 I-1.495 J0.114
G01 X182.501 Y73.708
G02 X182.488 Y73.63 I-1.487 J0.196
G01 X182.421 Y73.27
G02 X182.405 Y73.192 I-1.474 J0.274
G01 X182.319 Y72.836
G02 X182.299 Y72.762 I-1.458 J0.351
G01 X182.195 Y72.411
G02 X182.171 Y72.337 I-1.438 J0.425
G01 X182.049 Y71.991
G02 X182.021 Y71.918 I-1.414 J0.499
G01 X181.881 Y71.579
G02 X181.848 Y71.506 I-1.386 J0.573
G01 X181.69 Y71.175
G02 X181.655 Y71.106 I-1.353 J0.646
G01 X181.48 Y70.783
G02 X181.441 Y70.717 I-1.318 J0.716
G01 X181.25 Y70.405
G02 X181.206 Y70.336 I-1.279 J0.782
G01 X180.998 Y70.034
G02 X180.953 Y69.972 I-1.235 J0.85
G01 X180.73 Y69.681
G02 X180.68 Y69.62 I-1.19 J0.912
G01 X180.442 Y69.342
G02 X180.39 Y69.284 I-1.14 J0.974
G01 X180.138 Y69.018
G02 X180.082 Y68.961 I-1.088 J1.032
G01 X179.816 Y68.709
G02 X179.757 Y68.656 I-1.032 J1.088
G01 X179.478 Y68.418
G02 X179.417 Y68.369 I-0.973 J1.141
G01 X179.126 Y68.146
G02 X179.063 Y68.1 I-0.912 J1.19
G01 X178.761 Y67.893
G02 X178.696 Y67.85 I-0.849 J1.236
G01 X178.384 Y67.659
G02 X178.315 Y67.619 I-0.784 J1.278
G01 X177.993 Y67.444
G02 X177.923 Y67.408 I-0.715 J1.318
G01 X177.592 Y67.251
G02 X177.521 Y67.219 I-0.645 J1.354
G01 X177.183 Y67.079
G02 X177.109 Y67.05 I-0.574 J1.385
G01 X176.763 Y66.928
G02 X176.689 Y66.904 I-0.5 J1.414
G01 X176.338 Y66.8
G02 X176.261 Y66.779 I-0.426 J1.438
G01 X175.904 Y66.694
G02 X175.828 Y66.678 I-0.349 J1.458
G01 X175.468 Y66.611
G02 X175.39 Y66.599 I-0.273 J1.474
G01 X175.027 Y66.551
G02 X174.949 Y66.543 I-0.195 J1.487
G01 X174.583 Y66.514
G02 X174.505 Y66.51 I-0.117 J1.495
G01 X174.139 Y66.5
G02 X174.06 I-0.039 J1.499
G01 X173.694 Y66.51
G02 X173.616 Y66.514 I0.039 J1.499
G01 X173.25 Y66.543
G02 X173.172 Y66.551 I0.117 J1.495
G01 X172.809 Y66.599
G02 X172.731 Y66.611 I0.195 J1.487
G01 X172.371 Y66.678
G02 X172.295 Y66.694 I0.273 J1.474
G01 X171.938 Y66.779
G02 X171.861 Y66.8 I0.349 J1.458
G01 X171.51 Y66.904
G02 X171.436 Y66.928 I0.426 J1.438
G01 X171.09 Y67.05
G02 X171.016 Y67.079 I0.5 J1.414
G01 X170.678 Y67.219
G02 X170.607 Y67.251 I0.574 J1.385
G01 X170.276 Y67.408
G02 X170.206 Y67.444 I0.645 J1.354
G01 X169.884 Y67.619
G02 X169.815 Y67.659 I0.715 J1.318
G01 X169.503 Y67.85
G02 X169.438 Y67.893 I0.784 J1.278
G01 X169.136 Y68.1
G02 X169.073 Y68.146 I0.849 J1.236
G01 X168.782 Y68.369
G02 X168.721 Y68.418 I0.912 J1.19
G01 X168.442 Y68.656
G02 X168.383 Y68.709 I0.973 J1.141
G01 X168.117 Y68.961
G02 X168.061 Y69.018 I1.032 J1.088
G01 X167.809 Y69.284
G02 X167.757 Y69.342 I1.088 J1.032
G01 X167.519 Y69.62
G02 X167.469 Y69.681 I1.14 J0.974
G01 X167.246 Y69.972
G02 X167.201 Y70.034 I1.19 J0.912
G01 X166.993 Y70.336
G02 X166.949 Y70.405 I1.235 J0.85
G01 X166.758 Y70.717
G02 X166.719 Y70.783 I1.279 J0.782
G01 X166.544 Y71.106
G02 X166.509 Y71.175 I1.318 J0.716
G01 X166.351 Y71.506
G02 X166.318 Y71.579 I1.353 J0.646
G01 X166.178 Y71.918
G02 X166.15 Y71.991 I1.386 J0.573
G01 X166.028 Y72.337
G02 X166.004 Y72.411 I1.414 J0.499
G01 X165.9 Y72.762
G02 X165.88 Y72.836 I1.438 J0.425
G01 X165.794 Y73.192
G02 X165.778 Y73.27 I1.458 J0.351
G01 X165.711 Y73.63
G02 X165.698 Y73.708 I1.474 J0.274
G01 X165.65 Y74.071
G02 X165.642 Y74.153 I1.487 J0.196
G01 X165.614 Y74.519
G02 X165.61 Y74.592 I1.495 J0.114
G01 X165.6 Y74.959
G02 Y75.04 I1.499 J0.04
G01 X165.61 Y75.407
G02 X165.614 Y75.48 I1.499 J-0.04
G01 X165.642 Y75.846
G02 X165.65 Y75.928 I1.495 J-0.114
G01 X165.698 Y76.291
G02 X165.711 Y76.369 I1.487 J-0.196
G01 X165.778 Y76.729
G02 X165.794 Y76.807 I1.474 J-0.274
G01 X165.88 Y77.163
G02 X165.9 Y77.237 I1.458 J-0.351
G01 X166.004 Y77.588
G02 X166.028 Y77.662 I1.438 J-0.425
G01 X166.15 Y78.008
G02 X166.178 Y78.081 I1.414 J-0.499
G01 X166.318 Y78.42
G02 X166.351 Y78.493 I1.386 J-0.573
G01 X166.509 Y78.824
G02 X166.544 Y78.893 I1.353 J-0.646
G01 X166.719 Y79.216
G02 X166.758 Y79.282 I1.318 J-0.716
G01 X166.949 Y79.594
G02 X166.993 Y79.663 I1.279 J-0.782
G01 X167.201 Y79.965
G02 X167.246 Y80.027 I1.235 J-0.85
G01 X167.469 Y80.318
G02 X167.519 Y80.379 I1.19 J-0.912
G01 X167.757 Y80.657
G02 X167.809 Y80.715 I1.14 J-0.974
G01 X168.061 Y80.981
G02 X168.117 Y81.038 I1.088 J-1.032
G01 X168.383 Y81.29
G02 X168.442 Y81.343 I1.032 J-1.088
G01 X168.721 Y81.581
G02 X168.782 Y81.63 I0.973 J-1.141
G01 X169.073 Y81.853
G02 X169.136 Y81.899 I0.912 J-1.19
G01 X169.438 Y82.106
G02 X169.503 Y82.149 I0.849 J-1.236
G01 X169.815 Y82.34
G02 X169.884 Y82.38 I0.784 J-1.278
G01 X170.206 Y82.555
G02 X170.276 Y82.591 I0.715 J-1.318
G01 X170.607 Y82.748
G02 X170.678 Y82.78 I0.645 J-1.354
G01 X171.016 Y82.92
G02 X171.09 Y82.949 I0.574 J-1.385
G01 X171.436 Y83.071
G02 X171.51 Y83.095 I0.5 J-1.414
G01 X171.861 Y83.199
G02 X171.938 Y83.22 I0.426 J-1.438
G01 X172.295 Y83.305
G02 X172.371 Y83.321 I0.349 J-1.458
G01 X172.731 Y83.388
G02 X172.809 Y83.4 I0.273 J-1.474
G01 X173.172 Y83.448
G02 X173.25 Y83.456 I0.195 J-1.487
G01 X173.616 Y83.485
G02 X173.694 Y83.489 I0.117 J-1.495
G01 X174.06 Y83.499
G02 X174.139 I0.039 J-1.499
G01 X174.505 Y83.489
G02 X174.583 Y83.485 I-0.039 J-1.499
G01 X174.949 Y83.456
G02 X175.027 Y83.448 I-0.117 J-1.495
G01 X175.39 Y83.4
G02 X175.468 Y83.388 I-0.195 J-1.487
G01 X175.828 Y83.321
G02 X175.904 Y83.305 I-0.273 J-1.474
G01 X176.261 Y83.22
G02 X176.338 Y83.199 I-0.349 J-1.458
G01 X176.689 Y83.095
G02 X176.763 Y83.071 I-0.426 J-1.438
G01 X177.109 Y82.949
G02 X177.183 Y82.92 I-0.5 J-1.414
G01 X177.521 Y82.78
G02 X177.592 Y82.748 I-0.574 J-1.385
G01 X177.923 Y82.591
G02 X177.993 Y82.555 I-0.645 J-1.354
G01 X178.315 Y82.38
G02 X178.384 Y82.34 I-0.715 J-1.318
G01 X178.696 Y82.149
G02 X178.761 Y82.106 I-0.784 J-1.278
G01 X179.063 Y81.899
G02 X179.126 Y81.853 I-0.849 J-1.236
G01 X179.417 Y81.63
G01 Z-6.0 F100
G02 X179.478 Y81.581 I-0.912 J-1.19 F1000
G01 X179.757 Y81.343
G02 X179.816 Y81.29 I-0.973 J-1.141
G01 X180.082 Y81.038
G02 X180.138 Y80.981 I-1.032 J-1.088
G01 X180.39 Y80.715
G02 X180.442 Y80.657 I-1.088 J-1.032
G01 X180.68 Y80.379
G02 X180.73 Y80.318 I-1.14 J-0.974
G01 X180.953 Y80.027
G02 X180.998 Y79.965 I-1.19 J-0.912
G01 X181.206 Y79.663
G02 X181.25 Y79.594 I-1.235 J-0.85
G01 X181.441 Y79.282
G02 X181.48 Y79.216 I-1.279 J-0.782
G01 X181.655 Y78.893
G02 X181.69 Y78.824 I-1.318 J-0.716
G01 X181.848 Y78.493
G02 X181.881 Y78.42 I-1.353 J-0.646
G01 X182.021 Y78.081
G02 X182.049 Y78.008 I-1.386 J-0.573
G01 X182.171 Y77.662
G02 X182.195 Y77.588 I-1.414 J-0.499
G01 X182.299 Y77.237
G02 X182.319 Y77.163 I-1.438 J-0.425
G01 X182.405 Y76.807
G02 X182.421 Y76.729 I-1.458 J-0.351
G01 X182.488 Y76.369
G02 X182.501 Y76.291 I-1.474 J-0.274
G01 X182.549 Y75.928
G02 X182.557 Y75.846 I-1.487 J-0.196
G01 X182.585 Y75.48
G02 X182.589 Y75.407 I-1.495 J-0.114
G01 X182.599 Y75.04
G02 Y74.959 I-1.499 J-0.04
G01 X182.589 Y74.592
G02 X182.585 Y74.519 I-1.499 J0.04
G01 X182.557 Y74.153
G02 X182.549 Y74.071 I-1.495 J0.114
G01 X182.501 Y73.708
G02 X182.488 Y73.63 I-1.487 J0.196
G01 X182.421 Y73.27
G02 X182.405 Y73.192 I-1.474 J0.274
G01 X182.319 Y72.836
G02 X182.299 Y72.762 I-1.458 J0.351
G01 X182.195 Y72.411
G02 X182.171 Y72.337 I-1.438 J0.425
G01 X182.049 Y71.991
G02 X182.021 Y71.918 I-1.414 J0.499
G01 X181.881 Y71.579
G02 X181.848 Y71.506 I-1.386 J0.573
G01 X181.69 Y71.175
G02 X181.655 Y71.106 I-1.353 J0.646
G01 X181.48 Y70.783
G02 X181.441 Y70.717 I-1.318 J0.716
G01 X181.25 Y70.405
G02 X181.206 Y70.336 I-1.279 J0.782
G01 X180.998 Y70.034
G02 X180.953 Y69.972 I-1.235 J0.85
G01 X180.73 Y69.681
G02 X180.68 Y69.62 I-1.19 J0.912
G01 X180.442 Y69.342
G02 X180.39 Y69.284 I-1.14 J0.974
G01 X180.138 Y69.018
G02 X180.082 Y68.961 I-1.088 J1.032
G01 X179.816 Y68.709
G02 X179.757 Y68.656 I-1.032 J1.088
G01 X179.478 Y68.418
G02 X179.417 Y68.369 I-0.973 J1.141
G01 X179.126 Y68.146
G02 X179.063 Y68.1 I-0.912 J1.19
G01 X178.761 Y67.893
G02 X178.696 Y67.85 I-0.849 J1.236
G01 X178.384 Y67.659
G02 X178.315 Y67.619 I-0.784 J1.278
G01 X177.993 Y67.444
G02 X177.923 Y67.408 I-0.715 J1.318
G01 X177.592 Y67.251
G02 X177.521 Y67.219 I-0.645 J1.354
G01 X177.183 Y67.079
G02 X177.109 Y67.05 I-0.574 J1.385
G01 X176.763 Y66.928
G02 X176.689 Y66.904 I-0.5 J1.414
G01 X176.338 Y66.8
G02 X176.261 Y66.779 I-0.426 J1.438
G01 X175.904 Y66.694
G02 X175.828 Y66.678 I-0.349 J1.458
G01 X175.468 Y66.611
G02 X175.39 Y66.599 I-0.273 J1.474
G01 X175.027 Y66.551
G02 X174.949 Y66.543 I-0.195 J1.487
G01 X174.583 Y66.514
G02 X174.505 Y66.51 I-0.117 J1.495
G01 X174.139 Y66.5
G02 X174.06 I-0.039 J1.499
G01 X173.694 Y66.51
G02 X173.616 Y66.514 I0.039 J1.499
G01 X173.25 Y66.543
G02 X173.172 Y66.551 I0.117 J1.495
G01 X172.809 Y66.599
G02 X172.731 Y66.611 I0.195 J1.487
G01 X172.371 Y66.678
G02 X172.295 Y66.694 I0.273 J1.474
G01 X171.938 Y66.779
G02 X171.861 Y66.8 I0.349 J1.458
G01 X171.51 Y66.904
G02 X171.436 Y66.928 I0.426 J1.438
G01 X171.09 Y67.05
G02 X171.016 Y67.079 I0.5 J1.414
G01 X170.678 Y67.219
G02 X170.607 Y67.251 I0.574 J1.385
G01 X170.276 Y67.408
G02 X170.206 Y67.444 I0.645 J1.354
G01 X169.884 Y67.619
G02 X169.815 Y67.659 I0.715 J1.318
G01 X169.503 Y67.85
G02 X169.438 Y67.893 I0.784 J1.278
G01 X169.136 Y68.1
G02 X169.073 Y68.146 I0.849 J1.236
G01 X168.782 Y68.369
G02 X168.721 Y68.418 I0.912 J1.19
G01 X168.442 Y68.656
G02 X168.383 Y68.709 I0.973 J1.141
G01 X168.117 Y68.961
G02 X168.061 Y69.018 I1.032 J1.088
G01 X167.809 Y69.284
G02 X167.757 Y69.342 I1.088 J1.032
G01 X167.519 Y69.62
G02 X167.469 Y69.681 I1.14 J0.974
G01 X167.246 Y69.972
G02 X167.201 Y70.034 I1.19 J0.912
G01 X166.993 Y70.336
G02 X166.949 Y70.405 I1.235 J0.85
G01 X166.758 Y70.717
G02 X166.719 Y70.783 I1.279 J0.782
G01 X166.544 Y71.106
G02 X166.509 Y71.175 I1.318 J0.716
G01 X166.351 Y71.506
G02 X166.318 Y71.579 I1.353 J0.646
G01 X166.178 Y71.918
G02 X166.15 Y71.991 I1.386 J0.573
G01 X166.028 Y72.337
G02 X166.004 Y72.411 I1.414 J0.499
G01 X165.9 Y72.762
G02 X165.88 Y72.836 I1.438 J0.425
G01 X165.794 Y73.192
G02 X165.778 Y73.27 I1.458 J0.351
G01 X165.711 Y73.63
G02 X165.698 Y73.708 I1.474 J0.274
G01 X165.65 Y74.071
G02 X165.642 Y74.153 I1.487 J0.196
G01 X165.614 Y74.519
G02 X165.61 Y74.592 I1.495 J0.114
G01 X165.6 Y74.959
G02 Y75.04 I1.499 J0.04
G01 X165.61 Y75.407
G02 X165.614 Y75.48 I1.499 J-0.04
G01 X165.642 Y75.846
G02 X165.65 Y75.928 I1.495 J-0.114
G01 X165.698 Y76.291
G02 X165.711 Y76.369 I1.487 J-0.196
G01 X165.778 Y76.729
G02 X165.794 Y76.807 I1.474 J-0.274
G01 X165.88 Y77.163
G02 X165.9 Y77.237 I1.458 J-0.351
G01 X166.004 Y77.588
G02 X166.028 Y77.662 I1.438 J-0.425
G01 X166.15 Y78.008
G02 X166.178 Y78.081 I1.414 J-0.499
G01 X166.318 Y78.42
G02 X166.351 Y78.493 I1.386 J-0.573
G01 X166.509 Y78.824
G02 X166.544 Y78.893 I1.353 J-0.646
G01 X166.719 Y79.216
G02 X166.758 Y79.282 I1.318 J-0.716
G01 X166.949 Y79.594
G02 X166.993 Y79.663 I1.279 J-0.782
G01 X167.201 Y79.965
G02 X167.246 Y80.027 I1.235 J-0.85
G01 X167.469 Y80.318
G02 X167.519 Y80.379 I1.19 J-0.912
G01 X167.757 Y80.657
G02 X167.809 Y80.715 I1.14 J-0.974
G01 X168.061 Y80.981
G02 X168.117 Y81.038 I1.088 J-1.032
G01 X168.383 Y81.29
G02 X168.442 Y81.343 I1.032 J-1.088
G01 X168.721 Y81.581
G02 X168.782 Y81.63 I0.973 J-1.141
G01 X169.073 Y81.853
G02 X169.136 Y81.899 I0.912 J-1.19
G01 X169.438 Y82.106
G02 X169.503 Y82.149 I0.849 J-1.236
G01 X169.815 Y82.34
G02 X169.884 Y82.38 I0.784 J-1.278
G01 X170.206 Y82.555
G02 X170.276 Y82.591 I0.715 J-1.318
G01 X170.607 Y82.748
G02 X170.678 Y82.78 I0.645 J-1.354
G01 X171.016 Y82.92
G02 X171.09 Y82.949 I0.574 J-1.385
G01 X171.436 Y83.071
G02 X171.51 Y83.095 I0.5 J-1.414
G01 X171.861 Y83.199
G02 X171.938 Y83.22 I0.426 J-1.438
G01 X172.295 Y83.305
G02 X172.371 Y83.321 I0.349 J-1.458
G01 X172.731 Y83.388
G02 X172.809 Y83.4 I0.273 J-1.474
G01 X173.172 Y83.448
G02 X173.25 Y83.456 I0.195 J-1.487
G01 X173.616 Y83.485
G02 X173.694 Y83.489 I0.117 J-1.495
G01 X174.06 Y83.499
G02 X174.139 I0.039 J-1.499
G01 X174.505 Y83.489
G02 X174.583 Y83.485 I-0.039 J-1.499
G01 X174.949 Y83.456
G02 X175.027 Y83.448 I-0.117 J-1.495
G01 X175.39 Y83.4
G02 X175.468 Y83.388 I-0.195 J-1.487
G01 X175.828 Y83.321
G02 X175.904 Y83.305 I-0.273 J-1.474
G01 X176.261 Y83.22
G02 X176.338 Y83.199 I-0.349 J-1.458
G01 X176.689 Y83.095
G02 X176.763 Y83.071 I-0.426 J-1.438
G01 X177.109 Y82.949
G02 X177.183 Y82.92 I-0.5 J-1.414
G01 X177.521 Y82.78
G02 X177.592 Y82.748 I-0.574 J-1.385
G01 X177.923 Y82.591
G02 X177.993 Y82.555 I-0.645 J-1.354
G01 X178.315 Y82.38
G02 X178.384 Y82.34 I-0.715 J-1.318
G01 X178.696 Y82.149
G02 X178.761 Y82.106 I-0.784 J-1.278
G01 X179.063 Y81.899
G02 X179.126 Y81.853 I-0.849 J-1.236
G01 X179.417 Y81.63
G01 Z-6.3 F100
G02 X179.478 Y81.581 I-0.912 J-1.19 F1000
G01 X179.757 Y81.343
G02 X179.816 Y81.29 I-0.973 J-1.141
G01 X180.082 Y81.038
G02 X180.138 Y80.981 I-1.032 J-1.088
G01 X180.39 Y80.715
G02 X180.442 Y80.657 I-1.088 J-1.032
G01 X180.68 Y80.379
G02 X180.73 Y80.318 I-1.14 J-0.974
G01 X180.953 Y80.027
G02 X180.998 Y79.965 I-1.19 J-0.912
G01 X181.206 Y79.663
G02 X181.25 Y79.594 I-1.235 J-0.85
G01 X181.441 Y79.282
G02 X181.48 Y79.216 I-1.279 J-0.782
G01 X181.655 Y78.893
G02 X181.69 Y78.824 I-1.318 J-0.716
G01 X181.848 Y78.493
G02 X181.881 Y78.42 I-1.353 J-0.646
G01 X182.021 Y78.081
G02 X182.049 Y78.008 I-1.386 J-0.573
G01 X182.171 Y77.662
G02 X182.195 Y77.588 I-1.414 J-0.499
G01 X182.299 Y77.237
G02 X182.319 Y77.163 I-1.438 J-0.425
G01 X182.405 Y76.807
G02 X182.421 Y76.729 I-1.458 J-0.351
G01 X182.488 Y76.369
G02 X182.501 Y76.291 I-1.474 J-0.274
G01 X182.549 Y75.928
G02 X182.557 Y75.846 I-1.487 J-0.196
G01 X182.585 Y75.48
G02 X182.589 Y75.407 I-1.495 J-0.114
G01 X182.599 Y75.04
G02 Y74.959 I-1.499 J-0.04
G01 X182.589 Y74.592
G02 X182.585 Y74.519 I-1.499 J0.04
G01 X182.557 Y74.153
G02 X182.549 Y74.071 I-1.495 J0.114
G01 X182.501 Y73.708
G02 X182.488 Y73.63 I-1.487 J0.196
G01 X182.421 Y73.27
G02 X182.405 Y73.192 I-1.474 J0.274
G01 X182.319 Y72.836
G02 X182.299 Y72.762 I-1.458 J0.351
G01 X182.195 Y72.411
G02 X182.171 Y72.337 I-1.438 J0.425
G01 X182.049 Y71.991
G02 X182.021 Y71.918 I-1.414 J0.499
G01 X181.881 Y71.579
G02 X181.848 Y71.506 I-1.386 J0.573
G01 X181.69 Y71.175
G02 X181.655 Y71.106 I-1.353 J0.646
G01 X181.48 Y70.783
G02 X181.441 Y70.717 I-1.318 J0.716
G01 X181.25 Y70.405
G02 X181.206 Y70.336 I-1.279 J0.782
G01 X180.998 Y70.034
G02 X180.953 Y69.972 I-1.235 J0.85
G01 X180.73 Y69.681
G02 X180.68 Y69.62 I-1.19 J0.912
G01 X180.442 Y69.342
G02 X180.39 Y69.284 I-1.14 J0.974
G01 X180.138 Y69.018
G02 X180.082 Y68.961 I-1.088 J1.032
G01 X179.816 Y68.709
G02 X179.757 Y68.656 I-1.032 J1.088
G01 X179.478 Y68.418
G02 X179.417 Y68.369 I-0.973 J1.141
G01 X179.126 Y68.146
G02 X179.063 Y68.1 I-0.912 J1.19
G01 X178.761 Y67.893
G02 X178.696 Y67.85 I-0.849 J1.236
G01 X178.384 Y67.659
G02 X178.315 Y67.619 I-0.784 J1.278
G01 X177.993 Y67.444
G02 X177.923 Y67.408 I-0.715 J1.318
G01 X177.592 Y67.251
G02 X177.521 Y67.219 I-0.645 J1.354
G01 X177.183 Y67.079
G02 X177.109 Y67.05 I-0.574 J1.385
G01 X176.763 Y66.928
G02 X176.689 Y66.904 I-0.5 J1.414
G01 X176.338 Y66.8
G02 X176.261 Y66.779 I-0.426 J1.438
G01 X175.904 Y66.694
G02 X175.828 Y66.678 I-0.349 J1.458
G01 X175.468 Y66.611
G02 X175.39 Y66.599 I-0.273 J1.474
G01 X175.027 Y66.551
G02 X174.949 Y66.543 I-0.195 J1.487
G01 X174.583 Y66.514
G02 X174.505 Y66.51 I-0.117 J1.495
G01 X174.139 Y66.5
G02 X174.06 I-0.039 J1.499
G01 X173.694 Y66.51
G02 X173.616 Y66.514 I0.039 J1.499
G01 X173.25 Y66.543
G02 X173.172 Y66.551 I0.117 J1.495
G01 X172.809 Y66.599
G02 X172.731 Y66.611 I0.195 J1.487
G01 X172.371 Y66.678
G02 X172.295 Y66.694 I0.273 J1.474
G01 X171.938 Y66.779
G02 X171.861 Y66.8 I0.349 J1.458
G01 X171.51 Y66.904
G02 X171.436 Y66.928 I0.426 J1.438
G01 X171.09 Y67.05
G02 X171.016 Y67.079 I0.5 J1.414
G01 X170.678 Y67.219
G02 X170.607 Y67.251 I0.574 J1.385
G01 X170.276 Y67.408
G02 X170.206 Y67.444 I0.645 J1.354
G01 X169.884 Y67.619
G02 X169.815 Y67.659 I0.715 J1.318
G01 X169.503 Y67.85
G02 X169.438 Y67.893 I0.784 J1.278
G01 X169.136 Y68.1
G02 X169.073 Y68.146 I0.849 J1.236
G01 X168.782 Y68.369
G02 X168.721 Y68.418 I0.912 J1.19
G01 X168.442 Y68.656
G02 X168.383 Y68.709 I0.973 J1.141
G01 X168.117 Y68.961
G02 X168.061 Y69.018 I1.032 J1.088
G01 X167.809 Y69.284
G02 X167.757 Y69.342 I1.088 J1.032
G01 X167.519 Y69.62
G02 X167.469 Y69.681 I1.14 J0.974
G01 X167.246 Y69.972
G02 X167.201 Y70.034 I1.19 J0.912
G01 X166.993 Y70.336
G02 X166.949 Y70.405 I1.235 J0.85
G01 X166.758 Y70.717
G02 X166.719 Y70.783 I1.279 J0.782
G01 X166.544 Y71.106
G02 X166.509 Y71.175 I1.318 J0.716
G01 X166.351 Y71.506
G02 X166.318 Y71.579 I1.353 J0.646
G01 X166.178 Y71.918
G02 X166.15 Y71.991 I1.386 J0.573
G01 X166.028 Y72.337
G02 X166.004 Y72.411 I1.414 J0.499
G01 X165.9 Y72.762
G02 X165.88 Y72.836 I1.438 J0.425
G01 X165.794 Y73.192
G02 X165.778 Y73.27 I1.458 J0.351
G01 X165.711 Y73.63
G02 X165.698 Y73.708 I1.474 J0.274
G01 X165.65 Y74.071
G02 X165.642 Y74.153 I1.487 J0.196
G01 X165.614 Y74.519
G02 X165.61 Y74.592 I1.495 J0.114
G01 X165.6 Y74.959
G02 Y75.04 I1.499 J0.04
G01 X165.61 Y75.407
G02 X165.614 Y75.48 I1.499 J-0.04
G01 X165.642 Y75.846
G02 X165.65 Y75.928 I1.495 J-0.114
G01 X165.698 Y76.291
G02 X165.711 Y76.369 I1.487 J-0.196
G01 X165.778 Y76.729
G02 X165.794 Y76.807 I1.474 J-0.274
G01 X165.88 Y77.163
G02 X165.9 Y77.237 I1.458 J-0.351
G01 X166.004 Y77.588
G02 X166.028 Y77.662 I1.438 J-0.425
G01 X166.15 Y78.008
G02 X166.178 Y78.081 I1.414 J-0.499
G01 X166.318 Y78.42
G02 X166.351 Y78.493 I1.386 J-0.573
G01 X166.509 Y78.824
G02 X166.544 Y78.893 I1.353 J-0.646
G01 X166.719 Y79.216
G02 X166.758 Y79.282 I1.318 J-0.716
G01 X166.949 Y79.594
G02 X166.993 Y79.663 I1.279 J-0.782
G01 X167.201 Y79.965
G02 X167.246 Y80.027 I1.235 J-0.85
G01 X167.469 Y80.318
G02 X167.519 Y80.379 I1.19 J-0.912
G01 X167.757 Y80.657
G02 X167.809 Y80.715 I1.14 J-0.974
G01 X168.061 Y80.981
G02 X168.117 Y81.038 I1.088 J-1.032
G01 X168.383 Y81.29
G02 X168.442 Y81.343 I1.032 J-1.088
G01 X168.721 Y81.581
G02 X168.782 Y81.63 I0.973 J-1.141
G01 X169.073 Y81.853
G02 X169.136 Y81.899 I0.912 J-1.19
G01 X169.438 Y82.106
G02 X169.503 Y82.149 I0.849 J-1.236
G01 X169.815 Y82.34
G02 X169.884 Y82.38 I0.784 J-1.278
G01 X170.206 Y82.555
G02 X170.276 Y82.591 I0.715 J-1.318
G01 X170.607 Y82.748
G02 X170.678 Y82.78 I0.645 J-1.354
G01 X171.016 Y82.92
G02 X171.09 Y82.949 I0.574 J-1.385
G01 X171.436 Y83.071
G02 X171.51 Y83.095 I0.5 J-1.414
G01 X171.861 Y83.199
G02 X171.938 Y83.22 I0.426 J-1.438
G01 X172.295 Y83.305
G02 X172.371 Y83.321 I0.349 J-1.458
G01 X172.731 Y83.388
G02 X172.809 Y83.4 I0.273 J-1.474
G01 X173.172 Y83.448
G02 X173.25 Y83.456 I0.195 J-1.487
G01 X173.616 Y83.485
G02 X173.694 Y83.489 I0.117 J-1.495
G01 X174.06 Y83.499
G02 X174.139 I0.039 J-1.499
G01 X174.505 Y83.489
G02 X174.583 Y83.485 I-0.039 J-1.499
G01 X174.949 Y83.456
G02 X175.027 Y83.448 I-0.117 J-1.495
G01 X175.39 Y83.4
G02 X175.468 Y83.388 I-0.195 J-1.487
G01 X175.828 Y83.321
G02 X175.904 Y83.305 I-0.273 J-1.474
G01 X176.261 Y83.22
G02 X176.338 Y83.199 I-0.349 J-1.458
G01 X176.689 Y83.095
G02 X176.763 Y83.071 I-0.426 J-1.438
G01 X177.109 Y82.949
G02 X177.183 Y82.92 I-0.5 J-1.414
G01 X177.521 Y82.78
G02 X177.592 Y82.748 I-0.574 J-1.385
G01 X177.923 Y82.591
G02 X177.993 Y82.555 I-0.645 J-1.354
G01 X178.315 Y82.38
G02 X178.384 Y82.34 I-0.715 J-1.318
G01 X178.696 Y82.149
G02 X178.761 Y82.106 I-0.784 J-1.278
G01 X179.063 Y81.899
G02 X179.126 Y81.853 I-0.849 J-1.236
G01 X179.417 Y81.63
G00 Z2.0
 (--------------------------------------------------)
 (Object: #0)
 (Layer: 0)
 (Overcut: 0)
 (Depth: -6.300000)
 (Offset: Outside)
 (Tool-Num: 1)
 (Tool-Diameter: 3.00)
 (Tool-Speed: 12000)
 (--------------------------------------------------)

G00
G00 X124.5 Y115.0
G00 Z1.0
G01 Z-2.0 F100
G03 X124.492 Y115.147 I-1.5 J-0.0 F1000
G01 X124.338 Y116.708
G03 X124.281 Y116.996 I-1.492 J-0.147
G01 X123.826 Y118.496
G03 X123.714 Y118.767 I-1.435 J-0.435
G01 X122.975 Y120.151
G03 X122.811 Y120.396 I-1.323 J-0.706
G01 X121.816 Y121.608
G03 X121.608 Y121.816 I-1.159 J-0.951
G01 X120.396 Y122.811
G03 X120.151 Y122.975 I-0.951 J-1.159
G01 X118.767 Y123.714
G03 X118.496 Y123.826 I-0.706 J-1.323
G01 X116.996 Y124.281
G03 X116.708 Y124.338 I-0.435 J-1.435
G01 X115.147 Y124.492
G03 X115.0 Y124.5 I-0.147 J-1.492
G01 X35.0
G03 X34.852 Y124.492 I-0.0 J-1.5
G01 X33.292 Y124.338
G03 X33.004 Y124.281 I0.147 J-1.492
G01 X31.503 Y123.826
G03 X31.231 Y123.713 I0.435 J-1.435
G01 X29.848 Y122.974
G03 X29.603 Y122.811 I0.706 J-1.322
G01 X28.391 Y121.816
G03 X28.183 Y121.608 I0.951 J-1.159
G01 X27.188 Y120.396
G03 X27.025 Y120.151 I1.159 J-0.951
G01 X26.285 Y118.767
G03 X26.173 Y118.496 I1.323 J-0.706
G01 X25.718 Y116.996
G03 X25.66 Y116.707 I1.435 J-0.435
G01 X25.507 Y115.146
G03 X25.5 Y115.0 I1.492 J-0.146
G01 Y35.0
G03 X25.507 Y34.852 I1.5 J0.0
G01 X25.66 Y33.292
G03 X25.718 Y33.003 I1.492 J0.147
G01 X26.173 Y31.503
G03 X26.286 Y31.231 I1.435 J0.435
G01 X27.025 Y29.848
G03 X27.188 Y29.603 I1.322 J0.707
G01 X28.183 Y28.391
G03 X28.391 Y28.183 I1.159 J0.951
G01 X29.603 Y27.188
G03 X29.848 Y27.025 I0.951 J1.159
G01 X31.231 Y26.286
G03 X31.503 Y26.173 I0.707 J1.322
G01 X33.003 Y25.718
G03 X33.292 Y25.66 I0.435 J1.435
G01 X34.852 Y25.507
G03 X35.0 Y25.5 I0.147 J1.492
G01 X115.0
G03 X115.146 Y25.507 I0.0 J1.5
G01 X116.707 Y25.66
G03 X116.996 Y25.718 I-0.146 J1.492
G01 X118.496 Y26.173
G03 X118.767 Y26.285 I-0.435 J1.435
G01 X120.151 Y27.025
G03 X120.396 Y27.188 I-0.706 J1.323
G01 X121.608 Y28.183
G03 X121.816 Y28.391 I-0.951 J1.159
G01 X122.811 Y29.603
G03 X122.974 Y29.848 I-1.159 J0.951
G01 X123.713 Y31.231
G03 X123.826 Y31.503 I-1.322 J0.706
G01 X124.281 Y33.004
G03 X124.338 Y33.292 I-1.435 J0.435
G01 X124.492 Y34.852
G03 X124.5 Y35.0 I-1.492 J0.147
G01 Y115.0
G01 Z-4.0 F100
G03 X124.492 Y115.147 I-1.5 J-0.0 F1000
G01 X124.338 Y116.708
G03 X124.281 Y116.996 I-1.492 J-0.147
G01 X123.826 Y118.496
G03 X123.714 Y118.767 I-1.435 J-0.435
G01 X122.975 Y120.151
G03 X122.811 Y120.396 I-1.323 J-0.706
G01 X121.816 Y121.608
G03 X121.608 Y121.816 I-1.159 J-0.951
G01 X120.396 Y122.811
G03 X120.151 Y122.975 I-0.951 J-1.159
G01 X118.767 Y123.714
G03 X118.496 Y123.826 I-0.706 J-1.323
G01 X116.996 Y124.281
G03 X116.708 Y124.338 I-0.435 J-1.435
G01 X115.147 Y124.492
G03 X115.0 Y124.5 I-0.147 J-1.492
G01 X35.0
G03 X34.852 Y124.492 I-0.0 J-1.5
G01 X33.292 Y124.338
G03 X33.004 Y124.281 I0.147 J-1.492
G01 X31.503 Y123.826
G03 X31.231 Y123.713 I0.435 J-1.435
G01 X29.848 Y122.974
G03 X29.603 Y122.811 I0.706 J-1.322
G01 X28.391 Y121.816
G03 X28.183 Y121.608 I0.951 J-1.159
G01 X27.188 Y120.396
G03 X27.025 Y120.151 I1.159 J-0.951
G01 X26.285 Y118.767
G03 X26.173 Y118.496 I1.323 J-0.706
G01 X25.718 Y116.996
G03 X25.66 Y116.707 I1.435 J-0.435
G01 X25.507 Y115.146
G03 X25.5 Y115.0 I1.492 J-0.146
G01 Y35.0
G03 X25.507 Y34.852 I1.5 J0.0
G01 X25.66 Y33.292
G03 X25.718 Y33.003 I1.492 J0.147
G01 X26.173 Y31.503
G03 X26.286 Y31.231 I1.435 J0.435
G01 X27.025 Y29.848
G03 X27.188 Y29.603 I1.322 J0.707
G01 X28.183 Y28.391
G03 X28.391 Y28.183 I1.159 J0.951
G01 X29.603 Y27.188
G03 X29.848 Y27.025 I0.951 J1.159
G01 X31.231 Y26.286
G03 X31.503 Y26.173 I0.707 J1.322
G01 X33.003 Y25.718
G03 X33.292 Y25.66 I0.435 J1.435
G01 X34.852 Y25.507
