 ( CAMmill GRBL Postprocessor )
 ( Ver: 20150830 - by onekk )
 ( GRBL Support only G61 mode )
 ( Version < 0.9i build 20150529 )
 ( must delete the G61 from this file )
 ( otherwise it raise an error )
G21 (Metric/mm)
G40 (No Offsets)
G90 (Absolute-Mode)
G61
F100
 (--------------------------------------------------)
 (Object: #9)
 (Layer: 0)
 (Overcut: 0)
 (Depth: -6.300000)
 (Offset: Inside)
 (Tool-Num: 1)
 (Tool-Diameter: 3.00)
 (Tool-Speed: 12000)
 (--------------------------------------------------)
M05
M6 T1
M03 S12000
G00 X28.111 Y28.111 Z2.0
G00 X34.298 Y34.298
G00 Z1.0
G01 Z-2.0
G01 X34.174 Y34.448 F1000
G01 X34.082 Y34.62
G01 X34.026 Y34.806
G01 X34.007 Y35.0
G01 X34.026 Y35.193
G01 X34.082 Y35.379
G01 X34.174 Y35.551
G01 X34.298 Y35.701
G01 X34.448 Y35.825
G01 X34.62 Y35.917
G01 X34.806 Y35.973
G01 X35.0 Y35.992
G01 X35.193 Y35.973
G01 X35.379 Y35.917
G01 X35.551 Y35.825
G01 X35.701 Y35.701
G01 X35.825 Y35.551
G01 X35.917 Y35.379
G01 X35.973 Y35.193
G01 X35.992 Y35.0
G01 X35.973 Y34.806
G01 X35.917 Y34.62
G01 X35.825 Y34.448
G01 X35.701 Y34.298
G01 X35.551 Y34.174
G01 X35.379 Y34.082
G01 X35.193 Y34.026
G01 X35.0 Y34.007
G01 X34.806 Y34.026
G01 X34.62 Y34.082
G01 X34.448 Y34.174
G01 X34.298 Y34.298
G01 Z-4.0 F100
G01 X34.174 Y34.448 F1000
G01 X34.082 Y34.62
G01 X34.026 Y34.806
G01 X34.007 Y35.0
G01 X34.026 Y35.193
G01 X34.082 Y35.379
G01 X34.174 Y35.551
G01 X34.298 Y35.701
G01 X34.448 Y35.825
G01 X34.62 Y35.917
G01 X34.806 Y35.973
G01 X35.0 Y35.992
G01 X35.193 Y35.973
G01 X35.379 Y35.917
G01 X35.551 Y35.825
G01 X35.701 Y35.701
G01 X35.825 Y35.551
G01 X35.917 Y35.379
G01 X35.973 Y35.193
G01 X35.992 Y35.0
G01 X35.973 Y34.806
G01 X35.917 Y34.62
G01 X35.825 Y34.448
G01 X35.701 Y34.298
G01 X35.551 Y34.174
G01 X35.379 Y34.082
G01 X35.193 Y34.026
G01 X35.0 Y34.007
G01 X34.806 Y34.026
G01 X34.62 Y34.082
G01 X34.448 Y34.174
G01 X34.298 Y34.298
G01 Z-6.0 F100
G01 X34.174 Y34.448 F1000
G01 X34.082 Y34.62
G01 X34.026 Y34.806
G01 X34.007 Y35.0
G01 X34.026 Y35.193
G01 X34.082 Y35.379
G01 X34.174 Y35.551
G01 X34.298 Y35.701
G01 X34.448 Y35.825
G01 X34.62 Y35.917
G01 X34.806 Y35.973
G01 X35.0 Y35.992
G01 X35.193 Y35.973
G01 X35.379 Y35.917
G01 X35.551 Y35.825
G01 X35.701 Y35.701
G01 X35.825 Y35.551
G01 X35.917 Y35.379
G01 X35.973 Y35.193
G01 X35.992 Y35.0
G01 X35.973 Y34.806
G01 X35.917 Y34.62
G01 X35.825 Y34.448
G01 X35.701 Y34.298
G01 X35.551 Y34.174
G01 X35.379 Y34.082
G01 X35.193 Y34.026
G01 X35.0 Y34.007
G01 X34.806 Y34.026
G01 X34.62 Y34.082
G01 X34.448 Y34.174
G01 X34.298 Y34.298
G01 Z-6.3 F100
G01 X34.174 Y34.448 F1000
G01 X34.082 Y34.62
G01 X34.026 Y34.806
G01 X34.007 Y35.0
G01 X34.026 Y35.193
G01 X34.082 Y35.379
G01 X34.174 Y35.551
G01 X34.298 Y35.701
G01 X34.448 Y35.825
G01 X34.62 Y35.917
G01 X34.806 Y35.973
G01 X35.0 Y35.992
G01 X35.193 Y35.973
G01 X35.379 Y35.917
G01 X35.551 Y35.825
G01 X35.701 Y35.701
G01 X35.825 Y35.551
G01 X35.917 Y35.379
G01 X35.973 Y35.193
G01 X35.992 Y35.0
G01 X35.973 Y34.806
G01 X35.917 Y34.62
G01 X35.825 Y34.448
G01 X35.701 Y34.298
G01 X35.551 Y34.174
G01 X35.379 Y34.082
G01 X35.193 Y34.026
G01 X35.0 Y34.007
G01 X34.806 Y34.026
G01 X34.62 Y34.082
G01 X34.448 Y34.174
G01 X34.298 Y34.298
G00 Z2.0
 (--------------------------------------------------)
 (Object: #7)
 (Layer: 0)
 (Overcut: 0)
 (Depth: -6.300000)
 (Offset: Inside)
 (Tool-Num: 1)
 (Tool-Diameter: 3.00)
 (Tool-Speed: 12000)
 (--------------------------------------------------)
M05

M03
G00
G00 X42.434 Y42.434
G00 Z1.0
G01 Z-2.0 F100
G01 X42.422 Y42.448 F1000
G01 X42.414 Y42.464
G01 X42.409 Y42.481
G01 X42.407 Y42.5
G01 X42.409 Y42.518
G01 X42.414 Y42.535
G01 X42.422 Y42.551
G01 X42.434 Y42.565
G01 X42.448 Y42.577
G01 X42.464 Y42.585
G01 X42.481 Y42.59
G01 X42.5 Y42.592
G01 X42.518 Y42.59
G01 X42.535 Y42.585
G01 X42.551 Y42.577
G01 X42.565 Y42.565
G01 X42.577 Y42.551
G01 X42.585 Y42.535
G01 X42.59 Y42.518
G01 X42.592 Y42.5
G01 X42.59 Y42.481
G01 X42.585 Y42.464
G01 X42.577 Y42.448
G01 X42.565 Y42.434
G01 X42.551 Y42.422
G01 X42.535 Y42.414
G01 X42.518 Y42.409
G01 X42.5 Y42.407
G01 X42.481 Y42.409
G01 X42.464 Y42.414
G01 X42.448 Y42.422
G01 X42.434 Y42.434
G01 Z-4.0 F100
G01 X42.422 Y42.448 F1000
G01 X42.414 Y42.464
G01 X42.409 Y42.481
G01 X42.407 Y42.5
G01 X42.409 Y42.518
G01 X42.414 Y42.535
G01 X42.422 Y42.551
G01 X42.434 Y42.565
G01 X42.448 Y42.577
G01 X42.464 Y42.585
G01 X42.481 Y42.59
G01 X42.5 Y42.592
G01 X42.518 Y42.59
G01 X42.535 Y42.585
G01 X42.551 Y42.577
G01 X42.565 Y42.565
G01 X42.577 Y42.551
G01 X42.585 Y42.535
G01 X42.59 Y42.518
G01 X42.592 Y42.5
G01 X42.59 Y42.481
G01 X42.585 Y42.464
G01 X42.577 Y42.448
G01 X42.565 Y42.434
G01 X42.551 Y42.422
G01 X42.535 Y42.414
G01 X42.518 Y42.409
G01 X42.5 Y42.407
G01 X42.481 Y42.409
G01 X42.464 Y42.414
G01 X42.448 Y42.422
G01 X42.434 Y42.434
G01 Z-6.0 F100
G01 X42.422 Y42.448 F1000
G01 X42.414 Y42.464
G01 X42.409 Y42.481
G01 X42.407 Y42.5
G01 X42.409 Y42.518
G01 X42.414 Y42.535
G01 X42.422 Y42.551
G01 X42.434 Y42.565
G01 X42.448 Y42.577
G01 X42.464 Y42.585
G01 X42.481 Y42.59
G01 X42.5 Y42.592
G01 X42.518 Y42.59
G01 X42.535 Y42.585
G01 X42.551 Y42.577
G01 X42.565 Y42.565
G01 X42.577 Y42.551
G01 X42.585 Y42.535
G01 X42.59 Y42.518
G01 X42.592 Y42.5
G01 X42.59 Y42.481
G01 X42.585 Y42.464
G01 X42.577 Y42.448
G01 X42.565 Y42.434
G01 X42.551 Y42.422
G01 X42.535 Y42.414
G01 X42.518 Y42.409
G01 X42.5 Y42.407
G01 X42.481 Y42.409
G01 X42.464 Y42.414
G01 X42.448 Y42.422
G01 X42.434 Y42.434
G01 Z-6.3 F100
G01 X42.422 Y42.448 F1000
G01 X42.414 Y42.464
G01 X42.409 Y42.481
G01 X42.407 Y42.5
G01 X42.409 Y42.518
G01 X42.414 Y42.535
G01 X42.422 Y42.551
G01 X42.434 Y42.565
G01 X42.448 Y42.577
G01 X42.464 Y42.585
G01 X42.481 Y42.59
G01 X42.5 Y42.592
G01 X42.518 Y42.59
G01 X42.535 Y42.585
G01 X42.551 Y42.577
G01 X42.565 Y42.565
G01 X42.577 Y42.551
G01 X42.585 Y42.535
G01 X42.59 Y42.518
G01 X42.592 Y42.5
G01 X42.59 Y42.481
G01 X42.585 Y42.464
G01 X42.577 Y42.448
G01 X42.565 Y42.434
G01 X42.551 Y42.422
G01 X42.535 Y42.414
G01 X42.518 Y42.409
G01 X42.5 Y42.407
G01 X42.481 Y42.409
G01 X42.464 Y42.414
G01 X42.448 Y42.422
G01 X42.434 Y42.434
G00 Z2.0
 (--------------------------------------------------)
 (Object: #5)
 (Layer: 0)
 (Pocket-Operation)
 (--------------------------------------------------)
G00
G00 X63.0 Y58.0
G00 Z1.0
G01 Z-1.8 F100
G01 X87.0 F1000
G00 Z2.0
G00 X91.5 Y64.0
G00 Z1.0
G01 Z-1.8 F100
G01 X99.0 F1000
G01 X99.75 Y65.5
G01 X91.5
G01 Y67.0
G01 X99.75
G01 Y68.5
G01 X91.5
G01 Y70.0
G01 X99.75
G01 Y71.5
G01 X91.5
G01 Y73.0
G01 X99.75
G01 Y74.5
G01 X91.5
G01 Y76.0
G01 X99.75
G01 Y77.5
G01 X91.5
G01 Y79.0
G01 X99.75
G01 Y80.5
G01 X91.5
G01 Y82.0
G01 X99.75
G01 Y83.5
G01 X91.5
G01 Y85.0
G01 X99.75
G00 Z2.0
G00 X95.25 Y86.5
G00 Z1.0
G01 Z-1.8 F100
G01 X91.5 F1000
G00 Z2.0
G00 X87.0 Y91.0
G00 Z1.0
G01 Z-1.8 F100
G01 X63.0 F1000
G01 Y92.5
G01 X87.0
G00 Z2.0
G00 X58.5 Y86.5
G00 Z1.0
G01 Z-1.8 F100
G01 X54.75 F1000
G00 Z2.0
G00 X58.5 Y85.0
G00 Z1.0
G01 Z-1.8 F100
G01 X50.25 F1000
G01 Y83.5
G01 X58.5
G01 Y82.0
G01 X50.25
G01 Y80.5
G01 X58.5
G01 Y79.0
G01 X50.25
G01 Y77.5
G01 X58.5
G01 Y76.0
G01 X50.25
G01 Y74.5
G01 X58.5
G01 Y73.0
G01 X50.25
G01 Y71.5
G01 X58.5
G01 Y70.0
G01 X50.25
G01 Y68.5
G01 X58.5
G01 Y67.0
G01 X50.25
G01 Y65.5
G01 X58.5
G01 Y64.0
G01 X51.0
 (--------------------------------------------------)
 (Object: #5)
 (Layer: 0)
 (Overcut: 0)
 (Depth: -1.800000)
 (Offset: Inside)
 (Tool-Num: 1)
 (Tool-Diameter: 3.00)
 (Tool-Speed: 12000)
 (--------------------------------------------------)
M05

M03
G00 Z2.0
G00 X50.428 Y63.62
G00 Z1.0
G01 Z-1.8 F100
G01 X50.17 Y63.758 F1000
G01 X49.944 Y63.944
G01 X49.758 Y64.17
G01 X49.62 Y64.428
G01 X49.535 Y64.708
G01 X49.5 Y65.073
G01 Y84.926
G01 X49.535 Y85.291
G01 X49.62 Y85.571
G01 X49.758 Y85.829
G01 X49.944 Y86.055
G01 X50.17 Y86.241
G01 X50.428 Y86.379
G01 X50.708 Y86.464
G01 X51.073 Y86.5
G01 X53.591
G03 X55.026 Y87.563 I0.0 J1.5
G01 X55.006 Y87.496
G01 X55.006 Y87.495
G01 X55.005 Y87.494
G01 X55.004 Y87.493
G01 X55.002 Y87.493
G01 X55.001 Y87.492
G01 X55.073 Y87.5
G01 X56.0
G03 X56.147 Y87.507 I-0.0 J1.5
G01 X57.122 Y87.603
G03 X57.41 Y87.66 I-0.147 J1.492
G01 X58.348 Y87.945
G03 X58.62 Y88.057 I-0.435 J1.435
G01 X59.484 Y88.519
G03 X59.729 Y88.683 I-0.707 J1.322
G01 X60.487 Y89.304
G03 X60.695 Y89.512 I-0.951 J1.159
G01 X61.316 Y90.27
G03 X61.48 Y90.515 I-1.159 J0.951
G01 X61.942 Y91.379
G03 X62.054 Y91.651 I-1.322 J0.707
G01 X62.339 Y92.589
G03 X62.396 Y92.877 I-1.435 J0.435
G01 X62.492 Y93.852
G03 X62.5 Y94.0 I-1.492 J0.147
G01 Y94.926
G01 X62.507 Y94.998
G01 X62.506 Y94.997
G01 X62.506 Y94.996
G01 X62.505 Y94.994
G01 X62.503 Y94.993
G01 X62.502 Y94.993
G01 X62.501 Y94.992
G01 X62.5 Y94.992
G01 X62.498 Y94.992
G01 X62.497 Y94.993
G01 X62.496 Y94.993
G01 X62.494 Y94.995
G01 X62.493 Y94.996
G01 X62.493 Y94.997
G01 X62.492 Y94.998
G01 X62.507 Y94.853
G03 X64.0 Y93.5 I1.492 J0.146
G01 X86.0
G03 X87.492 Y94.853 I0.0 J1.5
G01 X87.507 Y94.998
G01 X87.506 Y94.997
G01 X87.506 Y94.996
G01 X87.505 Y94.995
G01 X87.503 Y94.993
G01 X87.502 Y94.993
G01 X87.501 Y94.992
G01 X87.5 Y94.992
G01 X87.498 Y94.992
G01 X87.497 Y94.993
G01 X87.496 Y94.993
G01 X87.494 Y94.994
G01 X87.493 Y94.996
G01 X87.493 Y94.997
G01 X87.492 Y94.998
G01 X87.5 Y94.926
G01 Y94.0
G03 X87.507 Y93.852 I1.5 J0.0
G01 X87.603 Y92.877
G03 X87.66 Y92.589 I1.492 J0.147
G01 X87.945 Y91.651
G03 X88.057 Y91.379 I1.435 J0.435
G01 X88.519 Y90.515
G03 X88.683 Y90.27 I1.322 J0.707
G01 X89.304 Y89.512
G03 X89.512 Y89.304 I1.159 J0.951
G01 X90.27 Y88.683
G03 X90.515 Y88.519 I0.951 J1.159
G01 X91.379 Y88.057
G03 X91.651 Y87.945 I0.707 J1.322
G01 X92.589 Y87.66
G03 X92.877 Y87.603 I0.435 J1.435
G01 X93.852 Y87.507
G03 X94.0 Y87.5 I0.147 J1.492
G01 X94.926
G01 X94.998 Y87.492
G01 X94.997 Y87.493
G01 X94.995 Y87.493
G01 X94.994 Y87.494
G01 X94.993 Y87.495
G01 X94.993 Y87.496
G01 X94.973 Y87.563
G03 X96.408 Y86.5 I1.435 J0.436
G01 X98.926
G01 X99.291 Y86.464
G01 X99.571 Y86.379
G01 X99.829 Y86.241
G01 X100.054 Y86.055
G01 X100.241 Y85.828
G01 X100.379 Y85.571
G01 X100.463 Y85.291
G01 X100.5 Y84.925
G01 Y65.074
G01 X100.463 Y64.708
G01 X100.379 Y64.428
G01 X100.241 Y64.171
G01 X100.054 Y63.944
G01 X99.829 Y63.758
G01 X99.571 Y63.62
G01 X99.291 Y63.535
G01 X98.926 Y63.5
G01 X96.408
G03 X94.973 Y62.436 I0.0 J-1.5
G01 X94.993 Y62.503
G01 X94.993 Y62.504
G01 X94.994 Y62.505
G01 X94.995 Y62.506
G01 X94.997 Y62.506
G01 X94.998 Y62.507
G01 X94.926 Y62.5
G01 X94.0
G03 X93.852 Y62.492 I0.0 J-1.5
G01 X92.877 Y62.396
G03 X92.589 Y62.339 I0.147 J-1.492
G01 X91.651 Y62.054
G03 X91.379 Y61.942 I0.435 J-1.435
G01 X90.515 Y61.48
G03 X90.27 Y61.316 I0.707 J-1.322
G01 X89.512 Y60.695
G03 X89.304 Y60.487 I0.951 J-1.159
G01 X88.683 Y59.729
G03 X88.519 Y59.484 I1.159 J-0.951
G01 X88.057 Y58.62
G03 X87.945 Y58.348 I1.322 J-0.707
G01 X87.66 Y57.41
G03 X87.603 Y57.122 I1.435 J-0.435
G01 X87.507 Y56.147
G03 X87.5 Y56.0 I1.492 J-0.147
G01 Y55.073
G01 X87.492 Y55.001
G01 X87.493 Y55.002
G01 X87.493 Y55.003
G01 X87.494 Y55.005
G01 X87.496 Y55.006
G01 X87.497 Y55.006
G01 X87.498 Y55.007
G01 X87.5 Y55.007
G01 X87.501 Y55.007
G01 X87.502 Y55.006
G01 X87.503 Y55.006
G01 X87.505 Y55.004
G01 X87.506 Y55.003
G01 X87.506 Y55.002
G01 X87.507 Y55.001
G01 X87.492 Y55.146
G03 X86.0 Y56.5 I-1.492 J-0.146
G01 X64.0
G03 X62.507 Y55.146 I0.0 J-1.5
G01 X62.492 Y55.001
G01 X62.493 Y55.002
G01 X62.493 Y55.003
G01 X62.494 Y55.004
G01 X62.496 Y55.006
G01 X62.497 Y55.006
G01 X62.498 Y55.007
G01 X62.5 Y55.007
G01 X62.501 Y55.007
G01 X62.502 Y55.006
G01 X62.503 Y55.006
G01 X62.505 Y55.005
G01 X62.506 Y55.003
G01 X62.506 Y55.002
G01 X62.507 Y55.001
G01 X62.5 Y55.073
G01 Y56.0
G03 X62.492 Y56.147 I-1.5 J-0.0
G01 X62.396 Y57.122
G03 X62.339 Y57.41 I-1.492 J-0.147
G01 X62.054 Y58.348
G03 X61.942 Y58.62 I-1.435 J-0.435
G01 X61.48 Y59.484
G03 X61.316 Y59.729 I-1.322 J-0.707
G01 X60.695 Y60.487
G03 X60.487 Y60.695 I-1.159 J-0.951
G01 X59.729 Y61.316
G03 X59.484 Y61.48 I-0.951 J-1.159
G01 X58.62 Y61.942
G03 X58.348 Y62.054 I-0.707 J-1.322
G01 X57.41 Y62.339
G03 X57.122 Y62.396 I-0.435 J-1.435
G01 X56.147 Y62.492
G03 X56.0 Y62.5 I-0.147 J-1.492
G01 X55.073
G01 X55.001 Y62.507
G01 X55.002 Y62.506
G01 X55.004 Y62.506
G01 X55.005 Y62.505
G01 X55.006 Y62.504
G01 X55.006 Y62.503
G01 X55.026 Y62.436
G03 X53.591 Y63.5 I-1.435 J-0.436
G01 X51.073
G01 X50.708 Y63.535
G01 X50.428 Y63.62
G00 Z2.0
 (--------------------------------------------------)
 (Object: #4)
 (Layer: 0)
 (Overcut: 0)
 (Depth: -6.300000)
 (Offset: Inside)
 (Tool-Num: 1)
 (Tool-Diameter: 3.00)
 (Tool-Speed: 12000)
 (--------------------------------------------------)
M05

M03
G00
G00 X42.517 Y107.409
G00 Z1.0
G01 Z-2.0 F100
G01 X42.5 Y107.407 F1000
G01 X42.482 Y107.409
G01 X42.464 Y107.414
G01 X42.448 Y107.423
G01 X42.433 Y107.435
G01 X42.422 Y107.448
G01 X42.414 Y107.464
G01 X42.409 Y107.482
G01 X42.407 Y107.5
G01 X42.409 Y107.517
G01 X42.414 Y107.535
G01 X42.422 Y107.551
G01 X42.433 Y107.564
G01 X42.448 Y107.576
G01 X42.464 Y107.585
G01 X42.482 Y107.59
G01 X42.5 Y107.592
G01 X42.517 Y107.59
G01 X42.535 Y107.585
G01 X42.551 Y107.576
G01 X42.566 Y107.564
G01 X42.577 Y107.551
G01 X42.585 Y107.535
G01 X42.591 Y107.517
G01 X42.592 Y107.5
G01 X42.591 Y107.482
G01 X42.585 Y107.464
G01 X42.577 Y107.448
G01 X42.566 Y107.435
G01 X42.551 Y107.423
G01 X42.535 Y107.414
G01 X42.517 Y107.409
G01 Z-4.0 F100
G01 X42.5 Y107.407 F1000
G01 X42.482 Y107.409
G01 X42.464 Y107.414
G01 X42.448 Y107.423
G01 X42.433 Y107.435
G01 X42.422 Y107.448
G01 X42.414 Y107.464
G01 X42.409 Y107.482
G01 X42.407 Y107.5
G01 X42.409 Y107.517
G01 X42.414 Y107.535
G01 X42.422 Y107.551
G01 X42.433 Y107.564
G01 X42.448 Y107.576
G01 X42.464 Y107.585
G01 X42.482 Y107.59
G01 X42.5 Y107.592
G01 X42.517 Y107.59
G01 X42.535 Y107.585
G01 X42.551 Y107.576
G01 X42.566 Y107.564
G01 X42.577 Y107.551
G01 X42.585 Y107.535
G01 X42.591 Y107.517
G01 X42.592 Y107.5
G01 X42.591 Y107.482
G01 X42.585 Y107.464
G01 X42.577 Y107.448
G01 X42.566 Y107.435
G01 X42.551 Y107.423
G01 X42.535 Y107.414
G01 X42.517 Y107.409
G01 Z-6.0 F100
G01 X42.5 Y107.407 F1000
G01 X42.482 Y107.409
G01 X42.464 Y107.414
G01 X42.448 Y107.423
G01 X42.433 Y107.435
G01 X42.422 Y107.448
G01 X42.414 Y107.464
G01 X42.409 Y107.482
G01 X42.407 Y107.5
G01 X42.409 Y107.517
G01 X42.414 Y107.535
G01 X42.422 Y107.551
G01 X42.433 Y107.564
G01 X42.448 Y107.576
G01 X42.464 Y107.585
G01 X42.482 Y107.59
G01 X42.5 Y107.592
G01 X42.517 Y107.59
G01 X42.535 Y107.585
G01 X42.551 Y107.576
G01 X42.566 Y107.564
G01 X42.577 Y107.551
G01 X42.585 Y107.535
G01 X42.591 Y107.517
G01 X42.592 Y107.5
G01 X42.591 Y107.482
G01 X42.585 Y107.464
G01 X42.577 Y107.448
G01 X42.566 Y107.435
G01 X42.551 Y107.423
G01 X42.535 Y107.414
G01 X42.517 Y107.409
G01 Z-6.3 F100
G01 X42.5 Y107.407 F1000
G01 X42.482 Y107.409
G01 X42.464 Y107.414
G01 X42.448 Y107.423
G01 X42.433 Y107.435
G01 X42.422 Y107.448
G01 X42.414 Y107.464
G01 X42.409 Y107.482
G01 X42.407 Y107.5
G01 X42.409 Y107.517
G01 X42.414 Y107.535
G01 X42.422 Y107.551
G01 X42.433 Y107.564
G01 X42.448 Y107.576
G01 X42.464 Y107.585
G01 X42.482 Y107.59
G01 X42.5 Y107.592
G01 X42.517 Y107.59
G01 X42.535 Y107.585
G01 X42.551 Y107.576
G01 X42.566 Y107.564
G01 X42.577 Y107.551
G01 X42.585 Y107.535
G01 X42.591 Y107.517
G01 X42.592 Y107.5
G01 X42.591 Y107.482
G01 X42.585 Y107.464
G01 X42.577 Y107.448
G01 X42.566 Y107.435
G01 X42.551 Y107.423
G01 X42.535 Y107.414
G01 X42.517 Y107.409
G00 Z2.0
 (--------------------------------------------------)
 (Object: #2)
 (Layer: 0)
 (Overcut: 0)
 (Depth: -6.300000)
 (Offset: Inside)
 (Tool-Num: 1)
 (Tool-Diameter: 3.00)
 (Tool-Speed: 12000)
 (--------------------------------------------------)
M05

M03
G00
G00 X35.701 Y114.297
G00 Z1.0
G01 Z-2.0 F100
G01 X35.551 Y114.174 F1000
G01 X35.38 Y114.082
G01 X35.194 Y114.026
G01 X35.0 Y114.007
G01 X34.805 Y114.026
G01 X34.619 Y114.082
G01 X34.448 Y114.174
G01 X34.298 Y114.297
G01 X34.174 Y114.448
G01 X34.082 Y114.619
G01 X34.026 Y114.806
G01 X34.007 Y115.0
G01 X34.026 Y115.193
G01 X34.082 Y115.38
G01 X34.174 Y115.551
G01 X34.298 Y115.702
G01 X34.448 Y115.825
G01 X34.619 Y115.917
G01 X34.805 Y115.973
G01 X35.0 Y115.992
G01 X35.194 Y115.973
G01 X35.38 Y115.917
G01 X35.551 Y115.825
G01 X35.701 Y115.702
G01 X35.825 Y115.551
G01 X35.917 Y115.38
G01 X35.973 Y115.193
G01 X35.992 Y115.0
G01 X35.973 Y114.806
G01 X35.917 Y114.619
G01 X35.825 Y114.448
G01 X35.701 Y114.297
G01 Z-4.0 F100
G01 X35.551 Y114.174 F1000
G01 X35.38 Y114.082
G01 X35.194 Y114.026
G01 X35.0 Y114.007
G01 X34.805 Y114.026
G01 X34.619 Y114.082
G01 X34.448 Y114.174
G01 X34.298 Y114.297
G01 X34.174 Y114.448
G01 X34.082 Y114.619
G01 X34.026 Y114.806
G01 X34.007 Y115.0
G01 X34.026 Y115.193
G01 X34.082 Y115.38
G01 X34.174 Y115.551
G01 X34.298 Y115.702
G01 X34.448 Y115.825
G01 X34.619 Y115.917
G01 X34.805 Y115.973
G01 X35.0 Y115.992
G01 X35.194 Y115.973
G01 X35.38 Y115.917
G01 X35.551 Y115.825
G01 X35.701 Y115.702
G01 X35.825 Y115.551
G01 X35.917 Y115.38
G01 X35.973 Y115.193
G01 X35.992 Y115.0
G01 X35.973 Y114.806
G01 X35.917 Y114.619
G01 X35.825 Y114.448
G01 X35.701 Y114.297
G01 Z-6.0 F100
G01 X35.551 Y114.174 F1000
G01 X35.38 Y114.082
G01 X35.194 Y114.026
G01 X35.0 Y114.007
G01 X34.805 Y114.026
G01 X34.619 Y114.082
G01 X34.448 Y114.174
G01 X34.298 Y114.297
G01 X34.174 Y114.448
G01 X34.082 Y114.619
G01 X34.026 Y114.806
G01 X34.007 Y115.0
G01 X34.026 Y115.193
G01 X34.082 Y115.38
G01 X34.174 Y115.551
G01 X34.298 Y115.702
G01 X34.448 Y115.825
G01 X34.619 Y115.917
G01 X34.805 Y115.973
G01 X35.0 Y115.992
G01 X35.194 Y115.973
G01 X35.38 Y115.917
G01 X35.551 Y115.825
G01 X35.701 Y115.702
G01 X35.825 Y115.551
G01 X35.917 Y115.38
G01 X35.973 Y115.193
G01 X35.992 Y115.0
G01 X35.973 Y114.806
G01 X35.917 Y114.619
G01 X35.825 Y114.448
G01 X35.701 Y114.297
G01 Z-6.3 F100
G01 X35.551 Y114.174 F1000
G01 X35.38 Y114.082
G01 X35.194 Y114.026
G01 X35.0 Y114.007
G01 X34.805 Y114.026
G01 X34.619 Y114.082
G01 X34.448 Y114.174
G01 X34.298 Y114.297
G01 X34.174 Y114.448
G01 X34.082 Y114.619
G01 X34.026 Y114.806
G01 X34.007 Y115.0
G01 X34.026 Y115.193
G01 X34.082 Y115.38
G01 X34.174 Y115.551
G01 X34.298 Y115.702
G01 X34.448 Y115.825
G01 X34.619 Y115.917
G01 X34.805 Y115.973
G01 X35.0 Y115.992
G01 X35.194 Y115.973
G01 X35.38 Y115.917
G01 X35.551 Y115.825
G01 X35.701 Y115.702
G01 X35.825 Y115.551
G01 X35.917 Y115.38
G01 X35.973 Y115.193
G01 X35.992 Y115.0
G01 X35.973 Y114.806
G01 X35.917 Y114.619
G01 X35.825 Y114.448
G01 X35.701 Y114.297
G00 Z2.0
 (--------------------------------------------------)
 (Object: #3)
 (Layer: 0)
 (Overcut: 0)
 (Depth: -6.300000)
 (Offset: Inside)
 (Tool-Num: 1)
 (Tool-Diameter: 3.00)
 (Tool-Speed: 12000)
 (--------------------------------------------------)
M05

M03
G00
G00 X107.407 Y107.5
G00 Z1.0
G01 Z-2.0 F100
G01 X107.409 Y107.517 F1000
G01 X107.414 Y107.535
G01 X107.422 Y107.551
G01 X107.434 Y107.565
G01 X107.448 Y107.577
G01 X107.464 Y107.585
G01 X107.482 Y107.59
G01 X107.5 Y107.592
G01 X107.517 Y107.59
G01 X107.535 Y107.585
G01 X107.551 Y107.577
G01 X107.565 Y107.565
G01 X107.577 Y107.551
G01 X107.585 Y107.535
G01 X107.59 Y107.517
G01 X107.592 Y107.5
G01 X107.59 Y107.482
G01 X107.585 Y107.464
G01 X107.577 Y107.448
G01 X107.565 Y107.434
G01 X107.551 Y107.422
G01 X107.535 Y107.414
G01 X107.517 Y107.409
G01 X107.5 Y107.407
G01 X107.482 Y107.409
G01 X107.464 Y107.414
G01 X107.448 Y107.422
G01 X107.434 Y107.434
G01 X107.422 Y107.448
G01 X107.414 Y107.464
G01 X107.409 Y107.482
G01 X107.407 Y107.5
G01 Z-4.0 F100
G01 X107.409 Y107.517 F1000
G01 X107.414 Y107.535
G01 X107.422 Y107.551
G01 X107.434 Y107.565
G01 X107.448 Y107.577
G01 X107.464 Y107.585
G01 X107.482 Y107.59
G01 X107.5 Y107.592
G01 X107.517 Y107.59
G01 X107.535 Y107.585
G01 X107.551 Y107.577
G01 X107.565 Y107.565
G01 X107.577 Y107.551
G01 X107.585 Y107.535
G01 X107.59 Y107.517
G01 X107.592 Y107.5
G01 X107.59 Y107.482
G01 X107.585 Y107.464
G01 X107.577 Y107.448
G01 X107.565 Y107.434
G01 X107.551 Y107.422
G01 X107.535 Y107.414
G01 X107.517 Y107.409
G01 X107.5 Y107.407
G01 X107.482 Y107.409
G01 X107.464 Y107.414
G01 X107.448 Y107.422
G01 X107.434 Y107.434
G01 X107.422 Y107.448
G01 X107.414 Y107.464
G01 X107.409 Y107.482
G01 X107.407 Y107.5
G01 Z-6.0 F100
G01 X107.409 Y107.517 F1000
G01 X107.414 Y107.535
G01 X107.422 Y107.551
G01 X107.434 Y107.565
G01 X107.448 Y107.577
G01 X107.464 Y107.585
G01 X107.482 Y107.59
G01 X107.5 Y107.592
G01 X107.517 Y107.59
G01 X107.535 Y107.585
G01 X107.551 Y107.577
G01 X107.565 Y107.565
G01 X107.577 Y107.551
G01 X107.585 Y107.535
G01 X107.59 Y107.517
G01 X107.592 Y107.5
G01 X107.59 Y107.482
G01 X107.585 Y107.464
G01 X107.577 Y107.448
G01 X107.565 Y107.434
G01 X107.551 Y107.422
G01 X107.535 Y107.414
G01 X107.517 Y107.409
G01 X107.5 Y107.407
G01 X107.482 Y107.409
G01 X107.464 Y107.414
G01 X107.448 Y107.422
G01 X107.434 Y107.434
G01 X107.422 Y107.448
G01 X107.414 Y107.464
G01 X107.409 Y107.482
G01 X107.407 Y107.5
G01 Z-6.3 F100
G01 X107.409 Y107.517 F1000
G01 X107.414 Y107.535
G01 X107.422 Y107.551
G01 X107.434 Y107.565
G01 X107.448 Y107.577
G01 X107.464 Y107.585
G01 X107.482 Y107.59
G01 X107.5 Y107.592
G01 X107.517 Y107.59
G01 X107.535 Y107.585
G01 X107.551 Y107.577
G01 X107.565 Y107.565
G01 X107.577 Y107.551
G01 X107.585 Y107.535
G01 X107.59 Y107.517
G01 X107.592 Y107.5
G01 X107.59 Y107.482
G01 X107.585 Y107.464
G01 X107.577 Y107.448
G01 X107.565 Y107.434
G01 X107.551 Y107.422
G01 X107.535 Y107.414
G01 X107.517 Y107.409
G01 X107.5 Y107.407
G01 X107.482 Y107.409
G01 X107.464 Y107.414
G01 X107.448 Y107.422
G01 X107.434 Y107.434
G01 X107.422 Y107.448
G01 X107.414 Y107.464
G01 X107.409 Y107.482
G01 X107.407 Y107.5
G00 Z2.0
 (--------------------------------------------------)
 (Object: #1)
 (Layer: 0)
 (Overcut: 0)
 (Depth: -6.300000)
 (Offset: Inside)
 (Tool-Num: 1)
 (Tool-Diameter: 3.00)
 (Tool-Speed: 12000)
 (--------------------------------------------------)
M05

M03
G00
G00 X114.297 Y114.297
G00 Z1.0
G01 Z-2.0 F100
G01 X114.174 Y114.448 F1000
G01 X114.082 Y114.619
G01 X114.026 Y114.805
G01 X114.007 Y115.0
G01 X114.026 Y115.194
G01 X114.082 Y115.38
G01 X114.174 Y115.551
G01 X114.297 Y115.702
G01 X114.448 Y115.825
G01 X114.619 Y115.917
G01 X114.805 Y115.973
G01 X115.0 Y115.992
G01 X115.194 Y115.973
G01 X115.38 Y115.917
G01 X115.551 Y115.825
G01 X115.702 Y115.702
G01 X115.825 Y115.551
G01 X115.917 Y115.38
G01 X115.973 Y115.194
G01 X115.992 Y115.0
G01 X115.973 Y114.805
G01 X115.917 Y114.619
G01 X115.825 Y114.448
G01 X115.702 Y114.297
G01 X115.551 Y114.174
G01 X115.38 Y114.082
G01 X115.194 Y114.026
G01 X115.0 Y114.007
G01 X114.805 Y114.026
G01 X114.619 Y114.082
G01 X114.448 Y114.174
G01 X114.297 Y114.297
G01 Z-4.0 F100
G01 X114.174 Y114.448 F1000
G01 X114.082 Y114.619
G01 X114.026 Y114.805
G01 X114.007 Y115.0
G01 X114.026 Y115.194
G01 X114.082 Y115.38
G01 X114.174 Y115.551
G01 X114.297 Y115.702
G01 X114.448 Y115.825
G01 X114.619 Y115.917
G01 X114.805 Y115.973
G01 X115.0 Y115.992
G01 X115.194 Y115.973
G01 X115.38 Y115.917
G01 X115.551 Y115.825
G01 X115.702 Y115.702
G01 X115.825 Y115.551
G01 X115.917 Y115.38
G01 X115.973 Y115.194
G01 X115.992 Y115.0
G01 X115.973 Y114.805
G01 X115.917 Y114.619
G01 X115.825 Y114.448
G01 X115.702 Y114.297
G01 X115.551 Y114.174
G01 X115.38 Y114.082
G01 X115.194 Y114.026
G01 X115.0 Y114.007
G01 X114.805 Y114.026
G01 X114.619 Y114.082
G01 X114.448 Y114.174
G01 X114.297 Y114.297
G01 Z-6.0 F100
G01 X114.174 Y114.448 F1000
G01 X114.082 Y114.619
G01 X114.026 Y114.805
G01 X114.007 Y115.0
G01 X114.026 Y115.194
G01 X114.082 Y115.38
G01 X114.174 Y115.551
G01 X114.297 Y115.702
G01 X114.448 Y115.825
G01 X114.619 Y115.917
G01 X114.805 Y115.973
G01 X115.0 Y115.992
G01 X115.194 Y115.973
G01 X115.38 Y115.917
G01 X115.551 Y115.825
G01 X115.702 Y115.702
G01 X115.825 Y115.551
G01 X115.917 Y115.38
G01 X115.973 Y115.194
G01 X115.992 Y115.0
G01 X115.973 Y114.805
G01 X115.917 Y114.619
G01 X115.825 Y114.448
G01 X115.702 Y114.297
G01 X115.551 Y114.174
G01 X115.38 Y114.082
G01 X115.194 Y114.026
G01 X115.0 Y114.007
G01 X114.805 Y114.026
G01 X114.619 Y114.082
G01 X114.448 Y114.174
G01 X114.297 Y114.297
G01 Z-6.3 F100
G01 X114.174 Y114.448 F1000
G01 X114.082 Y114.619
G01 X114.026 Y114.805
G01 X114.007 Y115.0
G01 X114.026 Y115.194
G01 X114.082 Y115.38
G01 X114.174 Y115.551
G01 X114.297 Y115.702
G01 X114.448 Y115.825
G01 X114.619 Y115.917
G01 X114.805 Y115.973
G01 X115.0 Y115.992
G01 X115.194 Y115.973
G01 X115.38 Y115.917
G01 X115.551 Y115.825
G01 X115.702 Y115.702
G01 X115.825 Y115.551
G01 X115.917 Y115.38
G01 X115.973 Y115.194
G01 X115.992 Y115.0
G01 X115.973 Y114.805
G01 X115.917 Y114.619
G01 X115.825 Y114.448
G01 X115.702 Y114.297
G01 X115.551 Y114.174
G01 X115.38 Y114.082
G01 X115.194 Y114.026
G01 X115.0 Y114.007
G01 X114.805 Y114.026
G01 X114.619 Y114.082
G01 X114.448 Y114.174
G01 X114.297 Y114.297
G00 Z2.0
 (--------------------------------------------------)
 (Object: #8)
 (Layer: 0)
 (Overcut: 0)
 (Depth: -6.300000)
 (Offset: Inside)
 (Tool-Num: 1)
 (Tool-Diameter: 3.00)
 (Tool-Speed: 12000)
 (--------------------------------------------------)
M05

M03
G00
G00 X107.5 Y42.592
G00 Z1.0
G01 Z-2.0 F100
G01 X107.517 Y42.591 F1000
G01 X107.535 Y42.585
G01 X107.551 Y42.577
G01 X107.564 Y42.566
G01 X107.576 Y42.551
G01 X107.585 Y42.535
G01 X107.59 Y42.517
G01 X107.592 Y42.5
G01 X107.59 Y42.482
G01 X107.585 Y42.464
G01 X107.576 Y42.448
G01 X107.564 Y42.433
G01 X107.551 Y42.422
G01 X107.535 Y42.414
G01 X107.517 Y42.409
G01 X107.5 Y42.407
G01 X107.482 Y42.409
G01 X107.464 Y42.414
G01 X107.448 Y42.422
G01 X107.435 Y42.433
G01 X107.423 Y42.448
G01 X107.414 Y42.464
G01 X107.409 Y42.482
G01 X107.407 Y42.5
G01 X107.409 Y42.517
G01 X107.414 Y42.535
G01 X107.423 Y42.551
G01 X107.435 Y42.566
G01 X107.448 Y42.577
G01 X107.464 Y42.585
G01 X107.482 Y42.591
G01 X107.5 Y42.592
G01 Z-4.0 F100
G01 X107.517 Y42.591 F1000
G01 X107.535 Y42.585
G01 X107.551 Y42.577
G01 X107.564 Y42.566
G01 X107.576 Y42.551
G01 X107.585 Y42.535
G01 X107.59 Y42.517
G01 X107.592 Y42.5
G01 X107.59 Y42.482
G01 X107.585 Y42.464
G01 X107.576 Y42.448
G01 X107.564 Y42.433
G01 X107.551 Y42.422
G01 X107.535 Y42.414
G01 X107.517 Y42.409
G01 X107.5 Y42.407
G01 X107.482 Y42.409
G01 X107.464 Y42.414
G01 X107.448 Y42.422
G01 X107.435 Y42.433
G01 X107.423 Y42.448
G01 X107.414 Y42.464
G01 X107.409 Y42.482
G01 X107.407 Y42.5
G01 X107.409 Y42.517
G01 X107.414 Y42.535
G01 X107.423 Y42.551
G01 X107.435 Y42.566
G01 X107.448 Y42.577
G01 X107.464 Y42.585
G01 X107.482 Y42.591
G01 X107.5 Y42.592
G01 Z-6.0 F100
G01 X107.517 Y42.591 F1000
G01 X107.535 Y42.585
G01 X107.551 Y42.577
G01 X107.564 Y42.566
G01 X107.576 Y42.551
G01 X107.585 Y42.535
G01 X107.59 Y42.517
G01 X107.592 Y42.5
G01 X107.59 Y42.482
G01 X107.585 Y42.464
G01 X107.576 Y42.448
G01 X107.564 Y42.433
G01 X107.551 Y42.422
G01 X107.535 Y42.414
G01 X107.517 Y42.409
G01 X107.5 Y42.407
G01 X107.482 Y42.409
G01 X107.464 Y42.414
G01 X107.448 Y42.422
G01 X107.435 Y42.433
G01 X107.423 Y42.448
G01 X107.414 Y42.464
G01 X107.409 Y42.482
G01 X107.407 Y42.5
G01 X107.409 Y42.517
G01 X107.414 Y42.535
G01 X107.423 Y42.551
G01 X107.435 Y42.566
G01 X107.448 Y42.577
G01 X107.464 Y42.585
G01 X107.482 Y42.591
G01 X107.5 Y42.592
G01 Z-6.3 F100
G01 X107.517 Y42.591 F1000
G01 X107.535 Y42.585
G01 X107.551 Y42.577
G01 X107.564 Y42.566
G01 X107.576 Y42.551
G01 X107.585 Y42.535
G01 X107.59 Y42.517
G01 X107.592 Y42.5
G01 X107.59 Y42.482
G01 X107.585 Y42.464
G01 X107.576 Y42.448
G01 X107.564 Y42.433
G01 X107.551 Y42.422
G01 X107.535 Y42.414
G01 X107.517 Y42.409
G01 X107.5 Y42.407
G01 X107.482 Y42.409
G01 X107.464 Y42.414
G01 X107.448 Y42.422
G01 X107.435 Y42.433
G01 X107.423 Y42.448
G01 X107.414 Y42.464
G01 X107.409 Y42.482
G01 X107.407 Y42.5
G01 X107.409 Y42.517
G01 X107.414 Y42.535
G01 X107.423 Y42.551
G01 X107.435 Y42.566
G01 X107.448 Y42.577
G01 X107.464 Y42.585
G01 X107.482 Y42.591
G01 X107.5 Y42.592
G00 Z2.0
 (--------------------------------------------------)
 (Object: #10)
 (Layer: 0)
 (Overcut: 0)
 (Depth: -6.300000)
 (Offset: Inside)
 (Tool-Num: 1)
 (Tool-Diameter: 3.00)
 (Tool-Speed: 12000)
 (--------------------------------------------------)
M05

M03
G00
G00 X114.297 Y35.701
G00 Z1.0
G01 Z-2.0 F100
G01 X114.448 Y35.825 F1000
G01 X114.619 Y35.917
G01 X114.806 Y35.973
G01 X115.0 Y35.992
G01 X115.193 Y35.973
G01 X115.38 Y35.917
G01 X115.551 Y35.825
G01 X115.702 Y35.701
G01 X115.825 Y35.551
G01 X115.917 Y35.38
G01 X115.973 Y35.194
G01 X115.992 Y35.0
G01 X115.973 Y34.805
G01 X115.917 Y34.619
G01 X115.825 Y34.448
G01 X115.702 Y34.298
G01 X115.551 Y34.174
G01 X115.38 Y34.082
G01 X115.193 Y34.026
G01 X115.0 Y34.007
G01 X114.806 Y34.026
G01 X114.619 Y34.082
G01 X114.448 Y34.174
G01 X114.297 Y34.298
G01 X114.174 Y34.448
G01 X114.082 Y34.619
G01 X114.026 Y34.805
G01 X114.007 Y35.0
G01 X114.026 Y35.194
G01 X114.082 Y35.38
G01 X114.174 Y35.551
G01 X114.297 Y35.701
G01 Z-4.0 F100
G01 X114.448 Y35.825 F1000
G01 X114.619 Y35.917
G01 X114.806 Y35.973
G01 X115.0 Y35.992
G01 X115.193 Y35.973
G01 X115.38 Y35.917
G01 X115.551 Y35.825
G01 X115.702 Y35.701
G01 X115.825 Y35.551
G01 X115.917 Y35.38
G01 X115.973 Y35.194
G01 X115.992 Y35.0
G01 X115.973 Y34.805
G01 X115.917 Y34.619
G01 X115.825 Y34.448
G01 X115.702 Y34.298
G01 X115.551 Y34.174
G01 X115.38 Y34.082
G01 X115.193 Y34.026
G01 X115.0 Y34.007
G01 X114.806 Y34.026
G01 X114.619 Y34.082
G01 X114.448 Y34.174
G01 X114.297 Y34.298
G01 X114.174 Y34.448
G01 X114.082 Y34.619
G01 X114.026 Y34.805
G01 X114.007 Y35.0
G01 X114.026 Y35.194
G01 X114.082 Y35.38
G01 X114.174 Y35.551
G01 X114.297 Y35.701
G01 Z-6.0 F100
G01 X114.448 Y35.825 F1000
G01 X114.619 Y35.917
G01 X114.806 Y35.973
G01 X115.0 Y35.992
G01 X115.193 Y35.973
G01 X115.38 Y35.917
G01 X115.551 Y35.825
G01 X115.702 Y35.701
G01 X115.825 Y35.551
G01 X115.917 Y35.38
G01 X115.973 Y35.194
G01 X115.992 Y35.0
G01 X115.973 Y34.805
G01 X115.917 Y34.619
G01 X115.825 Y34.448
G01 X115.702 Y34.298
G01 X115.551 Y34.174
G01 X115.38 Y34.082
G01 X115.193 Y34.026
G01 X115.0 Y34.007
G01 X114.806 Y34.026
G01 X114.619 Y34.082
G01 X114.448 Y34.174
G01 X114.297 Y34.298
G01 X114.174 Y34.448
G01 X114.082 Y34.619
G01 X114.026 Y34.805
G01 X114.007 Y35.0
G01 X114.026 Y35.194
G01 X114.082 Y35.38
G01 X114.174 Y35.551
G01 X114.297 Y35.701
G01 Z-6.3 F100
G01 X114.448 Y35.825 F1000
G01 X114.619 Y35.917
G01 X114.806 Y35.973
G01 X115.0 Y35.992
G01 X115.193 Y35.973
G01 X115.38 Y35.917
G01 X115.551 Y35.825
G01 X115.702 Y35.701
G01 X115.825 Y35.551
G01 X115.917 Y35.38
G01 X115.973 Y35.194
G01 X115.992 Y35.0
G01 X115.973 Y34.805
G01 X115.917 Y34.619
G01 X115.825 Y34.448
G01 X115.702 Y34.298
G01 X115.551 Y34.174
G01 X115.38 Y34.082
G01 X115.193 Y34.026
G01 X115.0 Y34.007
G01 X114.806 Y34.026
G01 X114.619 Y34.082
G01 X114.448 Y34.174
G01 X114.297 Y34.298
G01 X114.174 Y34.448
G01 X114.082 Y34.619
G01 X114.026 Y34.805
G01 X114.007 Y35.0
G01 X114.026 Y35.194
G01 X114.082 Y35.38
G01 X114.174 Y35.551
G01 X114.297 Y35.701
G00 Z2.0
 (--------------------------------------------------)
 (Object: #0)
 (Layer: 0)
 (Overcut: 0)
 (Depth: -6.300000)
 (Offset: Outside)
 (Tool-Num: 1)
 (Tool-Diameter: 3.00)
 (Tool-Speed: 12000)
 (--------------------------------------------------)
M05

M03
G00
G00 X115.0 Y25.5
G00 Z1.0
G01 Z-2.0 F100
G03 X115.146 Y25.507 I0.0 J1.5 F1000
G01 X116.707 Y25.66
G03 X116.996 Y25.718 I-0.146 J1.492
G01 X118.496 Y26.173
G03 X118.767 Y26.285 I-0.435 J1.435
G01 X120.151 Y27.025
G03 X120.396 Y27.188 I-0.706 J1.323
G01 X121.608 Y28.183
G03 X121.816 Y28.391 I-0.951 J1.159
G01 X122.811 Y29.603
G03 X122.974 Y29.848 I-1.159 J0.951
G01 X123.713 Y31.231
G03 X123.826 Y31.503 I-1.322 J0.706
G01 X124.281 Y33.004
G03 X124.338 Y33.292 I-1.435 J0.435
G01 X124.492 Y34.852
G03 X124.5 Y35.0 I-1.492 J0.147
G01 Y115.0
G03 X124.492 Y115.147 I-1.5 J-0.0
G01 X124.338 Y116.708
G03 X124.281 Y116.996 I-1.492 J-0.147
G01 X123.826 Y118.496
G03 X123.714 Y118.767 I-1.435 J-0.435
G01 X122.975 Y120.151
G03 X122.811 Y120.396 I-1.323 J-0.706
G01 X121.816 Y121.608
G03 X121.608 Y121.816 I-1.159 J-0.951
G01 X120.396 Y122.811
G03 X120.151 Y122.975 I-0.951 J-1.159
G01 X118.767 Y123.714
G03 X118.496 Y123.826 I-0.706 J-1.323
G01 X116.996 Y124.281
G03 X116.708 Y124.338 I-0.435 J-1.435
G01 X115.147 Y124.492
G03 X115.0 Y124.5 I-0.147 J-1.492
G01 X35.0
G03 X34.852 Y124.492 I-0.0 J-1.5
G01 X33.292 Y124.338
G03 X33.004 Y124.281 I0.147 J-1.492
G01 X31.503 Y123.826
G03 X31.231 Y123.713 I0.435 J-1.435
G01 X29.848 Y122.974
G03 X29.603 Y122.811 I0.706 J-1.322
G01 X28.391 Y121.816
G03 X28.183 Y121.608 I0.951 J-1.159
G01 X27.188 Y120.396
G03 X27.025 Y120.151 I1.159 J-0.951
G01 X26.285 Y118.767
G03 X26.173 Y118.496 I1.323 J-0.706
G01 X25.718 Y116.996
G03 X25.66 Y116.707 I1.435 J-0.435
G01 X25.507 Y115.146
G03 X25.5 Y115.0 I1.492 J-0.146
G01 Y35.0
G03 X25.507 Y34.852 I1.5 J0.0
G01 X25.66 Y33.292
G03 X25.718 Y33.003 I1.492 J0.147
G01 X26.173 Y31.503
G03 X26.286 Y31.231 I1.435 J0.435
G01 X27.025 Y29.848
G03 X27.188 Y29.603 I1.322 J0.707
G01 X28.183 Y28.391
G03 X28.391 Y28.183 I1.159 J0.951
G01 X29.603 Y27.188
G03 X29.848 Y27.025 I0.951 J1.159
G01 X31.231 Y26.286
G03 X31.503 Y26.173 I0.707 J1.322
G01 X33.003 Y25.718
G03 X33.292 Y25.66 I0.435 J1.435
G01 X34.852 Y25.507
G03 X35.0 Y25.5 I0.147 J1.492
G01 X115.0
G01 Z-4.0 F100
G03 X115.146 Y25.507 I0.0 J1.5 F1000
G01 X116.707 Y25.66
G03 X116.996 Y25.718 I-0.146 J1.492
G01 X118.496 Y26.173
G03 X118.767 Y26.285 I-0.435 J1.435
G01 X120.151 Y27.025
G03 X120.396 Y27.188 I-0.706 J1.323
G01 X121.608 Y28.183
G03 X121.816 Y28.391 I-0.951 J1.159
G01 X122.811 Y29.603
G03 X122.974 Y29.848 I-1.159 J0.951
G01 X123.713 Y31.231
G03 X123.826 Y31.503 I-1.322 J0.706
G01 X124.281 Y33.004
G03 X124.338 Y33.292 I-1.435 J0.435
G01 X124.492 Y34.852
G03 X124.5 Y35.0 I-1.492 J0.147
G01 Y115.0
G03 X124.492 Y115.147 I-1.5 J-0.0
G01 X124.338 Y116.708
G03 X124.281 Y116.996 I-1.492 J-0.147
G01 X123.826 Y118.496
G03 X123.714 Y118.767 I-1.435 J-0.435
G01 X122.975 Y120.151
G03 X122.811 Y120.396 I-1.323 J-0.706
G01 X121.816 Y121.608
G03 X121.608 Y121.816 I-1.159 J-0.951
G01 X120.396 Y122.811
G03 X120.151 Y122.975 I-0.951 J-1.159
G01 X118.767 Y123.714
G03 X118.496 Y123.826 I-0.706 J-1.323
G01 X116.996 Y124.281
G03 X116.708 Y124.338 I-0.435 J-1.435
G01 X115.147 Y124.492
G03 X115.0 Y124.5 I-0.147 J-1.492
G01 X35.0
G03 X34.852 Y124.492 I-0.0 J-1.5
G01 X33.292 Y124.338
G03 X33.004 Y124.281 I0.147 J-1.492
G01 X31.503 Y123.826
G03 X31.231 Y123.713 I0.435 J-1.435
G01 X29.848 Y122.974
G03 X29.603 Y122.811 I0.706 J-1.322
G01 X28.391 Y121.816
G03 X28.183 Y121.608 I0.951 J-1.159
G01 X27.188 Y120.396
G03 X27.025 Y120.151 I1.159 J-0.951
G01 X26.285 Y118.767
G03 X26.173 Y118.496 I1.323 J-0.706
G01 X25.718 Y116.996
G03 X25.66 Y116.707 I1.435 J-0.435
G01 X25.507 Y115.146
G03 X25.5 Y115.0 I1.492 J-0.146
G01 Y35.0
G03 X25.507 Y34.852 I1.5 J0.0
G01 X25.66 Y33.292
G03 X25.718 Y33.003 I1.492 J0.147
G01 X26.173 Y31.503
G03 X26.286 Y31.231 I1.435 J0.435
G01 X27.025 Y29.848
G03 X27.188 Y29.603 I1.322 J0.707
G01 X28.183 Y28.391
G03 X28.391 Y28.183 I1.159 J0.951
G01 X29.603 Y27.188
G03 X29.848 Y27.025 I0.951 J1.159
G01 X31.231 Y26.286
G03 X31.503 Y26.173 I0.707 J1.322
G01 X33.003 Y25.718
G03 X33.292 Y25.66 I0.435 J1.435
G01 X34.852 Y25.507
G03 X35.0 Y25.5 I0.147 J1.492
G01 X115.0
G01 Z-6.0 F100
G03 X115.146 Y25.507 I0.0 J1.5 F1000
G01 X116.707 Y25.66
G03 X116.996 Y25.718 I-0.146 J1.492
G01 X118.496 Y26.173
G03 X118.767 Y26.285 I-0.435 J1.435
G01 X120.151 Y27.025
G03 X120.396 Y27.188 I-0.706 J1.323
G01 X121.608 Y28.183
G03 X121.816 Y28.391 I-0.951 J1.159
G01 X122.811 Y29.603
G03 X122.974 Y29.848 I-1.159 J0.951
G01 X123.713 Y31.231
G03 X123.826 Y31.503 I-1.322 J0.706
G01 X124.281 Y33.004
G03 X124.338 Y33.292 I-1.435 J0.435
G01 X124.492 Y34.852
G03 X124.5 Y35.0 I-1.492 J0.147
G01 Y73.0
G01 Z-5.0
G01 Y81.0
G01 Z-6.0
G01 Y115.0
G03 X124.492 Y115.147 I-1.5 J-0.0
G01 X124.338 Y116.708
G03 X124.281 Y116.996 I-1.492 J-0.147
G01 X123.826 Y118.496
G03 X123.714 Y118.767 I-1.435 J-0.435
G01 X122.975 Y120.151
G03 X122.811 Y120.396 I-1.323 J-0.706
G01 X121.816 Y121.608
G03 X121.608 Y121.816 I-1.159 J-0.951
G01 X120.396 Y122.811
G03 X120.151 Y122.975 I-0.951 J-1.159
G01 X118.767 Y123.714
G03 X118.496 Y123.826 I-0.706 J-1.323
G01 X116.996 Y124.281
G03 X116.708 Y124.338 I-0.435 J-1.435
G01 X115.147 Y124.492
G03 X115.0 Y124.5 I-0.147 J-1.492
G01 X81.0
G01 Z-5.0
G01 X73.0
G01 Z-6.0
G01 X35.0
G03 X34.852 Y124.492 I-0.0 J-1.5
G01 X33.292 Y124.338
G03 X33.004 Y124.281 I0.147 J-1.492
G01 X31.503 Y123.826
G03 X31.231 Y123.713 I0.435 J-1.435
G01 X29.848 Y122.974
G03 X29.603 Y122.811 I0.706 J-1.322
G01 X28.391 Y121.816
G03 X28.183 Y121.608 I0.951 J-1.159
G01 X27.188 Y120.396
G03 X27.025 Y120.151 I1.159 J-0.951
G01 X26.285 Y118.767
G03 X26.173 Y118.496 I1.323 J-0.706
G01 X25.718 Y116.996
G03 X25.66 Y116.707 I1.435 J-0.435
G01 X25.507 Y115.146
G03 X25.5 Y115.0 I1.492 J-0.146
G01 Y81.0
G01 Z-5.0
G01 Y73.0
G01 Z-6.0
G01 Y35.0
G03 X25.507 Y34.852 I1.5 J0.0
G01 X25.66 Y33.292
G03 X25.718 Y33.003 I1.492 J0.147
G01 X26.173 Y31.503
G03 X26.286 Y31.231 I1.435 J0.435
G01 X27.025 Y29.848
G03 X27.188 Y29.603 I1.322 J0.707
G01 X28.183 Y28.391
G03 X28.391 Y28.183 I1.159 J0.951
G01 X29.603 Y27.188
G03 X29.848 Y27.025 I0.951 J1.159
G01 X31.231 Y26.286
G03 X31.503 Y26.173 I0.707 J1.322
G01 X33.003 Y25.718
G03 X33.292 Y25.66 I0.435 J1.435
G01 X34.852 Y25.507
G03 X35.0 Y25.5 I0.147 J1.492
G01 X73.0
G01 Z-5.0
G01 X81.0
G01 Z-6.0
G01 X115.0
G01 Z-6.3 F100
G03 X115.146 Y25.507 I0.0 J1.5 F1000
G01 X116.707 Y25.66
G03 X116.996 Y25.718 I-0.146 J1.492
G01 X118.496 Y26.173
G03 X118.767 Y26.285 I-0.435 J1.435
G01 X120.151 Y27.025
G03 X120.396 Y27.188 I-0.706 J1.323
G01 X121.608 Y28.183
G03 X121.816 Y28.391 I-0.951 J1.159
G01 X122.811 Y29.603
G03 X122.974 Y29.848 I-1.159 J0.951
G01 X123.713 Y31.231
G03 X123.826 Y31.503 I-1.322 J0.706
G01 X124.281 Y33.004
G03 X124.338 Y33.292 I-1.435 J0.435
G01 X124.492 Y34.852
G03 X124.5 Y35.0 I-1.492 J0.147
G01 Y73.0
G01 Z-5.0
G01 Y81.0
G01 Z-6.3
G01 Y115.0
G03 X124.492 Y115.147 I-1.5 J-0.0
G01 X124.338 Y116.708
G03 X124.281 Y116.996 I-1.492 J-0.147
G01 X123.826 Y118.496
G03 X123.714 Y118.767 I-1.435 J-0.435
G01 X122.975 Y120.151
G03 X122.811 Y120.396 I-1.323 J-0.706
G01 X121.816 Y121.608
G03 X121.608 Y121.816 I-1.159 J-0.951
G01 X120.396 Y122.811
G03 X120.151 Y122.975 I-0.951 J-1.159
G01 X118.767 Y123.714
G03 X118.496 Y123.826 I-0.706 J-1.323
G01 X116.996 Y124.281
G03 X116.708 Y124.338 I-0.435 J-1.435
G01 X115.147 Y124.492
G03 X115.0 Y124.5 I-0.147 J-1.492
G01 X81.0
G01 Z-5.0
G01 X73.0
G01 Z-6.3
G01 X35.0
G03 X34.852 Y124.492 I-0.0 J-1.5
G01 X33.292 Y124.338
G03 X33.004 Y124.281 I0.147 J-1.492
G01 X31.503 Y123.826
G03 X31.231 Y123.713 I0.435 J-1.435
G01 X29.848 Y122.974
G03 X29.603 Y122.811 I0.706 J-1.322
G01 X28.391 Y121.816
G03 X28.183 Y121.608 I0.951 J-1.159
G01 X27.188 Y120.396
G03 X27.025 Y120.151 I1.159 J-0.951
G01 X26.285 Y118.767
G03 X26.173 Y118.496 I1.323 J-0.706
G01 X25.718 Y116.996
G03 X25.66 Y116.707 I1.435 J-0.435
G01 X25.507 Y115.146
G03 X25.5 Y115.0 I1.492 J-0.146
G01 Y81.0
G01 Z-5.0
G01 Y73.0
G01 Z-6.3
G01 Y35.0
G03 X25.507 Y34.852 I1.5 J0.0
G01 X25.66 Y33.292
G03 X25.718 Y33.003 I1.492 J0.147
G01 X26.173 Y31.503
G03 X26.286 Y31.231 I1.435 J0.435
G01 X27.025 Y29.848
G03 X27.188 Y29.603 I1.322 J0.707
G01 X28.183 Y28.391
G03 X28.391 Y28.183 I1.159 J0.951
G01 X29.603 Y27.188
G03 X29.848 Y27.025 I0.951 J1.159
G01 X31.231 Y26.286
G03 X31.503 Y26.173 I0.707 J1.322
G01 X33.003 Y25.718
G03 X33.292 Y25.66 I0.435 J1.435
G01 X34.852 Y25.507
G03 X35.0 Y25.5 I0.147 J1.492
G01 X73.0
G01 Z-5.0
G01 X81.0
G01 Z-6.3
G01 X115.0
G00 Z2.0
 (--------------------------------------------------)
 (Object: #6)
 (Layer: 0)
 (Overcut: 0)
 (Depth: -6.300000)
 (Offset: Outside)
 (Tool-Num: 1)
 (Tool-Diameter: 3.00)
 (Tool-Speed: 12000)
 (--------------------------------------------------)
M05

M03
G00
G00 X88.818 Y60.014
G00 Z1.0
G01 Z-2.0 F100
G03 X89.062 Y60.177 I-0.707 J1.322 F1000
G01 X89.365 Y60.426
G03 X89.573 Y60.634 I-0.951 J1.159
G01 X89.822 Y60.937
G03 X89.985 Y61.181 I-1.159 J0.951
G01 X90.17 Y61.527
G03 X90.283 Y61.798 I-1.322 J0.707
G01 X90.396 Y62.174
G03 X90.454 Y62.462 I-1.435 J0.435
G01 X90.492 Y62.853
G03 X90.5 Y63.0 I-1.492 J0.146
G01 Y87.0
G03 X90.492 Y87.146 I-1.5 J-0.0
G01 X90.454 Y87.537
G03 X90.396 Y87.825 I-1.492 J-0.146
G01 X90.283 Y88.201
G03 X90.17 Y88.472 I-1.435 J-0.435
G01 X89.985 Y88.818
G03 X89.822 Y89.062 I-1.322 J-0.707
G01 X89.573 Y89.365
G03 X89.365 Y89.573 I-1.159 J-0.951
G01 X89.062 Y89.822
G03 X88.818 Y89.985 I-0.951 J-1.159
G01 X88.472 Y90.17
G03 X88.201 Y90.283 I-0.707 J-1.322
G01 X87.825 Y90.396
G03 X87.537 Y90.454 I-0.435 J-1.435
G01 X87.146 Y90.492
G03 X87.0 Y90.5 I-0.146 J-1.492
G01 X63.0
G03 X62.853 Y90.492 I0.0 J-1.5
G01 X62.462 Y90.454
G03 X62.174 Y90.396 I0.146 J-1.492
G01 X61.798 Y90.283
G03 X61.527 Y90.17 I0.435 J-1.435
G01 X61.181 Y89.985
G03 X60.937 Y89.822 I0.707 J-1.322
G01 X60.634 Y89.573
G03 X60.426 Y89.365 I0.951 J-1.159
G01 X60.177 Y89.062
G03 X60.014 Y88.818 I1.159 J-0.951
G01 X59.829 Y88.472
G03 X59.716 Y88.201 I1.322 J-0.707
G01 X59.603 Y87.825
G03 X59.545 Y87.537 I1.435 J-0.435
G01 X59.507 Y87.146
G03 X59.5 Y87.0 I1.492 J-0.146
G01 Y63.0
G03 X59.507 Y62.853 I1.5 J0.0
G01 X59.545 Y62.462
G03 X59.603 Y62.174 I1.492 J0.146
G01 X59.716 Y61.798
G03 X59.829 Y61.527 I1.435 J0.435
G01 X60.014 Y61.181
G03 X60.177 Y60.937 I1.322 J0.707
G01 X60.426 Y60.634
G03 X60.634 Y60.426 I1.159 J0.951
G01 X60.937 Y60.177
G03 X61.181 Y60.014 I0.951 J1.159
G01 X61.527 Y59.829
G03 X61.798 Y59.716 I0.707 J1.322
G01 X62.174 Y59.603
G03 X62.462 Y59.545 I0.435 J1.435
G01 X62.853 Y59.507
G03 X63.0 Y59.5 I0.146 J1.492
G01 X87.0
G03 X87.146 Y59.507 I0.0 J1.5
G01 X87.537 Y59.545
G03 X87.825 Y59.603 I-0.146 J1.492
G01 X88.201 Y59.716
G03 X88.472 Y59.829 I-0.435 J1.435
G01 X88.818 Y60.014
G01 Z-4.0 F100
G03 X89.062 Y60.177 I-0.707 J1.322 F1000
G01 X89.365 Y60.426
G03 X89.573 Y60.634 I-0.951 J1.159
G01 X89.822 Y60.937
G03 X89.985 Y61.181 I-1.159 J0.951
G01 X90.17 Y61.527
G03 X90.283 Y61.798 I-1.322 J0.707
G01 X90.396 Y62.174
G03 X90.454 Y62.462 I-1.435 J0.435
G01 X90.492 Y62.853
G03 X90.5 Y63.0 I-1.492 J0.146
G01 Y87.0
G03 X90.492 Y87.146 I-1.5 J-0.0
G01 X90.454 Y87.537
G03 X90.396 Y87.825 I-1.492 J-0.146
G01 X90.283 Y88.201
G03 X90.17 Y88.472 I-1.435 J-0.435
G01 X89.985 Y88.818
G03 X89.822 Y89.062 I-1.322 J-0.707
G01 X89.573 Y89.365
G03 X89.365 Y89.573 I-1.159 J-0.951
G01 X89.062 Y89.822
G03 X88.818 Y89.985 I-0.951 J-1.159
G01 X88.472 Y90.17
G03 X88.201 Y90.283 I-0.707 J-1.322
G01 X87.825 Y90.396
G03 X87.537 Y90.454 I-0.435 J-1.435
G01 X87.146 Y90.492
G03 X87.0 Y90.5 I-0.146 J-1.492
G01 X63.0
G03 X62.853 Y90.492 I0.0 J-1.5
G01 X62.462 Y90.454
G03 X62.174 Y90.396 I0.146 J-1.492
G01 X61.798 Y90.283
G03 X61.527 Y90.17 I0.435 J-1.435
G01 X61.181 Y89.985
G03 X60.937 Y89.822 I0.707 J-1.322
G01 X60.634 Y89.573
G03 X60.426 Y89.365 I0.951 J-1.159
G01 X60.177 Y89.062
G03 X60.014 Y88.818 I1.159 J-0.951
G01 X59.829 Y88.472
G03 X59.716 Y88.201 I1.322 J-0.707
G01 X59.603 Y87.825
G03 X59.545 Y87.537 I1.435 J-0.435
G01 X59.507 Y87.146
G03 X59.5 Y87.0 I1.492 J-0.146
G01 Y63.0
G03 X59.507 Y62.853 I1.5 J0.0
G01 X59.545 Y62.462
G03 X59.603 Y62.174 I1.492 J0.146
G01 X59.716 Y61.798
G03 X59.829 Y61.527 I1.435 J0.435
G01 X60.014 Y61.181
G03 X60.177 Y60.937 I1.322 J0.707
G01 X60.426 Y60.634
G03 X60.634 Y60.426 I1.159 J0.951
G01 X60.937 Y60.177
G03 X61.181 Y60.014 I0.951 J1.159
G01 X61.527 Y59.829
G03 X61.798 Y59.716 I0.707 J1.322
G01 X62.174 Y59.603
G03 X62.462 Y59.545 I0.435 J1.435
G01 X62.853 Y59.507
G03 X63.0 Y59.5 I0.146 J1.492
G01 X87.0
G03 X87.146 Y59.507 I0.0 J1.5
G01 X87.537 Y59.545
G03 X87.825 Y59.603 I-0.146 J1.492
G01 X88.201 Y59.716
G03 X88.472 Y59.829 I-0.435 J1.435
G01 X88.818 Y60.014
G01 Z-6.0 F100
G03 X89.062 Y60.177 I-0.707 J1.322 F1000
G01 X89.365 Y60.426
G03 X89.573 Y60.634 I-0.951 J1.159
G01 X89.822 Y60.937
G03 X89.985 Y61.181 I-1.159 J0.951
G01 X90.17 Y61.527
G03 X90.283 Y61.798 I-1.322 J0.707
G01 X90.396 Y62.174
G03 X90.454 Y62.462 I-1.435 J0.435
G01 X90.492 Y62.853
G03 X90.5 Y63.0 I-1.492 J0.146
G01 Y73.0
G01 Z-5.0
G01 Y81.0
G01 Z-6.0
G01 Y87.0
G03 X90.492 Y87.146 I-1.5 J-0.0
G01 X90.454 Y87.537
G03 X90.396 Y87.825 I-1.492 J-0.146
G01 X90.283 Y88.201
G03 X90.17 Y88.472 I-1.435 J-0.435
G01 X89.985 Y88.818
G03 X89.822 Y89.062 I-1.322 J-0.707
G01 X89.573 Y89.365
G03 X89.365 Y89.573 I-1.159 J-0.951
G01 X89.062 Y89.822
G03 X88.818 Y89.985 I-0.951 J-1.159
G01 X88.472 Y90.17
G03 X88.201 Y90.283 I-0.707 J-1.322
G01 X87.825 Y90.396
G03 X87.537 Y90.454 I-0.435 J-1.435
G01 X87.146 Y90.492
G03 X87.0 Y90.5 I-0.146 J-1.492
G01 X81.0
G01 Z-5.0
G01 X73.0
G01 Z-6.0
G01 X63.0
G03 X62.853 Y90.492 I0.0 J-1.5
G01 X62.462 Y90.454
G03 X62.174 Y90.396 I0.146 J-1.492
G01 X61.798 Y90.283
G03 X61.527 Y90.17 I0.435 J-1.435
G01 X61.181 Y89.985
G03 X60.937 Y89.822 I0.707 J-1.322
G01 X60.634 Y89.573
G03 X60.426 Y89.365 I0.951 J-1.159
G01 X60.177 Y89.062
G03 X60.014 Y88.818 I1.159 J-0.951
G01 X59.829 Y88.472
G03 X59.716 Y88.201 I1.322 J-0.707
G01 X59.603 Y87.825
G03 X59.545 Y87.537 I1.435 J-0.435
G01 X59.507 Y87.146
G03 X59.5 Y87.0 I1.492 J-0.146
G01 Y81.0
G01 Z-5.0
G01 Y73.0
G01 Z-6.0
G01 Y63.0
G03 X59.507 Y62.853 I1.5 J0.0
G01 X59.545 Y62.462
G03 X59.603 Y62.174 I1.492 J0.146
G01 X59.716 Y61.798
G03 X59.829 Y61.527 I1.435 J0.435
G01 X60.014 Y61.181
G03 X60.177 Y60.937 I1.322 J0.707
G01 X60.426 Y60.634
G03 X60.634 Y60.426 I1.159 J0.951
G01 X60.937 Y60.177
G03 X61.181 Y60.014 I0.951 J1.159
G01 X61.527 Y59.829
G03 X61.798 Y59.716 I0.707 J1.322
G01 X62.174 Y59.603
G03 X62.462 Y59.545 I0.435 J1.435
G01 X62.853 Y59.507
G03 X63.0 Y59.5 I0.146 J1.492
G01 X73.0
G01 Z-5.0
G01 X81.0
G01 Z-6.0
G01 X87.0
G03 X87.146 Y59.507 I0.0 J1.5
G01 X87.537 Y59.545
G03 X87.825 Y59.603 I-0.146 J1.492
G01 X88.201 Y59.716
G03 X88.472 Y59.829 I-0.435 J1.435
G01 X88.818 Y60.014
G01 Z-6.3 F100
G03 X89.062 Y60.177 I-0.707 J1.322 F1000
G01 X89.365 Y60.426
G03 X89.573 Y60.634 I-0.951 J1.159
G01 X89.822 Y60.937
G03 X89.985 Y61.181 I-1.159 J0.951
G01 X90.17 Y61.527
G03 X90.283 Y61.798 I-1.322 J0.707
G01 X90.396 Y62.174
G03 X90.454 Y62.462 I-1.435 J0.435
G01 X90.492 Y62.853
G03 X90.5 Y63.0 I-1.492 J0.146
G01 Y73.0
G01 Z-5.0
G01 Y81.0
G01 Z-6.3
G01 Y87.0
G03 X90.492 Y87.146 I-1.5 J-0.0
G01 X90.454 Y87.537
G03 X90.396 Y87.825 I-1.492 J-0.146
G01 X90.283 Y88.201
G03 X90.17 Y88.472 I-1.435 J-0.435
G01 X89.985 Y88.818
G03 X89.822 Y89.062 I-1.322 J-0.707
G01 X89.573 Y89.365
G03 X89.365 Y89.573 I-1.159 J-0.951
G01 X89.062 Y89.822
G03 X88.818 Y89.985 I-0.951 J-1.159
G01 X88.472 Y90.17
G03 X88.201 Y90.283 I-0.707 J-1.322
G01 X87.825 Y90.396
G03 X87.537 Y90.454 I-0.435 J-1.435
G01 X87.146 Y90.492
G03 X87.0 Y90.5 I-0.146 J-1.492
G01 X81.0
G01 Z-5.0
G01 X73.0
G01 Z-6.3
G01 X63.0
G03 X62.853 Y90.492 I0.0 J-1.5
G01 X62.462 Y90.454
G03 X62.174 Y90.396 I0.146 J-1.492
G01 X61.798 Y90.283
G03 X61.527 Y90.17 I0.435 J-1.435
G01 X61.181 Y89.985
G03 X60.937 Y89.822 I0.707 J-1.322
G01 X60.634 Y89.573
G03 X60.426 Y89.365 I0.951 J-1.159
G01 X60.177 Y89.062
G03 X60.014 Y88.818 I1.159 J-0.951
G01 X59.829 Y88.472
G03 X59.716 Y88.201 I1.322 J-0.707
G01 X59.603 Y87.825
G03 X59.545 Y87.537 I1.435 J-0.435
G01 X59.507 Y87.146
G03 X59.5 Y87.0 I1.492 J-0.146
G01 Y81.0
G01 Z-5.0
G01 Y73.0
G01 Z-6.3
G01 Y63.0
G03 X59.507 Y62.853 I1.5 J0.0
G01 X59.545 Y62.462
G03 X59.603 Y62.174 I1.492 J0.146
G01 X59.716 Y61.798
G03 X59.829 Y61.527 I1.435 J0.435
G01 X60.014 Y61.181
G03 X60.177 Y60.937 I1.322 J0.707
G01 X60.426 Y60.634
G03 X60.634 Y60.426 I1.159 J0.951
G01 X60.937 Y60.177
G03 X61.181 Y60.014 I0.951 J1.159
G01 X61.527 Y59.829
G03 X61.798 Y59.716 I0.707 J1.322
G01 X62.174 Y59.603
G03 X62.462 Y59.545 I0.435 J1.435
G01 X62.853 Y59.507
G03 X63.0 Y59.5 I0.146 J1.492
G01 X73.0
G01 Z-5.0
G01 X81.0
G01 Z-6.3
G01 X87.0
G03 X87.146 Y59.507 I0.0 J1.5
G01 X87.537 Y59.545
G03 X87.825 Y59.603 I-0.146 J1.492
G01 X88.201 Y59.716
G03 X88.472 Y59.829 I-0.435 J1.435
G01 X88.818 Y60.014
G00 Z2.0
M05
M02
 (--------------------------------------------------)
 (CAMmill-Configuration)
 (cfg:View-Zoom: 2.580000)
 (cfg:View-Helplines: 1)
 (cfg:View-ShowGrid: 1)
 (cfg:View-ShowTool: 1)
 (cfg:View-Textures: 0)
 (cfg:View-Rotate-X: -25.000000)
 (cfg:View-Rotate-Y: 0.000000)
 (cfg:View-Rotate-Z: -6.800000)
 (cfg:View-Translate-X: -10)
 (cfg:View-Translate-Y: -18)
 (cfg:View-Grid-Size: 10.000000)
 (cfg:View-Arrow-Scale: 1.000000)
 (cfg:Tool-Select: -1)
 (cfg:Tool-Number: 1)
 (cfg:Tool-Diameter: 3.000000)
 (cfg:Tool-Speed: 12000)
 (cfg:Tool-Coolant: 0)
 (cfg:Tool-Kepp spinning: 1)
 (cfg:Milling-FeedRate: 1000)
 (cfg:Milling-PlungeRate: 100)
 (cfg:Milling-Depth: -6.300000)
 (cfg:Milling-Z-Step: -2.000000)
 (cfg:Milling-Save-Move: 2.000000)
 (cfg:Milling-Overcut: 0)
 (cfg:Milling-Lasermode: 0)
 (cfg:Milling-Climb: 0)
 (cfg:Milling-NoOffsets: 0)
 (cfg:Milling-Helix: 1)
 (cfg:Milling-Velocity-Mode: 0)
 (cfg:Milling-Blending Tolerance: 0.050000)
 (cfg:Milling-DXF-File: /home/tim/3d/tim-open-things/mill-highpowerledbracket/bracket3.dxf)
 (cfg:Milling-Output-File: /home/tim/3d/tim-open-things/mill-highpowerledbracket/bracket3.ngc)
 (cfg:Pockets-Pocket: 0)
 (cfg:Pockets-Pocket-Stepover: 50)
 (cfg:Holding-Tabs-Activate: 1)
 (cfg:Holding-Tabs-Show Grid: 1)
 (cfg:Holding-Tabs-Depth: -5.000000)
 (cfg:Holding-Tabs-Length: 5.000000)
 (cfg:Holding-Tabs-Triangle-Type: 0)
 (cfg:Holding-Tabs-On Open: 0)
 (cfg:Holding-Tabs-On Inside: 0)
 (cfg:Holding-Tabs-On Outside: 1)
 (cfg:Holding-Tabs-X-Grid: 50.000500)
 (cfg:Holding-Tabs-Y-Grid: 50.000000)
 (cfg:Text-Mill Text: 0)
 (cfg:Text-Mill-Depth: -0.500000)
 (cfg:Text-Fixed-W: 1)
 (cfg:Text-Scale-W: 1.000000)
 (cfg:Text-Scale-H: 1.000000)
 (cfg:Text-Font: 0)
 (cfg:Text-Overwrite: 0)
 (cfg:Text-Tool-Number: 1)
 (cfg:Text-Tool-Diameter: 3.000000)
 (cfg:Text-Tool-Speed: 12000)
 (cfg:Machine-Fastmove-Speed: 2000)
 (cfg:Machine-Spindle-Delay: 1.000000)
 (cfg:Machine-Fast-Z: 1.000000)
 (cfg:Machine-Post: 0)
 (cfg:Machine-Post-Command: )
 (cfg:Calculation-Tool-Flutes: 2)
 (cfg:Calculation-Select: 8)
 (cfg:Calculation-Cutting Speed: 2000)
 (cfg:Calculation-Feed/Tooth@<4mm: 0.040000)
 (cfg:Calculation-Feed/Tooth@<8mm: 0.080000)
 (cfg:Calculation-Feed/Tooth@<12mm: 0.100000)
 (cfg:Calculation-CalcSpeed: 212206)
 (cfg:Calculation-MaxFeedRate: 960)
 (cfg:Objects-Select: 0)
 (cfg:Objects-Use: 1)
 (cfg:Objects-Overwrite: 0)
 (cfg:Objects-Climb: 0)
 (cfg:Objects-Offset: 2)
 (cfg:Objects-Overcut: 0)
 (cfg:Objects-Pocket: 0)
 (cfg:Objects-Helix: 1)
 (cfg:Objects-Laser: 0)
 (cfg:Objects-Depth: -6.300000)
 (cfg:Objects-Holding-Tab's: 1)
 (cfg:Objects-Order: 5)
 (cfg:Objects-Tool-Number: 1)
 (cfg:Objects-Tool-Diameter: 3.000000)
 (cfg:Objects-Tool-Speed: 12000)
 (cfg:Rotary-Activate: 0)
 (cfg:Rotary-Axis: 0)
 (cfg:Rotary-Diameter: 100.000000)
 (cfg:Tangencial-Activate: 0)
 (cfg:Tangencial-Axis: 1)
 (cfg:Tangencial-MaxAngle: 10.000000)
 (cfg:Window-X-Position: 0)
 (cfg:Window-Y-Position: 55)
 (cfg:Window-Width: 3246)
 (cfg:Window-Height: 1565)
 (cfg:Window-Maximized: 0)
 (cfg:Misc-Unit: 1)
 (cfg:Misc-Tolerance: 0.001000)
 (cfg:Misc-Tool-Table: )
 (cfg:Misc-Parameter: 0)
 (cfg:Misc-Setup-Autosave: 1)
 (cfg:Misc-Batchmode: 0)
 (cfg:Misc-LoadPath: /home/tim/3d/tim-open-things/mill-highpowerledbracket)
 (cfg:Misc-SavePath: /home/tim/3d/tim-open-things/mill-highpowerledbracket)
 (cfg:Misc-PresetPath: /home/tim)
 (cfg:Misc-Delete Double Lines: 1)
 (cfg:Misc-Zero: 1)
 (cfg:Misc-Zero-Offset-X: 0.000000)
 (cfg:Misc-Zero-Offset-Y: 0.000000)
 (cfg:Misc-Append Config: 1)
 (cfg:Misc-Texture: ../share/cammill/textures/wood.bmp)
 (cfg:Misc-NC-Debug: 0)
 (--------------------------------------------------)
