 ( CAMmill GRBL Postprocessor )
 ( Ver: 20150830 - by onekk )
 ( GRBL Support only G61 mode )
 ( Version < 0.9i build 20150529 )
 ( must delete the G61 from this file )
 ( otherwise it raise an error )
G21 (Metric/mm)
G40 (No Offsets)
G90 (Absolute-Mode)
G61
F100
 (--------------------------------------------------)
 (Object: #1)
 (Layer: 0)
 (Overcut: 0)
 (Depth: -6.300000)
 (Offset: Inside)
 (Tool-Num: 1)
 (Tool-Diameter: 3.00)
 (Tool-Speed: 12000)
 (--------------------------------------------------)
M05
M6 T1
M03 S12000
G00 X-12.888 Y-12.888 Z2.0
G00 X-6.01 Y-6.01
G00 Z1.0
G01 Z-2.0
G01 X-6.316 Y-5.687 F1000
G01 X-6.605 Y-5.348
G01 X-6.876 Y-4.995
G01 X-7.128 Y-4.629
G01 X-7.36 Y-4.249
G01 X-7.573 Y-3.858
G01 X-7.764 Y-3.457
G01 X-7.934 Y-3.045
G01 X-8.083 Y-2.626
G01 X-8.209 Y-2.199
G01 X-8.313 Y-1.767
G01 X-8.394 Y-1.329
G01 X-8.452 Y-0.888
G01 X-8.487 Y-0.444
G01 X-8.499 Y0.0
G01 X-8.487 Y0.444
G01 X-8.452 Y0.888
G01 X-8.394 Y1.329
G01 X-8.313 Y1.767
G01 X-8.209 Y2.199
G01 X-8.083 Y2.626
G01 X-7.934 Y3.045
G01 X-7.764 Y3.457
G01 X-7.573 Y3.858
G01 X-7.36 Y4.249
G01 X-7.128 Y4.629
G01 X-6.876 Y4.995
G01 X-6.605 Y5.348
G01 X-6.316 Y5.687
G01 X-6.01 Y6.01
G01 X-5.687 Y6.316
G01 X-5.348 Y6.605
G01 X-4.995 Y6.876
G01 X-4.629 Y7.128
G01 X-4.249 Y7.36
G01 X-3.858 Y7.573
G01 X-3.457 Y7.764
G01 X-3.045 Y7.934
G01 X-2.626 Y8.083
G01 X-2.199 Y8.209
G01 X-1.767 Y8.313
G01 X-1.329 Y8.394
G01 X-0.888 Y8.452
G01 X-0.444 Y8.487
G01 X-0.0 Y8.499
G01 X0.444 Y8.487
G01 X0.888 Y8.452
G01 X1.329 Y8.394
G01 X1.767 Y8.313
G01 X2.199 Y8.209
G01 X2.626 Y8.083
G01 X3.045 Y7.934
G01 X3.457 Y7.764
G01 X3.858 Y7.573
G01 X4.249 Y7.36
G01 X4.629 Y7.128
G01 X4.995 Y6.876
G01 X5.348 Y6.605
G01 X5.687 Y6.316
G01 X6.01 Y6.01
G01 X6.316 Y5.687
G01 X6.605 Y5.348
G01 X6.876 Y4.995
G01 X7.128 Y4.629
G01 X7.36 Y4.249
G01 X7.573 Y3.858
G01 X7.764 Y3.457
G01 X7.934 Y3.045
G01 X8.083 Y2.626
G01 X8.209 Y2.199
G01 X8.313 Y1.767
G01 X8.394 Y1.329
G01 X8.452 Y0.888
G01 X8.487 Y0.444
G01 X8.499 Y0.0
G01 X8.487 Y-0.444
G01 X8.452 Y-0.888
G01 X8.394 Y-1.329
G01 X8.313 Y-1.767
G01 X8.209 Y-2.199
G01 X8.083 Y-2.626
G01 X7.934 Y-3.045
G01 X7.764 Y-3.457
G01 X7.573 Y-3.858
G01 X7.36 Y-4.249
G01 X7.128 Y-4.629
G01 X6.876 Y-4.995
G01 X6.605 Y-5.348
G01 X6.316 Y-5.687
G01 X6.01 Y-6.01
G01 X5.687 Y-6.316
G01 X5.348 Y-6.605
G01 X4.995 Y-6.876
G01 X4.629 Y-7.128
G01 X4.249 Y-7.36
G01 X3.858 Y-7.573
G01 X3.457 Y-7.764
G01 X3.045 Y-7.934
G01 X2.626 Y-8.083
G01 X2.199 Y-8.209
G01 X1.767 Y-8.313
G01 X1.329 Y-8.394
G01 X0.888 Y-8.452
G01 X0.444 Y-8.487
G01 X0.0 Y-8.499
G01 X-0.444 Y-8.487
G01 X-0.888 Y-8.452
G01 X-1.329 Y-8.394
G01 X-1.767 Y-8.313
G01 X-2.199 Y-8.209
G01 X-2.626 Y-8.083
G01 X-3.045 Y-7.934
G01 X-3.457 Y-7.764
G01 X-3.858 Y-7.573
G01 X-4.249 Y-7.36
G01 X-4.629 Y-7.128
G01 X-4.995 Y-6.876
G01 X-5.348 Y-6.605
G01 X-5.687 Y-6.316
G01 X-6.01 Y-6.01
G01 Z-4.0 F100
G01 X-6.316 Y-5.687 F1000
G01 X-6.605 Y-5.348
G01 X-6.876 Y-4.995
G01 X-7.128 Y-4.629
G01 X-7.36 Y-4.249
G01 X-7.573 Y-3.858
G01 X-7.764 Y-3.457
G01 X-7.934 Y-3.045
G01 X-8.083 Y-2.626
G01 X-8.209 Y-2.199
G01 X-8.313 Y-1.767
G01 X-8.394 Y-1.329
G01 X-8.452 Y-0.888
G01 X-8.487 Y-0.444
G01 X-8.499 Y0.0
G01 X-8.487 Y0.444
G01 X-8.452 Y0.888
G01 X-8.394 Y1.329
G01 X-8.313 Y1.767
G01 X-8.209 Y2.199
G01 X-8.083 Y2.626
G01 X-7.934 Y3.045
G01 X-7.764 Y3.457
G01 X-7.573 Y3.858
G01 X-7.36 Y4.249
G01 X-7.128 Y4.629
G01 X-6.876 Y4.995
G01 X-6.605 Y5.348
G01 X-6.316 Y5.687
G01 X-6.01 Y6.01
G01 X-5.687 Y6.316
G01 X-5.348 Y6.605
G01 X-4.995 Y6.876
G01 X-4.629 Y7.128
G01 X-4.249 Y7.36
G01 X-3.858 Y7.573
G01 X-3.457 Y7.764
G01 X-3.045 Y7.934
G01 X-2.626 Y8.083
G01 X-2.199 Y8.209
G01 X-1.767 Y8.313
G01 X-1.329 Y8.394
G01 X-0.888 Y8.452
G01 X-0.444 Y8.487
G01 X-0.0 Y8.499
G01 X0.444 Y8.487
G01 X0.888 Y8.452
G01 X1.329 Y8.394
G01 X1.767 Y8.313
G01 X2.199 Y8.209
G01 X2.626 Y8.083
G01 X3.045 Y7.934
G01 X3.457 Y7.764
G01 X3.858 Y7.573
G01 X4.249 Y7.36
G01 X4.629 Y7.128
G01 X4.995 Y6.876
G01 X5.348 Y6.605
G01 X5.687 Y6.316
G01 X6.01 Y6.01
G01 X6.316 Y5.687
G01 X6.605 Y5.348
G01 X6.876 Y4.995
G01 X7.128 Y4.629
G01 X7.36 Y4.249
G01 X7.573 Y3.858
G01 X7.764 Y3.457
G01 X7.934 Y3.045
G01 X8.083 Y2.626
G01 X8.209 Y2.199
G01 X8.313 Y1.767
G01 X8.394 Y1.329
G01 X8.452 Y0.888
G01 X8.487 Y0.444
G01 X8.499 Y0.0
G01 X8.487 Y-0.444
G01 X8.452 Y-0.888
G01 X8.394 Y-1.329
G01 X8.313 Y-1.767
G01 X8.209 Y-2.199
G01 X8.083 Y-2.626
G01 X7.934 Y-3.045
G01 X7.764 Y-3.457
G01 X7.573 Y-3.858
G01 X7.36 Y-4.249
G01 X7.128 Y-4.629
G01 X6.876 Y-4.995
G01 X6.605 Y-5.348
G01 X6.316 Y-5.687
G01 X6.01 Y-6.01
G01 X5.687 Y-6.316
G01 X5.348 Y-6.605
G01 X4.995 Y-6.876
G01 X4.629 Y-7.128
G01 X4.249 Y-7.36
G01 X3.858 Y-7.573
G01 X3.457 Y-7.764
G01 X3.045 Y-7.934
G01 X2.626 Y-8.083
G01 X2.199 Y-8.209
G01 X1.767 Y-8.313
G01 X1.329 Y-8.394
G01 X0.888 Y-8.452
G01 X0.444 Y-8.487
G01 X0.0 Y-8.499
G01 X-0.444 Y-8.487
G01 X-0.888 Y-8.452
G01 X-1.329 Y-8.394
G01 X-1.767 Y-8.313
G01 X-2.199 Y-8.209
G01 X-2.626 Y-8.083
G01 X-3.045 Y-7.934
G01 X-3.457 Y-7.764
G01 X-3.858 Y-7.573
G01 X-4.249 Y-7.36
G01 X-4.629 Y-7.128
G01 X-4.995 Y-6.876
G01 X-5.348 Y-6.605
G01 X-5.687 Y-6.316
G01 X-6.01 Y-6.01
G01 Z-6.0 F100
G01 X-6.316 Y-5.687 F1000
G01 X-6.605 Y-5.348
G01 X-6.876 Y-4.995
G01 X-7.128 Y-4.629
G01 X-7.36 Y-4.249
G01 X-7.573 Y-3.858
G01 X-7.764 Y-3.457
G01 X-7.934 Y-3.045
G01 X-8.083 Y-2.626
G01 X-8.209 Y-2.199
G01 X-8.313 Y-1.767
G01 X-8.394 Y-1.329
G01 X-8.452 Y-0.888
G01 X-8.487 Y-0.444
G01 X-8.499 Y0.0
G01 X-8.487 Y0.444
G01 X-8.452 Y0.888
G01 X-8.394 Y1.329
G01 X-8.313 Y1.767
G01 X-8.209 Y2.199
G01 X-8.083 Y2.626
G01 X-7.934 Y3.045
G01 X-7.764 Y3.457
G01 X-7.573 Y3.858
G01 X-7.36 Y4.249
G01 X-7.128 Y4.629
G01 X-6.876 Y4.995
G01 X-6.605 Y5.348
G01 X-6.316 Y5.687
G01 X-6.01 Y6.01
G01 X-5.687 Y6.316
G01 X-5.348 Y6.605
G01 X-4.995 Y6.876
G01 X-4.629 Y7.128
G01 X-4.249 Y7.36
G01 X-3.858 Y7.573
G01 X-3.457 Y7.764
G01 X-3.045 Y7.934
G01 X-2.626 Y8.083
G01 X-2.199 Y8.209
G01 X-1.767 Y8.313
G01 X-1.329 Y8.394
G01 X-0.888 Y8.452
G01 X-0.444 Y8.487
G01 X-0.0 Y8.499
G01 X0.444 Y8.487
G01 X0.888 Y8.452
G01 X1.329 Y8.394
G01 X1.767 Y8.313
G01 X2.199 Y8.209
G01 X2.626 Y8.083
G01 X3.045 Y7.934
G01 X3.457 Y7.764
G01 X3.858 Y7.573
G01 X4.249 Y7.36
G01 X4.629 Y7.128
G01 X4.995 Y6.876
G01 X5.348 Y6.605
G01 X5.687 Y6.316
G01 X6.01 Y6.01
G01 X6.316 Y5.687
G01 X6.605 Y5.348
G01 X6.876 Y4.995
G01 X7.128 Y4.629
G01 X7.36 Y4.249
G01 X7.573 Y3.858
G01 X7.764 Y3.457
G01 X7.934 Y3.045
G01 X8.083 Y2.626
G01 X8.209 Y2.199
G01 X8.313 Y1.767
G01 X8.394 Y1.329
G01 X8.452 Y0.888
G01 X8.487 Y0.444
G01 X8.499 Y0.0
G01 X8.487 Y-0.444
G01 X8.452 Y-0.888
G01 X8.394 Y-1.329
G01 X8.313 Y-1.767
G01 X8.209 Y-2.199
G01 X8.083 Y-2.626
G01 X7.934 Y-3.045
G01 X7.764 Y-3.457
G01 X7.573 Y-3.858
G01 X7.36 Y-4.249
G01 X7.128 Y-4.629
G01 X6.876 Y-4.995
G01 X6.605 Y-5.348
G01 X6.316 Y-5.687
G01 X6.01 Y-6.01
G01 X5.687 Y-6.316
G01 X5.348 Y-6.605
G01 X4.995 Y-6.876
G01 X4.629 Y-7.128
G01 X4.249 Y-7.36
G01 X3.858 Y-7.573
G01 X3.457 Y-7.764
G01 X3.045 Y-7.934
G01 X2.626 Y-8.083
G01 X2.199 Y-8.209
G01 X1.767 Y-8.313
G01 X1.329 Y-8.394
G01 X0.888 Y-8.452
G01 X0.444 Y-8.487
G01 X0.0 Y-8.499
G01 X-0.444 Y-8.487
G01 X-0.888 Y-8.452
G01 X-1.329 Y-8.394
G01 X-1.767 Y-8.313
G01 X-2.199 Y-8.209
G01 X-2.626 Y-8.083
G01 X-3.045 Y-7.934
G01 X-3.457 Y-7.764
G01 X-3.858 Y-7.573
G01 X-4.249 Y-7.36
G01 X-4.629 Y-7.128
G01 X-4.995 Y-6.876
G01 X-5.348 Y-6.605
G01 X-5.687 Y-6.316
G01 X-6.01 Y-6.01
G01 Z-6.3 F100
G01 X-6.316 Y-5.687 F1000
G01 X-6.605 Y-5.348
G01 X-6.876 Y-4.995
G01 X-7.128 Y-4.629
G01 X-7.36 Y-4.249
G01 X-7.573 Y-3.858
G01 X-7.764 Y-3.457
G01 X-7.934 Y-3.045
G01 X-8.083 Y-2.626
G01 X-8.209 Y-2.199
G01 X-8.313 Y-1.767
G01 X-8.394 Y-1.329
G01 X-8.452 Y-0.888
G01 X-8.487 Y-0.444
G01 X-8.499 Y0.0
G01 X-8.487 Y0.444
G01 X-8.452 Y0.888
G01 X-8.394 Y1.329
G01 X-8.313 Y1.767
G01 X-8.209 Y2.199
G01 X-8.083 Y2.626
G01 X-7.934 Y3.045
G01 X-7.764 Y3.457
G01 X-7.573 Y3.858
G01 X-7.36 Y4.249
G01 X-7.128 Y4.629
G01 X-6.876 Y4.995
G01 X-6.605 Y5.348
G01 X-6.316 Y5.687
G01 X-6.01 Y6.01
G01 X-5.687 Y6.316
G01 X-5.348 Y6.605
G01 X-4.995 Y6.876
G01 X-4.629 Y7.128
G01 X-4.249 Y7.36
G01 X-3.858 Y7.573
G01 X-3.457 Y7.764
G01 X-3.045 Y7.934
G01 X-2.626 Y8.083
G01 X-2.199 Y8.209
G01 X-1.767 Y8.313
G01 X-1.329 Y8.394
G01 X-0.888 Y8.452
G01 X-0.444 Y8.487
G01 X-0.0 Y8.499
G01 X0.444 Y8.487
G01 X0.888 Y8.452
G01 X1.329 Y8.394
G01 X1.767 Y8.313
G01 X2.199 Y8.209
G01 X2.626 Y8.083
G01 X3.045 Y7.934
G01 X3.457 Y7.764
G01 X3.858 Y7.573
G01 X4.249 Y7.36
G01 X4.629 Y7.128
G01 X4.995 Y6.876
G01 X5.348 Y6.605
G01 X5.687 Y6.316
G01 X6.01 Y6.01
G01 X6.316 Y5.687
G01 X6.605 Y5.348
G01 X6.876 Y4.995
G01 X7.128 Y4.629
G01 X7.36 Y4.249
G01 X7.573 Y3.858
G01 X7.764 Y3.457
G01 X7.934 Y3.045
G01 X8.083 Y2.626
G01 X8.209 Y2.199
G01 X8.313 Y1.767
G01 X8.394 Y1.329
G01 X8.452 Y0.888
G01 X8.487 Y0.444
G01 X8.499 Y0.0
G01 X8.487 Y-0.444
G01 X8.452 Y-0.888
G01 X8.394 Y-1.329
G01 X8.313 Y-1.767
G01 X8.209 Y-2.199
G01 X8.083 Y-2.626
G01 X7.934 Y-3.045
G01 X7.764 Y-3.457
G01 X7.573 Y-3.858
G01 X7.36 Y-4.249
G01 X7.128 Y-4.629
G01 X6.876 Y-4.995
G01 X6.605 Y-5.348
G01 X6.316 Y-5.687
G01 X6.01 Y-6.01
G01 X5.687 Y-6.316
G01 X5.348 Y-6.605
G01 X4.995 Y-6.876
G01 X4.629 Y-7.128
G01 X4.249 Y-7.36
G01 X3.858 Y-7.573
G01 X3.457 Y-7.764
G01 X3.045 Y-7.934
G01 X2.626 Y-8.083
G01 X2.199 Y-8.209
G01 X1.767 Y-8.313
G01 X1.329 Y-8.394
G01 X0.888 Y-8.452
G01 X0.444 Y-8.487
G01 X0.0 Y-8.499
G01 X-0.444 Y-8.487
G01 X-0.888 Y-8.452
G01 X-1.329 Y-8.394
G01 X-1.767 Y-8.313
G01 X-2.199 Y-8.209
G01 X-2.626 Y-8.083
G01 X-3.045 Y-7.934
G01 X-3.457 Y-7.764
G01 X-3.858 Y-7.573
G01 X-4.249 Y-7.36
G01 X-4.629 Y-7.128
G01 X-4.995 Y-6.876
G01 X-5.348 Y-6.605
G01 X-5.687 Y-6.316
G01 X-6.01 Y-6.01
G00 Z2.0
 (--------------------------------------------------)
 (Object: #0)
 (Layer: 0)
 (Overcut: 0)
 (Depth: -6.300000)
 (Offset: Outside)
 (Tool-Num: 1)
 (Tool-Diameter: 3.00)
 (Tool-Speed: 12000)
 (--------------------------------------------------)
M05

M03
G00
G00 X-12.146 Y-15.492
G00 Z1.0
G01 Z-2.0 F100
G03 X-12.0 Y-15.5 I0.146 J1.492 F1000
G01 X12.0
G03 X12.146 Y-15.492 I0.0 J1.5
G01 X12.537 Y-15.454
G03 X12.825 Y-15.396 I-0.146 J1.492
G01 X13.201 Y-15.283
G03 X13.472 Y-15.17 I-0.435 J1.435
G01 X13.818 Y-14.985
G03 X14.062 Y-14.822 I-0.707 J1.322
G01 X14.365 Y-14.573
G03 X14.573 Y-14.365 I-0.951 J1.159
G01 X14.822 Y-14.062
G03 X14.985 Y-13.818 I-1.159 J0.951
G01 X15.17 Y-13.472
G03 X15.283 Y-13.201 I-1.322 J0.707
G01 X15.396 Y-12.825
G03 X15.454 Y-12.537 I-1.435 J0.435
G01 X15.492 Y-12.146
G03 X15.5 Y-12.0 I-1.492 J0.146
G01 Y12.0
G03 X15.492 Y12.146 I-1.5 J-0.0
G01 X15.454 Y12.537
G03 X15.396 Y12.825 I-1.492 J-0.146
G01 X15.283 Y13.201
G03 X15.17 Y13.472 I-1.435 J-0.435
G01 X14.985 Y13.818
G03 X14.822 Y14.062 I-1.322 J-0.707
G01 X14.573 Y14.365
G03 X14.365 Y14.573 I-1.159 J-0.951
G01 X14.062 Y14.822
G03 X13.818 Y14.985 I-0.951 J-1.159
G01 X13.472 Y15.17
G03 X13.201 Y15.283 I-0.707 J-1.322
G01 X12.825 Y15.396
G03 X12.537 Y15.454 I-0.435 J-1.435
G01 X12.146 Y15.492
G03 X12.0 Y15.5 I-0.146 J-1.492
G01 X-12.0
G03 X-12.146 Y15.492 I0.0 J-1.5
G01 X-12.537 Y15.454
G03 X-12.825 Y15.396 I0.146 J-1.492
G01 X-13.201 Y15.283
G03 X-13.472 Y15.17 I0.435 J-1.435
G01 X-13.818 Y14.985
G03 X-14.062 Y14.822 I0.707 J-1.322
G01 X-14.365 Y14.573
G03 X-14.573 Y14.365 I0.951 J-1.159
G01 X-14.822 Y14.062
G03 X-14.985 Y13.818 I1.159 J-0.951
G01 X-15.17 Y13.472
G03 X-15.283 Y13.201 I1.322 J-0.707
G01 X-15.396 Y12.825
G03 X-15.454 Y12.537 I1.435 J-0.435
G01 X-15.492 Y12.146
G03 X-15.5 Y12.0 I1.492 J-0.146
G01 Y-12.0
G03 X-15.492 Y-12.146 I1.5 J0.0
G01 X-15.454 Y-12.537
G03 X-15.396 Y-12.825 I1.492 J0.146
G01 X-15.283 Y-13.201
G03 X-15.17 Y-13.472 I1.435 J0.435
G01 X-14.985 Y-13.818
G03 X-14.822 Y-14.062 I1.322 J0.707
G01 X-14.573 Y-14.365
G03 X-14.365 Y-14.573 I1.159 J0.951
G01 X-14.062 Y-14.822
G03 X-13.818 Y-14.985 I0.951 J1.159
G01 X-13.472 Y-15.17
G03 X-13.201 Y-15.283 I0.707 J1.322
G01 X-12.825 Y-15.396
G03 X-12.537 Y-15.454 I0.435 J1.435
G01 X-12.146 Y-15.492
G01 Z-4.0 F100
G03 X-12.0 Y-15.5 I0.146 J1.492 F1000
G01 X12.0
G03 X12.146 Y-15.492 I0.0 J1.5
G01 X12.537 Y-15.454
G03 X12.825 Y-15.396 I-0.146 J1.492
G01 X13.201 Y-15.283
G03 X13.472 Y-15.17 I-0.435 J1.435
G01 X13.818 Y-14.985
G03 X14.062 Y-14.822 I-0.707 J1.322
G01 X14.365 Y-14.573
G03 X14.573 Y-14.365 I-0.951 J1.159
G01 X14.822 Y-14.062
G03 X14.985 Y-13.818 I-1.159 J0.951
G01 X15.17 Y-13.472
G03 X15.283 Y-13.201 I-1.322 J0.707
G01 X15.396 Y-12.825
G03 X15.454 Y-12.537 I-1.435 J0.435
G01 X15.492 Y-12.146
G03 X15.5 Y-12.0 I-1.492 J0.146
G01 Y12.0
G03 X15.492 Y12.146 I-1.5 J-0.0
G01 X15.454 Y12.537
G03 X15.396 Y12.825 I-1.492 J-0.146
G01 X15.283 Y13.201
G03 X15.17 Y13.472 I-1.435 J-0.435
G01 X14.985 Y13.818
G03 X14.822 Y14.062 I-1.322 J-0.707
G01 X14.573 Y14.365
G03 X14.365 Y14.573 I-1.159 J-0.951
G01 X14.062 Y14.822
G03 X13.818 Y14.985 I-0.951 J-1.159
G01 X13.472 Y15.17
G03 X13.201 Y15.283 I-0.707 J-1.322
G01 X12.825 Y15.396
G03 X12.537 Y15.454 I-0.435 J-1.435
G01 X12.146 Y15.492
G03 X12.0 Y15.5 I-0.146 J-1.492
G01 X-12.0
G03 X-12.146 Y15.492 I0.0 J-1.5
G01 X-12.537 Y15.454
G03 X-12.825 Y15.396 I0.146 J-1.492
G01 X-13.201 Y15.283
G03 X-13.472 Y15.17 I0.435 J-1.435
G01 X-13.818 Y14.985
G03 X-14.062 Y14.822 I0.707 J-1.322
G01 X-14.365 Y14.573
G03 X-14.573 Y14.365 I0.951 J-1.159
G01 X-14.822 Y14.062
G03 X-14.985 Y13.818 I1.159 J-0.951
G01 X-15.17 Y13.472
G03 X-15.283 Y13.201 I1.322 J-0.707
G01 X-15.396 Y12.825
G03 X-15.454 Y12.537 I1.435 J-0.435
G01 X-15.492 Y12.146
G03 X-15.5 Y12.0 I1.492 J-0.146
G01 Y-12.0
G03 X-15.492 Y-12.146 I1.5 J0.0
G01 X-15.454 Y-12.537
G03 X-15.396 Y-12.825 I1.492 J0.146
G01 X-15.283 Y-13.201
G03 X-15.17 Y-13.472 I1.435 J0.435
G01 X-14.985 Y-13.818
G03 X-14.822 Y-14.062 I1.322 J0.707
G01 X-14.573 Y-14.365
G03 X-14.365 Y-14.573 I1.159 J0.951
G01 X-14.062 Y-14.822
G03 X-13.818 Y-14.985 I0.951 J1.159
G01 X-13.472 Y-15.17
G03 X-13.201 Y-15.283 I0.707 J1.322
G01 X-12.825 Y-15.396
G03 X-12.537 Y-15.454 I0.435 J1.435
G01 X-12.146 Y-15.492
G01 Z-6.0 F100
G03 X-12.0 Y-15.5 I0.146 J1.492 F1000
G01 X12.0
G03 X12.146 Y-15.492 I0.0 J1.5
G01 X12.537 Y-15.454
G03 X12.825 Y-15.396 I-0.146 J1.492
G01 X13.201 Y-15.283
G03 X13.472 Y-15.17 I-0.435 J1.435
G01 X13.818 Y-14.985
G03 X14.062 Y-14.822 I-0.707 J1.322
G01 X14.365 Y-14.573
G03 X14.573 Y-14.365 I-0.951 J1.159
G01 X14.822 Y-14.062
G03 X14.985 Y-13.818 I-1.159 J0.951
G01 X15.17 Y-13.472
G03 X15.283 Y-13.201 I-1.322 J0.707
G01 X15.396 Y-12.825
G03 X15.454 Y-12.537 I-1.435 J0.435
G01 X15.492 Y-12.146
G03 X15.5 Y-12.0 I-1.492 J0.146
G01 Y12.0
G03 X15.492 Y12.146 I-1.5 J-0.0
G01 X15.454 Y12.537
G03 X15.396 Y12.825 I-1.492 J-0.146
G01 X15.283 Y13.201
G03 X15.17 Y13.472 I-1.435 J-0.435
G01 X14.985 Y13.818
G03 X14.822 Y14.062 I-1.322 J-0.707
G01 X14.573 Y14.365
G03 X14.365 Y14.573 I-1.159 J-0.951
G01 X14.062 Y14.822
G03 X13.818 Y14.985 I-0.951 J-1.159
G01 X13.472 Y15.17
G03 X13.201 Y15.283 I-0.707 J-1.322
G01 X12.825 Y15.396
G03 X12.537 Y15.454 I-0.435 J-1.435
G01 X12.146 Y15.492
G03 X12.0 Y15.5 I-0.146 J-1.492
G01 X-12.0
G03 X-12.146 Y15.492 I0.0 J-1.5
G01 X-12.537 Y15.454
G03 X-12.825 Y15.396 I0.146 J-1.492
G01 X-13.201 Y15.283
G03 X-13.472 Y15.17 I0.435 J-1.435
G01 X-13.818 Y14.985
G03 X-14.062 Y14.822 I0.707 J-1.322
G01 X-14.365 Y14.573
G03 X-14.573 Y14.365 I0.951 J-1.159
G01 X-14.822 Y14.062
G03 X-14.985 Y13.818 I1.159 J-0.951
G01 X-15.17 Y13.472
G03 X-15.283 Y13.201 I1.322 J-0.707
G01 X-15.396 Y12.825
G03 X-15.454 Y12.537 I1.435 J-0.435
G01 X-15.492 Y12.146
G03 X-15.5 Y12.0 I1.492 J-0.146
G01 Y-12.0
G03 X-15.492 Y-12.146 I1.5 J0.0
G01 X-15.454 Y-12.537
G03 X-15.396 Y-12.825 I1.492 J0.146
G01 X-15.283 Y-13.201
G03 X-15.17 Y-13.472 I1.435 J0.435
G01 X-14.985 Y-13.818
G03 X-14.822 Y-14.062 I1.322 J0.707
G01 X-14.573 Y-14.365
G03 X-14.365 Y-14.573 I1.159 J0.951
G01 X-14.062 Y-14.822
G03 X-13.818 Y-14.985 I0.951 J1.159
G01 X-13.472 Y-15.17
G03 X-13.201 Y-15.283 I0.707 J1.322
G01 X-12.825 Y-15.396
G03 X-12.537 Y-15.454 I0.435 J1.435
G01 X-12.146 Y-15.492
G01 Z-6.3 F100
G03 X-12.0 Y-15.5 I0.146 J1.492 F1000
G01 X12.0
G03 X12.146 Y-15.492 I0.0 J1.5
G01 X12.537 Y-15.454
G03 X12.825 Y-15.396 I-0.146 J1.492
G01 X13.201 Y-15.283
G03 X13.472 Y-15.17 I-0.435 J1.435
G01 X13.818 Y-14.985
G03 X14.062 Y-14.822 I-0.707 J1.322
G01 X14.365 Y-14.573
G03 X14.573 Y-14.365 I-0.951 J1.159
G01 X14.822 Y-14.062
G03 X14.985 Y-13.818 I-1.159 J0.951
G01 X15.17 Y-13.472
G03 X15.283 Y-13.201 I-1.322 J0.707
G01 X15.396 Y-12.825
G03 X15.454 Y-12.537 I-1.435 J0.435
G01 X15.492 Y-12.146
G03 X15.5 Y-12.0 I-1.492 J0.146
G01 Y12.0
G03 X15.492 Y12.146 I-1.5 J-0.0
G01 X15.454 Y12.537
G03 X15.396 Y12.825 I-1.492 J-0.146
G01 X15.283 Y13.201
G03 X15.17 Y13.472 I-1.435 J-0.435
G01 X14.985 Y13.818
G03 X14.822 Y14.062 I-1.322 J-0.707
G01 X14.573 Y14.365
G03 X14.365 Y14.573 I-1.159 J-0.951
G01 X14.062 Y14.822
G03 X13.818 Y14.985 I-0.951 J-1.159
G01 X13.472 Y15.17
G03 X13.201 Y15.283 I-0.707 J-1.322
G01 X12.825 Y15.396
G03 X12.537 Y15.454 I-0.435 J-1.435
G01 X12.146 Y15.492
G03 X12.0 Y15.5 I-0.146 J-1.492
G01 X-12.0
G03 X-12.146 Y15.492 I0.0 J-1.5
G01 X-12.537 Y15.454
G03 X-12.825 Y15.396 I0.146 J-1.492
G01 X-13.201 Y15.283
G03 X-13.472 Y15.17 I0.435 J-1.435
G01 X-13.818 Y14.985
G03 X-14.062 Y14.822 I0.707 J-1.322
G01 X-14.365 Y14.573
G03 X-14.573 Y14.365 I0.951 J-1.159
G01 X-14.822 Y14.062
G03 X-14.985 Y13.818 I1.159 J-0.951
G01 X-15.17 Y13.472
G03 X-15.283 Y13.201 I1.322 J-0.707
G01 X-15.396 Y12.825
G03 X-15.454 Y12.537 I1.435 J-0.435
G01 X-15.492 Y12.146
G03 X-15.5 Y12.0 I1.492 J-0.146
G01 Y-12.0
G03 X-15.492 Y-12.146 I1.5 J0.0
G01 X-15.454 Y-12.537
G03 X-15.396 Y-12.825 I1.492 J0.146
G01 X-15.283 Y-13.201
G03 X-15.17 Y-13.472 I1.435 J0.435
G01 X-14.985 Y-13.818
G03 X-14.822 Y-14.062 I1.322 J0.707
G01 X-14.573 Y-14.365
G03 X-14.365 Y-14.573 I1.159 J0.951
G01 X-14.062 Y-14.822
G03 X-13.818 Y-14.985 I0.951 J1.159
G01 X-13.472 Y-15.17
G03 X-13.201 Y-15.283 I0.707 J1.322
G01 X-12.825 Y-15.396
G03 X-12.537 Y-15.454 I0.435 J1.435
G01 X-12.146 Y-15.492
G00 Z2.0
M05
M02
 (--------------------------------------------------)
 (CAMmill-Configuration)
 (cfg:View-Zoom: 0.480001)
 (cfg:View-Helplines: 1)
 (cfg:View-ShowGrid: 1)
 (cfg:View-ShowTool: 1)
 (cfg:View-Textures: 0)
 (cfg:View-Rotate-X: -25.000000)
 (cfg:View-Rotate-Y: 0.000000)
 (cfg:View-Rotate-Z: -6.800000)
 (cfg:View-Translate-X: -22)
 (cfg:View-Translate-Y: -2)
 (cfg:View-Grid-Size: 10.000000)
 (cfg:View-Arrow-Scale: 1.000000)
 (cfg:Tool-Select: -1)
 (cfg:Tool-Number: 1)
 (cfg:Tool-Diameter: 3.000000)
 (cfg:Tool-Speed: 12000)
 (cfg:Tool-Coolant: 0)
 (cfg:Tool-Kepp spinning: 1)
 (cfg:Milling-FeedRate: 1000)
 (cfg:Milling-PlungeRate: 100)
 (cfg:Milling-Depth: -6.300000)
 (cfg:Milling-Z-Step: -2.000000)
 (cfg:Milling-Save-Move: 2.000000)
 (cfg:Milling-Overcut: 0)
 (cfg:Milling-Lasermode: 0)
 (cfg:Milling-Climb: 0)
 (cfg:Milling-NoOffsets: 0)
 (cfg:Milling-Helix: 1)
 (cfg:Milling-Velocity-Mode: 0)
 (cfg:Milling-Blending Tolerance: 0.050000)
 (cfg:Milling-DXF-File: /home/tim/3d/tim-open-things/mill-highpowerledbracket/bracket-insert.dxf)
 (cfg:Milling-Output-File: /home/tim/3d/tim-open-things/mill-highpowerledbracket/bracket2b.ngc)
 (cfg:Pockets-Pocket: 1)
 (cfg:Pockets-Pocket-Stepover: 50)
 (cfg:Holding-Tabs-Activate: 1)
 (cfg:Holding-Tabs-Show Grid: 1)
 (cfg:Holding-Tabs-Depth: -5.000000)
 (cfg:Holding-Tabs-Length: 5.000000)
 (cfg:Holding-Tabs-Triangle-Type: 0)
 (cfg:Holding-Tabs-On Open: 0)
 (cfg:Holding-Tabs-On Inside: 0)
 (cfg:Holding-Tabs-On Outside: 1)
 (cfg:Holding-Tabs-X-Grid: 50.000000)
 (cfg:Holding-Tabs-Y-Grid: 50.000000)
 (cfg:Text-Mill Text: 0)
 (cfg:Text-Mill-Depth: -0.500000)
 (cfg:Text-Fixed-W: 1)
 (cfg:Text-Scale-W: 1.000000)
 (cfg:Text-Scale-H: 1.000000)
 (cfg:Text-Font: 0)
 (cfg:Text-Overwrite: 0)
 (cfg:Text-Tool-Number: 1)
 (cfg:Text-Tool-Diameter: 3.000000)
 (cfg:Text-Tool-Speed: 12000)
 (cfg:Machine-Fastmove-Speed: 2000)
 (cfg:Machine-Spindle-Delay: 1.000000)
 (cfg:Machine-Fast-Z: 1.000000)
 (cfg:Machine-Post: 0)
 (cfg:Machine-Post-Command: )
 (cfg:Calculation-Tool-Flutes: 2)
 (cfg:Calculation-Select: 8)
 (cfg:Calculation-Cutting Speed: 2000)
 (cfg:Calculation-Feed/Tooth@<4mm: 0.040000)
 (cfg:Calculation-Feed/Tooth@<8mm: 0.080000)
 (cfg:Calculation-Feed/Tooth@<12mm: 0.100000)
 (cfg:Calculation-CalcSpeed: 212206)
 (cfg:Calculation-MaxFeedRate: 960)
 (cfg:Objects-Select: 1)
 (cfg:Objects-Use: 1)
 (cfg:Objects-Overwrite: 1)
 (cfg:Objects-Climb: 0)
 (cfg:Objects-Offset: 1)
 (cfg:Objects-Overcut: 0)
 (cfg:Objects-Pocket: 0)
 (cfg:Objects-Helix: 0)
 (cfg:Objects-Laser: 0)
 (cfg:Objects-Depth: -6.300000)
 (cfg:Objects-Holding-Tab's: 1)
 (cfg:Objects-Order: 5)
 (cfg:Objects-Tool-Number: 1)
 (cfg:Objects-Tool-Diameter: 3.000000)
 (cfg:Objects-Tool-Speed: 12000)
 (cfg:Rotary-Activate: 0)
 (cfg:Rotary-Axis: 0)
 (cfg:Rotary-Diameter: 100.000000)
 (cfg:Tangencial-Activate: 0)
 (cfg:Tangencial-Axis: 1)
 (cfg:Tangencial-MaxAngle: 10.000000)
 (cfg:Window-X-Position: 0)
 (cfg:Window-Y-Position: 55)
 (cfg:Window-Width: 3246)
 (cfg:Window-Height: 1565)
 (cfg:Window-Maximized: 0)
 (cfg:Misc-Unit: 1)
 (cfg:Misc-Tolerance: 0.001000)
 (cfg:Misc-Tool-Table: )
 (cfg:Misc-Parameter: 0)
 (cfg:Misc-Setup-Autosave: 1)
 (cfg:Misc-Batchmode: 0)
 (cfg:Misc-LoadPath: /home/tim/3d/tim-open-things/mill-highpowerledbracket)
 (cfg:Misc-SavePath: /home/tim/3d/tim-open-things/mill-highpowerledbracket)
 (cfg:Misc-PresetPath: /home/tim)
 (cfg:Misc-Delete Double Lines: 1)
 (cfg:Misc-Zero: 1)
 (cfg:Misc-Zero-Offset-X: 0.000000)
 (cfg:Misc-Zero-Offset-Y: 0.000000)
 (cfg:Misc-Append Config: 1)
 (cfg:Misc-Texture: ../share/cammill/textures/wood.bmp)
 (cfg:Misc-NC-Debug: 0)
 (--------------------------------------------------)
