 ( CAMmill GRBL Postprocessor )
 ( Ver: 20150830 - by onekk )
 ( GRBL Support only G61 mode )
 ( Version < 0.9i build 20150529 )
 ( must delete the G61 from this file )
 ( otherwise it raise an error )
G21 (Metric/mm)
G40 (No Offsets)
G90 (Absolute-Mode)
G61
F100
 (--------------------------------------------------)
 (Object: #6)
 (Layer: 0)
 (Overcut: 0)
 (Depth: -6.300000)
 (Offset: Outside)
 (Tool-Num: 1)
 (Tool-Diameter: 3.00)
 (Tool-Speed: 12000)
 (--------------------------------------------------)
G00 X26.111 Y26.111 Z2.0
G00 X60.426 Y60.634
G00 Z1.0
G01 Z-2.0
G03 X60.634 Y60.426 I1.159 J0.951 F1000
G01 X60.937 Y60.177
G03 X61.181 Y60.014 I0.951 J1.159
G01 X61.527 Y59.829
G03 X61.798 Y59.716 I0.707 J1.322
G01 X62.174 Y59.603
G03 X62.462 Y59.545 I0.435 J1.435
G01 X62.853 Y59.507
G03 X63.0 Y59.5 I0.146 J1.492
G01 X87.0
G03 X87.146 Y59.507 I0.0 J1.5
G01 X87.537 Y59.545
G03 X87.825 Y59.603 I-0.146 J1.492
G01 X88.201 Y59.716
G03 X88.472 Y59.829 I-0.435 J1.435
G01 X88.818 Y60.014
G03 X89.062 Y60.177 I-0.707 J1.322
G01 X89.365 Y60.426
G03 X89.573 Y60.634 I-0.951 J1.159
G01 X89.822 Y60.937
G03 X89.985 Y61.181 I-1.159 J0.951
G01 X90.17 Y61.527
G03 X90.283 Y61.798 I-1.322 J0.707
G01 X90.396 Y62.174
G03 X90.454 Y62.462 I-1.435 J0.435
G01 X90.492 Y62.853
G03 X90.5 Y63.0 I-1.492 J0.146
G01 Y87.0
G03 X90.492 Y87.146 I-1.5 J0.0
G01 X90.454 Y87.537
G03 X90.396 Y87.825 I-1.492 J-0.146
G01 X90.283 Y88.201
G03 X90.17 Y88.472 I-1.435 J-0.435
G01 X89.985 Y88.818
G03 X89.822 Y89.062 I-1.322 J-0.707
G01 X89.573 Y89.365
G03 X89.365 Y89.573 I-1.159 J-0.951
G01 X89.062 Y89.822
G03 X88.818 Y89.985 I-0.951 J-1.159
G01 X88.472 Y90.17
G03 X88.201 Y90.283 I-0.707 J-1.322
G01 X87.825 Y90.396
G03 X87.537 Y90.454 I-0.435 J-1.435
G01 X87.146 Y90.492
G03 X87.0 Y90.5 I-0.146 J-1.492
G01 X63.0
G03 X62.853 Y90.492 I-0.0 J-1.5
G01 X62.462 Y90.454
G03 X62.174 Y90.396 I0.146 J-1.492
G01 X61.798 Y90.283
G03 X61.527 Y90.17 I0.435 J-1.435
G01 X61.181 Y89.985
G03 X60.937 Y89.822 I0.707 J-1.322
G01 X60.634 Y89.573
G03 X60.426 Y89.365 I0.951 J-1.159
G01 X60.177 Y89.062
G03 X60.014 Y88.818 I1.159 J-0.951
G01 X59.829 Y88.472
G03 X59.716 Y88.201 I1.322 J-0.707
G01 X59.603 Y87.825
G03 X59.545 Y87.537 I1.435 J-0.435
G01 X59.507 Y87.146
G03 X59.5 Y87.0 I1.492 J-0.146
G01 Y63.0
G03 X59.507 Y62.853 I1.5 J0.0
G01 X59.545 Y62.462
G03 X59.603 Y62.174 I1.492 J0.146
G01 X59.716 Y61.798
G03 X59.829 Y61.527 I1.435 J0.435
G01 X60.014 Y61.181
G03 X60.177 Y60.937 I1.322 J0.707
G01 X60.426 Y60.634
G01 Z-4.0 F100
G03 X60.634 Y60.426 I1.159 J0.951 F1000
G01 X60.937 Y60.177
G03 X61.181 Y60.014 I0.951 J1.159
G01 X61.527 Y59.829
G03 X61.798 Y59.716 I0.707 J1.322
G01 X62.174 Y59.603
G03 X62.462 Y59.545 I0.435 J1.435
G01 X62.853 Y59.507
G03 X63.0 Y59.5 I0.146 J1.492
G01 X87.0
G03 X87.146 Y59.507 I0.0 J1.5
G01 X87.537 Y59.545
G03 X87.825 Y59.603 I-0.146 J1.492
G01 X88.201 Y59.716
G03 X88.472 Y59.829 I-0.435 J1.435
G01 X88.818 Y60.014
G03 X89.062 Y60.177 I-0.707 J1.322
G01 X89.365 Y60.426
G03 X89.573 Y60.634 I-0.951 J1.159
G01 X89.822 Y60.937
G03 X89.985 Y61.181 I-1.159 J0.951
G01 X90.17 Y61.527
G03 X90.283 Y61.798 I-1.322 J0.707
G01 X90.396 Y62.174
G03 X90.454 Y62.462 I-1.435 J0.435
G01 X90.492 Y62.853
G03 X90.5 Y63.0 I-1.492 J0.146
G01 Y87.0
G03 X90.492 Y87.146 I-1.5 J0.0
G01 X90.454 Y87.537
G03 X90.396 Y87.825 I-1.492 J-0.146
G01 X90.283 Y88.201
G03 X90.17 Y88.472 I-1.435 J-0.435
G01 X89.985 Y88.818
G03 X89.822 Y89.062 I-1.322 J-0.707
G01 X89.573 Y89.365
G03 X89.365 Y89.573 I-1.159 J-0.951
G01 X89.062 Y89.822
G03 X88.818 Y89.985 I-0.951 J-1.159
G01 X88.472 Y90.17
G03 X88.201 Y90.283 I-0.707 J-1.322
G01 X87.825 Y90.396
G03 X87.537 Y90.454 I-0.435 J-1.435
G01 X87.146 Y90.492
G03 X87.0 Y90.5 I-0.146 J-1.492
G01 X63.0
G03 X62.853 Y90.492 I-0.0 J-1.5
G01 X62.462 Y90.454
G03 X62.174 Y90.396 I0.146 J-1.492
G01 X61.798 Y90.283
G03 X61.527 Y90.17 I0.435 J-1.435
G01 X61.181 Y89.985
G03 X60.937 Y89.822 I0.707 J-1.322
G01 X60.634 Y89.573
G03 X60.426 Y89.365 I0.951 J-1.159
G01 X60.177 Y89.062
G03 X60.014 Y88.818 I1.159 J-0.951
G01 X59.829 Y88.472
G03 X59.716 Y88.201 I1.322 J-0.707
G01 X59.603 Y87.825
G03 X59.545 Y87.537 I1.435 J-0.435
G01 X59.507 Y87.146
G03 X59.5 Y87.0 I1.492 J-0.146
G01 Y63.0
G03 X59.507 Y62.853 I1.5 J0.0
G01 X59.545 Y62.462
G03 X59.603 Y62.174 I1.492 J0.146
G01 X59.716 Y61.798
G03 X59.829 Y61.527 I1.435 J0.435
G01 X60.014 Y61.181
G03 X60.177 Y60.937 I1.322 J0.707
G01 X60.426 Y60.634
G01 Z-6.0 F100
G03 X60.634 Y60.426 I1.159 J0.951 F1000
G01 X60.937 Y60.177
G03 X61.181 Y60.014 I0.951 J1.159
G01 X61.527 Y59.829
G03 X61.798 Y59.716 I0.707 J1.322
G01 X62.174 Y59.603
G03 X62.462 Y59.545 I0.435 J1.435
G01 X62.853 Y59.507
G03 X63.0 Y59.5 I0.146 J1.492
G01 X71.0
G01 Z-5.0
G01 X79.0
G01 Z-6.0
G01 X87.0
G03 X87.146 Y59.507 I0.0 J1.5
G01 X87.537 Y59.545
G03 X87.825 Y59.603 I-0.146 J1.492
G01 X88.201 Y59.716
G03 X88.472 Y59.829 I-0.435 J1.435
G01 X88.818 Y60.014
G03 X89.062 Y60.177 I-0.707 J1.322
G01 X89.365 Y60.426
G03 X89.573 Y60.634 I-0.951 J1.159
G01 X89.822 Y60.937
G03 X89.985 Y61.181 I-1.159 J0.951
G01 X90.17 Y61.527
G03 X90.283 Y61.798 I-1.322 J0.707
G01 X90.396 Y62.174
G03 X90.454 Y62.462 I-1.435 J0.435
G01 X90.492 Y62.853
G03 X90.5 Y63.0 I-1.492 J0.146
G01 Y71.0
G01 Z-5.0
G01 Y79.0
G01 Z-6.0
G01 Y87.0
G03 X90.492 Y87.146 I-1.5 J0.0
G01 X90.454 Y87.537
G03 X90.396 Y87.825 I-1.492 J-0.146
G01 X90.283 Y88.201
G03 X90.17 Y88.472 I-1.435 J-0.435
G01 X89.985 Y88.818
G03 X89.822 Y89.062 I-1.322 J-0.707
G01 X89.573 Y89.365
G03 X89.365 Y89.573 I-1.159 J-0.951
G01 X89.062 Y89.822
G03 X88.818 Y89.985 I-0.951 J-1.159
G01 X88.472 Y90.17
G03 X88.201 Y90.283 I-0.707 J-1.322
G01 X87.825 Y90.396
G03 X87.537 Y90.454 I-0.435 J-1.435
G01 X87.146 Y90.492
G03 X87.0 Y90.5 I-0.146 J-1.492
G01 X79.0
G01 Z-5.0
G01 X71.0
G01 Z-6.0
G01 X63.0
G03 X62.853 Y90.492 I-0.0 J-1.5
G01 X62.462 Y90.454
G03 X62.174 Y90.396 I0.146 J-1.492
G01 X61.798 Y90.283
G03 X61.527 Y90.17 I0.435 J-1.435
G01 X61.181 Y89.985
G03 X60.937 Y89.822 I0.707 J-1.322
G01 X60.634 Y89.573
G03 X60.426 Y89.365 I0.951 J-1.159
G01 X60.177 Y89.062
G03 X60.014 Y88.818 I1.159 J-0.951
G01 X59.829 Y88.472
G03 X59.716 Y88.201 I1.322 J-0.707
G01 X59.603 Y87.825
G03 X59.545 Y87.537 I1.435 J-0.435
G01 X59.507 Y87.146
G03 X59.5 Y87.0 I1.492 J-0.146
G01 Y79.0
G01 Z-5.0
G01 Y71.0
G01 Z-6.0
G01 Y63.0
G03 X59.507 Y62.853 I1.5 J0.0
G01 X59.545 Y62.462
G03 X59.603 Y62.174 I1.492 J0.146
G01 X59.716 Y61.798
G03 X59.829 Y61.527 I1.435 J0.435
G01 X60.014 Y61.181
G03 X60.177 Y60.937 I1.322 J0.707
G01 X60.426 Y60.634
G01 Z-6.3 F100
G03 X60.634 Y60.426 I1.159 J0.951 F1000
G01 X60.937 Y60.177
G03 X61.181 Y60.014 I0.951 J1.159
G01 X61.527 Y59.829
G03 X61.798 Y59.716 I0.707 J1.322
G01 X62.174 Y59.603
G03 X62.462 Y59.545 I0.435 J1.435
G01 X62.853 Y59.507
G03 X63.0 Y59.5 I0.146 J1.492
G01 X71.0
G01 Z-5.0
G01 X79.0
G01 Z-6.3
G01 X87.0
G03 X87.146 Y59.507 I0.0 J1.5
G01 X87.537 Y59.545
G03 X87.825 Y59.603 I-0.146 J1.492
G01 X88.201 Y59.716
G03 X88.472 Y59.829 I-0.435 J1.435
G01 X88.818 Y60.014
G03 X89.062 Y60.177 I-0.707 J1.322
G01 X89.365 Y60.426
G03 X89.573 Y60.634 I-0.951 J1.159
G01 X89.822 Y60.937
G03 X89.985 Y61.181 I-1.159 J0.951
G01 X90.17 Y61.527
G03 X90.283 Y61.798 I-1.322 J0.707
G01 X90.396 Y62.174
G03 X90.454 Y62.462 I-1.435 J0.435
G01 X90.492 Y62.853
G03 X90.5 Y63.0 I-1.492 J0.146
G01 Y71.0
G01 Z-5.0
G01 Y79.0
G01 Z-6.3
G01 Y87.0
G03 X90.492 Y87.146 I-1.5 J0.0
G01 X90.454 Y87.537
G03 X90.396 Y87.825 I-1.492 J-0.146
G01 X90.283 Y88.201
G03 X90.17 Y88.472 I-1.435 J-0.435
G01 X89.985 Y88.818
G03 X89.822 Y89.062 I-1.322 J-0.707
G01 X89.573 Y89.365
G03 X89.365 Y89.573 I-1.159 J-0.951
G01 X89.062 Y89.822
G03 X88.818 Y89.985 I-0.951 J-1.159
G01 X88.472 Y90.17
G03 X88.201 Y90.283 I-0.707 J-1.322
G01 X87.825 Y90.396
G03 X87.537 Y90.454 I-0.435 J-1.435
G01 X87.146 Y90.492
G03 X87.0 Y90.5 I-0.146 J-1.492
G01 X79.0
G01 Z-5.0
G01 X71.0
G01 Z-6.3
G01 X63.0
G03 X62.853 Y90.492 I-0.0 J-1.5
G01 X62.462 Y90.454
G03 X62.174 Y90.396 I0.146 J-1.492
G01 X61.798 Y90.283
G03 X61.527 Y90.17 I0.435 J-1.435
G01 X61.181 Y89.985
G03 X60.937 Y89.822 I0.707 J-1.322
G01 X60.634 Y89.573
G03 X60.426 Y89.365 I0.951 J-1.159
G01 X60.177 Y89.062
G03 X60.014 Y88.818 I1.159 J-0.951
G01 X59.829 Y88.472
G03 X59.716 Y88.201 I1.322 J-0.707
G01 X59.603 Y87.825
G03 X59.545 Y87.537 I1.435 J-0.435
G01 X59.507 Y87.146
G03 X59.5 Y87.0 I1.492 J-0.146
G01 Y79.0
G01 Z-5.0
G01 Y71.0
G01 Z-6.3
G01 Y63.0
G03 X59.507 Y62.853 I1.5 J0.0
G01 X59.545 Y62.462
G03 X59.603 Y62.174 I1.492 J0.146
G01 X59.716 Y61.798
G03 X59.829 Y61.527 I1.435 J0.435
G01 X60.014 Y61.181
G03 X60.177 Y60.937 I1.322 J0.707
G01 X60.426 Y60.634
G00 Z2.0
 (--------------------------------------------------)
 (Object: #5)
 (Layer: 0)
 (Pocket-Operation)
 (--------------------------------------------------)
G01 X59.5 Y61.0
G01 X57.25
G01 Y59.5
G01 X61.0
G00
G00 X57.25 Y58.0
G00 Z1.0
G01 Z-0.5 F100
G01 X92.5 F1000
G01 Y59.5
G01 X89.5
G01 X91.0 Y61.0
G01 X92.5
G01 Y62.5
G01 X91.0
G01 Y64.0
G01 X92.5
G01 Y65.5
G01 X91.0
G01 Y67.0
G01 X92.5
G01 Y68.5
G01 X91.0
G01 Y70.0
G01 X92.5
G01 Y71.5
G01 X91.0
G01 Y73.0
G01 X92.5
G01 Y74.5
G01 X91.0
G01 Y76.0
G01 X92.5
G01 Y77.5
G01 X91.0
G01 Y79.0
G01 X92.5
G01 Y80.5
G01 X91.0
G01 Y82.0
G01 X92.5
G01 Y83.5
G01 X91.0
G01 Y85.0
G01 X92.5
G01 Y86.5
G01 X91.0
G01 Y88.0
G01 X92.5
G01 Y89.5
G01 X90.25
G01 X92.5 Y91.0
G01 X57.25
G01 Y89.5
G01 X59.5
G01 X58.75 Y88.0
G01 X57.25
G01 Y86.5
G01 X58.75
G01 Y85.0
G01 X57.25
G01 Y83.5
G01 X58.75
G01 Y82.0
G01 X57.25
G01 Y80.5
G01 X58.75
G01 Y79.0
G01 X57.25
G01 Y77.5
G01 X58.75
G01 Y76.0
G01 X57.25
G01 Y74.5
G01 X58.75
G01 Y73.0
G01 X57.25
G01 Y71.5
G01 X58.75
G01 Y70.0
G01 X57.25
G01 Y68.5
G01 X58.75
G01 Y67.0
G01 X57.25
G01 Y65.5
G01 X58.75
G01 Y64.0
G01 X57.25
G01 Y62.5
G01 X58.75
G00 Z2.0
G00 X57.25 Y92.5
G00 Z1.0
G01 Z-0.5 F100
G01 X92.5 F1000
 (--------------------------------------------------)
 (Object: #5)
 (Layer: 0)
 (Overcut: 1)
 (Depth: -0.500000)
 (Offset: Inside)
 (Tool-Num: 1)
 (Tool-Diameter: 3.00)
 (Tool-Speed: 12000)
 (--------------------------------------------------)

G00 Z2.0
G00 X56.5 Y57.073
G00 Z1.0
G01 Z-0.5 F100
G01 X56.498 Y57.073 F1000
G01 X56.5 Y57.073
G01 Y92.926
G01 X56.498 Y92.926
G01 X56.5 Y92.926
G01 X56.516 Y93.096
G01 X56.509 Y93.097
G01 X56.516 Y93.096
G01 X56.544 Y93.188
G01 X56.538 Y93.191
G01 X56.544 Y93.188
G01 X56.59 Y93.273
G01 X56.584 Y93.277
G01 X56.59 Y93.273
G01 X56.651 Y93.348
G01 X56.646 Y93.353
G01 X56.651 Y93.348
G01 X56.726 Y93.409
G01 X56.722 Y93.415
G01 X56.726 Y93.409
G01 X56.811 Y93.455
G01 X56.808 Y93.461
G01 X56.811 Y93.455
G01 X56.903 Y93.483
G01 X56.902 Y93.49
G01 X56.903 Y93.483
G01 X57.073 Y93.5
G01 X57.073 Y93.501
G01 X57.073 Y93.5
G01 X92.926
G01 X92.926 Y93.501
G01 X92.926 Y93.5
G01 X93.096 Y93.483
G01 X93.097 Y93.49
G01 X93.096 Y93.483
G01 X93.188 Y93.455
G01 X93.191 Y93.461
G01 X93.188 Y93.455
G01 X93.273 Y93.409
G01 X93.277 Y93.415
G01 X93.273 Y93.409
G01 X93.348 Y93.348
G01 X93.353 Y93.353
G01 X93.348 Y93.348
G01 X93.409 Y93.273
G01 X93.415 Y93.277
G01 X93.409 Y93.273
G01 X93.455 Y93.188
G01 X93.461 Y93.191
G01 X93.455 Y93.188
G01 X93.483 Y93.096
G01 X93.49 Y93.097
G01 X93.483 Y93.096
G01 X93.5 Y92.926
G01 X93.501 Y92.926
G01 X93.5 Y92.926
G01 Y57.073
G01 X93.501 Y57.073
G01 X93.5 Y57.073
G01 X93.483 Y56.903
G01 X93.49 Y56.902
G01 X93.483 Y56.903
G01 X93.455 Y56.811
G01 X93.461 Y56.808
G01 X93.455 Y56.811
G01 X93.409 Y56.726
G01 X93.415 Y56.722
G01 X93.409 Y56.726
G01 X93.348 Y56.651
G01 X93.353 Y56.646
G01 X93.348 Y56.651
G01 X93.273 Y56.59
G01 X93.277 Y56.584
G01 X93.273 Y56.59
G01 X93.188 Y56.544
G01 X93.191 Y56.538
G01 X93.188 Y56.544
G01 X93.096 Y56.516
G01 X93.097 Y56.509
G01 X93.096 Y56.516
G01 X92.926 Y56.5
G01 X92.926 Y56.498
G01 X92.926 Y56.5
G01 X57.073
G01 X57.073 Y56.498
G01 X57.073 Y56.5
G01 X56.903 Y56.516
G01 X56.902 Y56.509
G01 X56.903 Y56.516
G01 X56.811 Y56.544
G01 X56.808 Y56.538
G01 X56.811 Y56.544
G01 X56.726 Y56.59
G01 X56.722 Y56.584
G01 X56.726 Y56.59
G01 X56.651 Y56.651
G01 X56.646 Y56.646
G01 X56.651 Y56.651
G01 X56.59 Y56.726
G01 X56.584 Y56.722
G01 X56.59 Y56.726
G01 X56.544 Y56.811
G01 X56.538 Y56.808
G01 X56.544 Y56.811
G01 X56.516 Y56.903
G01 X56.509 Y56.902
G01 X56.516 Y56.903
G01 X56.5 Y57.073
G00 Z2.0
 (--------------------------------------------------)
 (Object: #8)
 (Layer: 0)
 (Pocket-Operation)
 (--------------------------------------------------)
 (--------------------------------------------------)
 (Object: #8)
 (Layer: 0)
 (Overcut: 0)
 (Depth: -6.300000)
 (Offset: Inside)
 (Tool-Num: 1)
 (Tool-Diameter: 3.00)
 (Tool-Speed: 12000)
 (--------------------------------------------------)

G00
G00 X33.077 Y39.051
G00 Z1.0
G01 Z-2.0 F100
G01 X33.085 Y39.035 F1000
G01 X33.09 Y39.018
G01 X33.092 Y39.0
G01 X33.09 Y38.981
G01 X33.085 Y38.964
G01 X33.077 Y38.948
G01 X33.065 Y38.934
G01 X33.051 Y38.922
G01 X33.035 Y38.914
G01 X33.018 Y38.909
G01 X33.0 Y38.907
G01 X32.981 Y38.909
G01 X32.964 Y38.914
G01 X32.948 Y38.922
G01 X32.934 Y38.934
G01 X32.922 Y38.948
G01 X32.914 Y38.964
G01 X32.909 Y38.981
G01 X32.907 Y39.0
G01 X32.909 Y39.018
G01 X32.914 Y39.035
G01 X32.922 Y39.051
G01 X32.934 Y39.065
G01 X32.948 Y39.077
G01 X32.964 Y39.085
G01 X32.981 Y39.09
G01 X33.0 Y39.092
G01 X33.018 Y39.09
G01 X33.035 Y39.085
G01 X33.051 Y39.077
G01 X33.065 Y39.065
G01 X33.077 Y39.051
G01 Z-4.0 F100
G01 X33.085 Y39.035 F1000
G01 X33.09 Y39.018
G01 X33.092 Y39.0
G01 X33.09 Y38.981
G01 X33.085 Y38.964
G01 X33.077 Y38.948
G01 X33.065 Y38.934
G01 X33.051 Y38.922
G01 X33.035 Y38.914
G01 X33.018 Y38.909
G01 X33.0 Y38.907
G01 X32.981 Y38.909
G01 X32.964 Y38.914
G01 X32.948 Y38.922
G01 X32.934 Y38.934
G01 X32.922 Y38.948
G01 X32.914 Y38.964
G01 X32.909 Y38.981
G01 X32.907 Y39.0
G01 X32.909 Y39.018
G01 X32.914 Y39.035
G01 X32.922 Y39.051
G01 X32.934 Y39.065
G01 X32.948 Y39.077
G01 X32.964 Y39.085
G01 X32.981 Y39.09
G01 X33.0 Y39.092
G01 X33.018 Y39.09
G01 X33.035 Y39.085
G01 X33.051 Y39.077
G01 X33.065 Y39.065
G01 X33.077 Y39.051
G01 Z-6.0 F100
G01 X33.085 Y39.035 F1000
G01 X33.09 Y39.018
G01 X33.092 Y39.0
G01 X33.09 Y38.981
G01 X33.085 Y38.964
G01 X33.077 Y38.948
G01 X33.065 Y38.934
G01 X33.051 Y38.922
G01 X33.035 Y38.914
G01 X33.018 Y38.909
G01 X33.0 Y38.907
G01 X32.981 Y38.909
G01 X32.964 Y38.914
G01 X32.948 Y38.922
G01 X32.934 Y38.934
G01 X32.922 Y38.948
G01 X32.914 Y38.964
G01 X32.909 Y38.981
G01 X32.907 Y39.0
G01 X32.909 Y39.018
G01 X32.914 Y39.035
G01 X32.922 Y39.051
G01 X32.934 Y39.065
G01 X32.948 Y39.077
G01 X32.964 Y39.085
G01 X32.981 Y39.09
G01 X33.0 Y39.092
G01 X33.018 Y39.09
G01 X33.035 Y39.085
G01 X33.051 Y39.077
G01 X33.065 Y39.065
G01 X33.077 Y39.051
G01 Z-6.3 F100
G01 X33.085 Y39.035 F1000
G01 X33.09 Y39.018
G01 X33.092 Y39.0
G01 X33.09 Y38.981
G01 X33.085 Y38.964
G01 X33.077 Y38.948
G01 X33.065 Y38.934
G01 X33.051 Y38.922
G01 X33.035 Y38.914
G01 X33.018 Y38.909
G01 X33.0 Y38.907
G01 X32.981 Y38.909
G01 X32.964 Y38.914
G01 X32.948 Y38.922
G01 X32.934 Y38.934
G01 X32.922 Y38.948
G01 X32.914 Y38.964
G01 X32.909 Y38.981
G01 X32.907 Y39.0
G01 X32.909 Y39.018
G01 X32.914 Y39.035
G01 X32.922 Y39.051
G01 X32.934 Y39.065
G01 X32.948 Y39.077
G01 X32.964 Y39.085
G01 X32.981 Y39.09
G01 X33.0 Y39.092
G01 X33.018 Y39.09
G01 X33.035 Y39.085
G01 X33.051 Y39.077
G01 X33.065 Y39.065
G01 X33.077 Y39.051
G00 Z2.0
 (--------------------------------------------------)
 (Object: #10)
 (Layer: 0)
 (Pocket-Operation)
 (--------------------------------------------------)
 (--------------------------------------------------)
 (Object: #10)
 (Layer: 0)
 (Overcut: 0)
 (Depth: -6.300000)
 (Offset: Inside)
 (Tool-Num: 1)
 (Tool-Diameter: 3.00)
 (Tool-Speed: 12000)
 (--------------------------------------------------)

G00
G00 X33.0 Y33.992
G00 Z1.0
G01 Z-2.0 F100
G01 X33.193 Y33.973 F1000
G01 X33.379 Y33.917
G01 X33.551 Y33.825
G01 X33.701 Y33.701
G01 X33.825 Y33.551
G01 X33.917 Y33.379
G01 X33.973 Y33.193
G01 X33.992 Y33.0
G01 X33.973 Y32.806
G01 X33.917 Y32.62
G01 X33.825 Y32.448
G01 X33.701 Y32.298
G01 X33.551 Y32.174
G01 X33.379 Y32.082
G01 X33.193 Y32.026
G01 X33.0 Y32.007
G01 X32.806 Y32.026
G01 X32.62 Y32.082
G01 X32.448 Y32.174
G01 X32.298 Y32.298
G01 X32.174 Y32.448
G01 X32.082 Y32.62
G01 X32.026 Y32.806
G01 X32.007 Y33.0
G01 X32.026 Y33.193
G01 X32.082 Y33.379
G01 X32.174 Y33.551
G01 X32.298 Y33.701
G01 X32.448 Y33.825
G01 X32.62 Y33.917
G01 X32.806 Y33.973
G01 X33.0 Y33.992
G01 Z-4.0 F100
G01 X33.193 Y33.973 F1000
G01 X33.379 Y33.917
G01 X33.551 Y33.825
G01 X33.701 Y33.701
G01 X33.825 Y33.551
G01 X33.917 Y33.379
G01 X33.973 Y33.193
G01 X33.992 Y33.0
G01 X33.973 Y32.806
G01 X33.917 Y32.62
G01 X33.825 Y32.448
G01 X33.701 Y32.298
G01 X33.551 Y32.174
G01 X33.379 Y32.082
G01 X33.193 Y32.026
G01 X33.0 Y32.007
G01 X32.806 Y32.026
G01 X32.62 Y32.082
G01 X32.448 Y32.174
G01 X32.298 Y32.298
G01 X32.174 Y32.448
G01 X32.082 Y32.62
G01 X32.026 Y32.806
G01 X32.007 Y33.0
G01 X32.026 Y33.193
G01 X32.082 Y33.379
G01 X32.174 Y33.551
G01 X32.298 Y33.701
G01 X32.448 Y33.825
G01 X32.62 Y33.917
G01 X32.806 Y33.973
G01 X33.0 Y33.992
G01 Z-6.0 F100
G01 X33.193 Y33.973 F1000
G01 X33.379 Y33.917
G01 X33.551 Y33.825
G01 X33.701 Y33.701
G01 X33.825 Y33.551
G01 X33.917 Y33.379
G01 X33.973 Y33.193
G01 X33.992 Y33.0
G01 X33.973 Y32.806
G01 X33.917 Y32.62
G01 X33.825 Y32.448
G01 X33.701 Y32.298
G01 X33.551 Y32.174
G01 X33.379 Y32.082
G01 X33.193 Y32.026
G01 X33.0 Y32.007
G01 X32.806 Y32.026
G01 X32.62 Y32.082
G01 X32.448 Y32.174
G01 X32.298 Y32.298
G01 X32.174 Y32.448
G01 X32.082 Y32.62
G01 X32.026 Y32.806
G01 X32.007 Y33.0
G01 X32.026 Y33.193
G01 X32.082 Y33.379
G01 X32.174 Y33.551
G01 X32.298 Y33.701
G01 X32.448 Y33.825
G01 X32.62 Y33.917
G01 X32.806 Y33.973
G01 X33.0 Y33.992
G01 Z-6.3 F100
G01 X33.193 Y33.973 F1000
G01 X33.379 Y33.917
G01 X33.551 Y33.825
G01 X33.701 Y33.701
G01 X33.825 Y33.551
G01 X33.917 Y33.379
G01 X33.973 Y33.193
G01 X33.992 Y33.0
G01 X33.973 Y32.806
G01 X33.917 Y32.62
G01 X33.825 Y32.448
G01 X33.701 Y32.298
G01 X33.551 Y32.174
G01 X33.379 Y32.082
G01 X33.193 Y32.026
G01 X33.0 Y32.007
G01 X32.806 Y32.026
G01 X32.62 Y32.082
G01 X32.448 Y32.174
G01 X32.298 Y32.298
G01 X32.174 Y32.448
G01 X32.082 Y32.62
G01 X32.026 Y32.806
G01 X32.007 Y33.0
G01 X32.026 Y33.193
G01 X32.082 Y33.379
G01 X32.174 Y33.551
G01 X32.298 Y33.701
G01 X32.448 Y33.825
G01 X32.62 Y33.917
G01 X32.806 Y33.973
G01 X33.0 Y33.992
G00 Z2.0
 (--------------------------------------------------)
 (Object: #4)
 (Layer: 0)
 (Pocket-Operation)
 (--------------------------------------------------)
 (--------------------------------------------------)
 (Object: #4)
 (Layer: 0)
 (Overcut: 0)
 (Depth: -6.300000)
 (Offset: Inside)
 (Tool-Num: 1)
 (Tool-Diameter: 3.00)
 (Tool-Speed: 12000)
 (--------------------------------------------------)

G00
G00 Y110.907
G00 Z1.0
G01 Z-2.0 F100
G01 X32.982 Y110.909 F1000
G01 X32.964 Y110.914
G01 X32.948 Y110.923
G01 X32.933 Y110.935
G01 X32.922 Y110.948
G01 X32.914 Y110.964
G01 X32.909 Y110.982
G01 X32.907 Y111.0
G01 X32.909 Y111.017
G01 X32.914 Y111.035
G01 X32.922 Y111.051
G01 X32.933 Y111.064
G01 X32.948 Y111.076
G01 X32.964 Y111.085
G01 X32.982 Y111.09
G01 X33.0 Y111.092
G01 X33.017 Y111.09
G01 X33.035 Y111.085
G01 X33.051 Y111.076
G01 X33.066 Y111.064
G01 X33.077 Y111.051
G01 X33.085 Y111.035
G01 X33.091 Y111.017
G01 X33.092 Y111.0
G01 X33.091 Y110.982
G01 X33.085 Y110.964
G01 X33.077 Y110.948
G01 X33.066 Y110.935
G01 X33.051 Y110.923
G01 X33.035 Y110.914
G01 X33.017 Y110.909
G01 X33.0 Y110.907
G01 Z-4.0 F100
G01 X32.982 Y110.909 F1000
G01 X32.964 Y110.914
G01 X32.948 Y110.923
G01 X32.933 Y110.935
G01 X32.922 Y110.948
G01 X32.914 Y110.964
G01 X32.909 Y110.982
G01 X32.907 Y111.0
G01 X32.909 Y111.017
G01 X32.914 Y111.035
G01 X32.922 Y111.051
G01 X32.933 Y111.064
G01 X32.948 Y111.076
G01 X32.964 Y111.085
G01 X32.982 Y111.09
G01 X33.0 Y111.092
G01 X33.017 Y111.09
G01 X33.035 Y111.085
G01 X33.051 Y111.076
G01 X33.066 Y111.064
G01 X33.077 Y111.051
G01 X33.085 Y111.035
G01 X33.091 Y111.017
G01 X33.092 Y111.0
G01 X33.091 Y110.982
G01 X33.085 Y110.964
G01 X33.077 Y110.948
G01 X33.066 Y110.935
G01 X33.051 Y110.923
G01 X33.035 Y110.914
G01 X33.017 Y110.909
G01 X33.0 Y110.907
G01 Z-6.0 F100
G01 X32.982 Y110.909 F1000
G01 X32.964 Y110.914
G01 X32.948 Y110.923
G01 X32.933 Y110.935
G01 X32.922 Y110.948
G01 X32.914 Y110.964
G01 X32.909 Y110.982
G01 X32.907 Y111.0
G01 X32.909 Y111.017
G01 X32.914 Y111.035
G01 X32.922 Y111.051
G01 X32.933 Y111.064
G01 X32.948 Y111.076
G01 X32.964 Y111.085
G01 X32.982 Y111.09
G01 X33.0 Y111.092
G01 X33.017 Y111.09
G01 X33.035 Y111.085
G01 X33.051 Y111.076
G01 X33.066 Y111.064
G01 X33.077 Y111.051
G01 X33.085 Y111.035
G01 X33.091 Y111.017
G01 X33.092 Y111.0
G01 X33.091 Y110.982
G01 X33.085 Y110.964
G01 X33.077 Y110.948
G01 X33.066 Y110.935
G01 X33.051 Y110.923
G01 X33.035 Y110.914
G01 X33.017 Y110.909
G01 X33.0 Y110.907
G01 Z-6.3 F100
G01 X32.982 Y110.909 F1000
G01 X32.964 Y110.914
G01 X32.948 Y110.923
G01 X32.933 Y110.935
G01 X32.922 Y110.948
G01 X32.914 Y110.964
G01 X32.909 Y110.982
G01 X32.907 Y111.0
G01 X32.909 Y111.017
G01 X32.914 Y111.035
G01 X32.922 Y111.051
G01 X32.933 Y111.064
G01 X32.948 Y111.076
G01 X32.964 Y111.085
G01 X32.982 Y111.09
G01 X33.0 Y111.092
G01 X33.017 Y111.09
G01 X33.035 Y111.085
G01 X33.051 Y111.076
G01 X33.066 Y111.064
G01 X33.077 Y111.051
G01 X33.085 Y111.035
G01 X33.091 Y111.017
G01 X33.092 Y111.0
G01 X33.091 Y110.982
G01 X33.085 Y110.964
G01 X33.077 Y110.948
G01 X33.066 Y110.935
G01 X33.051 Y110.923
G01 X33.035 Y110.914
G01 X33.017 Y110.909
G01 X33.0 Y110.907
G00 Z2.0
 (--------------------------------------------------)
 (Object: #2)
 (Layer: 0)
 (Pocket-Operation)
 (--------------------------------------------------)
 (--------------------------------------------------)
 (Object: #2)
 (Layer: 0)
 (Overcut: 0)
 (Depth: -6.300000)
 (Offset: Inside)
 (Tool-Num: 1)
 (Tool-Diameter: 3.00)
 (Tool-Speed: 12000)
 (--------------------------------------------------)

G00
G00 Y116.007
G00 Z1.0
G01 Z-2.0 F100
G01 X32.805 Y116.026 F1000
G01 X32.619 Y116.082
G01 X32.448 Y116.174
G01 X32.298 Y116.297
G01 X32.174 Y116.448
G01 X32.082 Y116.619
G01 X32.026 Y116.806
G01 X32.007 Y117.0
G01 X32.026 Y117.193
G01 X32.082 Y117.38
G01 X32.174 Y117.551
G01 X32.298 Y117.702
G01 X32.448 Y117.825
G01 X32.619 Y117.917
G01 X32.805 Y117.973
G01 X33.0 Y117.992
G01 X33.194 Y117.973
G01 X33.38 Y117.917
G01 X33.551 Y117.825
G01 X33.701 Y117.702
G01 X33.825 Y117.551
G01 X33.917 Y117.38
G01 X33.973 Y117.193
G01 X33.992 Y117.0
G01 X33.973 Y116.806
G01 X33.917 Y116.619
G01 X33.825 Y116.448
G01 X33.701 Y116.297
G01 X33.551 Y116.174
G01 X33.38 Y116.082
G01 X33.194 Y116.026
G01 X33.0 Y116.007
G01 Z-4.0 F100
G01 X32.805 Y116.026 F1000
G01 X32.619 Y116.082
G01 X32.448 Y116.174
G01 X32.298 Y116.297
G01 X32.174 Y116.448
G01 X32.082 Y116.619
G01 X32.026 Y116.806
G01 X32.007 Y117.0
G01 X32.026 Y117.193
G01 X32.082 Y117.38
G01 X32.174 Y117.551
G01 X32.298 Y117.702
G01 X32.448 Y117.825
G01 X32.619 Y117.917
G01 X32.805 Y117.973
G01 X33.0 Y117.992
G01 X33.194 Y117.973
G01 X33.38 Y117.917
G01 X33.551 Y117.825
G01 X33.701 Y117.702
G01 X33.825 Y117.551
G01 X33.917 Y117.38
G01 X33.973 Y117.193
G01 X33.992 Y117.0
G01 X33.973 Y116.806
G01 X33.917 Y116.619
G01 X33.825 Y116.448
G01 X33.701 Y116.297
G01 X33.551 Y116.174
G01 X33.38 Y116.082
G01 X33.194 Y116.026
G01 X33.0 Y116.007
G01 Z-6.0 F100
G01 X32.805 Y116.026 F1000
G01 X32.619 Y116.082
G01 X32.448 Y116.174
G01 X32.298 Y116.297
G01 X32.174 Y116.448
G01 X32.082 Y116.619
G01 X32.026 Y116.806
G01 X32.007 Y117.0
G01 X32.026 Y117.193
G01 X32.082 Y117.38
G01 X32.174 Y117.551
G01 X32.298 Y117.702
G01 X32.448 Y117.825
G01 X32.619 Y117.917
G01 X32.805 Y117.973
G01 X33.0 Y117.992
G01 X33.194 Y117.973
G01 X33.38 Y117.917
G01 X33.551 Y117.825
G01 X33.701 Y117.702
G01 X33.825 Y117.551
G01 X33.917 Y117.38
G01 X33.973 Y117.193
G01 X33.992 Y117.0
G01 X33.973 Y116.806
G01 X33.917 Y116.619
G01 X33.825 Y116.448
G01 X33.701 Y116.297
G01 X33.551 Y116.174
G01 X33.38 Y116.082
G01 X33.194 Y116.026
G01 X33.0 Y116.007
G01 Z-6.3 F100
G01 X32.805 Y116.026 F1000
G01 X32.619 Y116.082
G01 X32.448 Y116.174
G01 X32.298 Y116.297
G01 X32.174 Y116.448
G01 X32.082 Y116.619
G01 X32.026 Y116.806
G01 X32.007 Y117.0
G01 X32.026 Y117.193
G01 X32.082 Y117.38
G01 X32.174 Y117.551
G01 X32.298 Y117.702
G01 X32.448 Y117.825
G01 X32.619 Y117.917
G01 X32.805 Y117.973
G01 X33.0 Y117.992
G01 X33.194 Y117.973
G01 X33.38 Y117.917
G01 X33.551 Y117.825
G01 X33.701 Y117.702
G01 X33.825 Y117.551
G01 X33.917 Y117.38
G01 X33.973 Y117.193
G01 X33.992 Y117.0
G01 X33.973 Y116.806
G01 X33.917 Y116.619
G01 X33.825 Y116.448
G01 X33.701 Y116.297
G01 X33.551 Y116.174
G01 X33.38 Y116.082
G01 X33.194 Y116.026
G01 X33.0 Y116.007
G00 Z2.0
 (--------------------------------------------------)
 (Object: #1)
 (Layer: 0)
 (Pocket-Operation)
 (--------------------------------------------------)
 (--------------------------------------------------)
 (Object: #1)
 (Layer: 0)
 (Overcut: 0)
 (Depth: -6.300000)
 (Offset: Inside)
 (Tool-Num: 1)
 (Tool-Diameter: 3.00)
 (Tool-Speed: 12000)
 (--------------------------------------------------)

G00
G00 X116.007 Y117.0
G00 Z1.0
G01 Z-2.0 F100
G01 X116.026 Y117.194 F1000
G01 X116.082 Y117.38
G01 X116.174 Y117.551
G01 X116.297 Y117.702
G01 X116.448 Y117.825
G01 X116.619 Y117.917
G01 X116.805 Y117.973
G01 X117.0 Y117.992
G01 X117.194 Y117.973
G01 X117.38 Y117.917
G01 X117.551 Y117.825
G01 X117.702 Y117.702
G01 X117.825 Y117.551
G01 X117.917 Y117.38
G01 X117.973 Y117.194
G01 X117.992 Y117.0
G01 X117.973 Y116.805
G01 X117.917 Y116.619
G01 X117.825 Y116.448
G01 X117.702 Y116.297
G01 X117.551 Y116.174
G01 X117.38 Y116.082
G01 X117.194 Y116.026
G01 X117.0 Y116.007
G01 X116.805 Y116.026
G01 X116.619 Y116.082
G01 X116.448 Y116.174
G01 X116.297 Y116.297
G01 X116.174 Y116.448
G01 X116.082 Y116.619
G01 X116.026 Y116.805
G01 X116.007 Y117.0
G01 Z-4.0 F100
G01 X116.026 Y117.194 F1000
G01 X116.082 Y117.38
G01 X116.174 Y117.551
G01 X116.297 Y117.702
G01 X116.448 Y117.825
G01 X116.619 Y117.917
G01 X116.805 Y117.973
G01 X117.0 Y117.992
G01 X117.194 Y117.973
G01 X117.38 Y117.917
G01 X117.551 Y117.825
G01 X117.702 Y117.702
G01 X117.825 Y117.551
G01 X117.917 Y117.38
G01 X117.973 Y117.194
G01 X117.992 Y117.0
G01 X117.973 Y116.805
G01 X117.917 Y116.619
G01 X117.825 Y116.448
G01 X117.702 Y116.297
G01 X117.551 Y116.174
G01 X117.38 Y116.082
G01 X117.194 Y116.026
G01 X117.0 Y116.007
G01 X116.805 Y116.026
G01 X116.619 Y116.082
G01 X116.448 Y116.174
G01 X116.297 Y116.297
G01 X116.174 Y116.448
G01 X116.082 Y116.619
G01 X116.026 Y116.805
G01 X116.007 Y117.0
G01 Z-6.0 F100
G01 X116.026 Y117.194 F1000
G01 X116.082 Y117.38
G01 X116.174 Y117.551
G01 X116.297 Y117.702
G01 X116.448 Y117.825
G01 X116.619 Y117.917
G01 X116.805 Y117.973
G01 X117.0 Y117.992
G01 X117.194 Y117.973
G01 X117.38 Y117.917
G01 X117.551 Y117.825
G01 X117.702 Y117.702
G01 X117.825 Y117.551
G01 X117.917 Y117.38
G01 X117.973 Y117.194
G01 X117.992 Y117.0
G01 X117.973 Y116.805
G01 X117.917 Y116.619
G01 X117.825 Y116.448
G01 X117.702 Y116.297
G01 X117.551 Y116.174
G01 X117.38 Y116.082
G01 X117.194 Y116.026
G01 X117.0 Y116.007
G01 X116.805 Y116.026
G01 X116.619 Y116.082
G01 X116.448 Y116.174
G01 X116.297 Y116.297
G01 X116.174 Y116.448
G01 X116.082 Y116.619
G01 X116.026 Y116.805
G01 X116.007 Y117.0
G01 Z-6.3 F100
G01 X116.026 Y117.194 F1000
G01 X116.082 Y117.38
G01 X116.174 Y117.551
G01 X116.297 Y117.702
G01 X116.448 Y117.825
G01 X116.619 Y117.917
G01 X116.805 Y117.973
G01 X117.0 Y117.992
G01 X117.194 Y117.973
G01 X117.38 Y117.917
G01 X117.551 Y117.825
G01 X117.702 Y117.702
G01 X117.825 Y117.551
G01 X117.917 Y117.38
G01 X117.973 Y117.194
G01 X117.992 Y117.0
G01 X117.973 Y116.805
G01 X117.917 Y116.619
G01 X117.825 Y116.448
G01 X117.702 Y116.297
G01 X117.551 Y116.174
G01 X117.38 Y116.082
G01 X117.194 Y116.026
G01 X117.0 Y116.007
G01 X116.805 Y116.026
G01 X116.619 Y116.082
G01 X116.448 Y116.174
G01 X116.297 Y116.297
G01 X116.174 Y116.448
G01 X116.082 Y116.619
G01 X116.026 Y116.805
G01 X116.007 Y117.0
G00 Z2.0
 (--------------------------------------------------)
 (Object: #3)
 (Layer: 0)
 (Pocket-Operation)
 (--------------------------------------------------)
 (--------------------------------------------------)
 (Object: #3)
 (Layer: 0)
 (Overcut: 0)
 (Depth: -6.300000)
 (Offset: Inside)
 (Tool-Num: 1)
 (Tool-Diameter: 3.00)
 (Tool-Speed: 12000)
 (--------------------------------------------------)

G00
G00 X116.982 Y111.09
G00 Z1.0
G01 Z-2.0 F100
G01 X117.0 Y111.092 F1000
G01 X117.017 Y111.09
G01 X117.035 Y111.085
G01 X117.051 Y111.077
G01 X117.065 Y111.065
G01 X117.077 Y111.051
G01 X117.085 Y111.035
G01 X117.09 Y111.017
G01 X117.092 Y111.0
G01 X117.09 Y110.982
G01 X117.085 Y110.964
G01 X117.077 Y110.948
G01 X117.065 Y110.934
G01 X117.051 Y110.922
G01 X117.035 Y110.914
G01 X117.017 Y110.909
G01 X117.0 Y110.907
G01 X116.982 Y110.909
G01 X116.964 Y110.914
G01 X116.948 Y110.922
G01 X116.934 Y110.934
G01 X116.922 Y110.948
G01 X116.914 Y110.964
G01 X116.909 Y110.982
G01 X116.907 Y111.0
G01 X116.909 Y111.017
G01 X116.914 Y111.035
G01 X116.922 Y111.051
G01 X116.934 Y111.065
G01 X116.948 Y111.077
G01 X116.964 Y111.085
G01 X116.982 Y111.09
G01 Z-4.0 F100
G01 X117.0 Y111.092 F1000
G01 X117.017 Y111.09
G01 X117.035 Y111.085
G01 X117.051 Y111.077
G01 X117.065 Y111.065
G01 X117.077 Y111.051
G01 X117.085 Y111.035
G01 X117.09 Y111.017
G01 X117.092 Y111.0
G01 X117.09 Y110.982
G01 X117.085 Y110.964
G01 X117.077 Y110.948
G01 X117.065 Y110.934
G01 X117.051 Y110.922
G01 X117.035 Y110.914
G01 X117.017 Y110.909
G01 X117.0 Y110.907
G01 X116.982 Y110.909
G01 X116.964 Y110.914
G01 X116.948 Y110.922
G01 X116.934 Y110.934
G01 X116.922 Y110.948
G01 X116.914 Y110.964
G01 X116.909 Y110.982
G01 X116.907 Y111.0
G01 X116.909 Y111.017
G01 X116.914 Y111.035
G01 X116.922 Y111.051
G01 X116.934 Y111.065
G01 X116.948 Y111.077
G01 X116.964 Y111.085
G01 X116.982 Y111.09
G01 Z-6.0 F100
G01 X117.0 Y111.092 F1000
G01 X117.017 Y111.09
G01 X117.035 Y111.085
G01 X117.051 Y111.077
G01 X117.065 Y111.065
G01 X117.077 Y111.051
G01 X117.085 Y111.035
G01 X117.09 Y111.017
G01 X117.092 Y111.0
G01 X117.09 Y110.982
G01 X117.085 Y110.964
G01 X117.077 Y110.948
G01 X117.065 Y110.934
G01 X117.051 Y110.922
G01 X117.035 Y110.914
G01 X117.017 Y110.909
G01 X117.0 Y110.907
G01 X116.982 Y110.909
G01 X116.964 Y110.914
G01 X116.948 Y110.922
G01 X116.934 Y110.934
G01 X116.922 Y110.948
G01 X116.914 Y110.964
G01 X116.909 Y110.982
G01 X116.907 Y111.0
G01 X116.909 Y111.017
G01 X116.914 Y111.035
G01 X116.922 Y111.051
G01 X116.934 Y111.065
G01 X116.948 Y111.077
G01 X116.964 Y111.085
G01 X116.982 Y111.09
G01 Z-6.3 F100
G01 X117.0 Y111.092 F1000
G01 X117.017 Y111.09
G01 X117.035 Y111.085
G01 X117.051 Y111.077
G01 X117.065 Y111.065
G01 X117.077 Y111.051
G01 X117.085 Y111.035
G01 X117.09 Y111.017
G01 X117.092 Y111.0
G01 X117.09 Y110.982
G01 X117.085 Y110.964
G01 X117.077 Y110.948
G01 X117.065 Y110.934
G01 X117.051 Y110.922
G01 X117.035 Y110.914
G01 X117.017 Y110.909
G01 X117.0 Y110.907
G01 X116.982 Y110.909
G01 X116.964 Y110.914
G01 X116.948 Y110.922
G01 X116.934 Y110.934
G01 X116.922 Y110.948
G01 X116.914 Y110.964
G01 X116.909 Y110.982
G01 X116.907 Y111.0
G01 X116.909 Y111.017
G01 X116.914 Y111.035
G01 X116.922 Y111.051
G01 X116.934 Y111.065
G01 X116.948 Y111.077
G01 X116.964 Y111.085
G01 X116.982 Y111.09
G00 Z2.0
 (--------------------------------------------------)
 (Object: #7)
 (Layer: 0)
 (Pocket-Operation)
 (--------------------------------------------------)
 (--------------------------------------------------)
 (Object: #7)
 (Layer: 0)
 (Overcut: 0)
 (Depth: -6.300000)
 (Offset: Inside)
 (Tool-Num: 1)
 (Tool-Diameter: 3.00)
 (Tool-Speed: 12000)
 (--------------------------------------------------)

G00
G00 X117.0 Y39.092
G00 Z1.0
G01 Z-2.0 F100
G01 X117.017 Y39.091 F1000
G01 X117.035 Y39.085
G01 X117.051 Y39.077
G01 X117.064 Y39.066
G01 X117.076 Y39.051
G01 X117.085 Y39.035
G01 X117.09 Y39.017
G01 X117.092 Y39.0
G01 X117.09 Y38.982
G01 X117.085 Y38.964
G01 X117.076 Y38.948
G01 X117.064 Y38.933
G01 X117.051 Y38.922
G01 X117.035 Y38.914
G01 X117.017 Y38.909
G01 X117.0 Y38.907
G01 X116.982 Y38.909
G01 X116.964 Y38.914
G01 X116.948 Y38.922
G01 X116.935 Y38.933
G01 X116.923 Y38.948
G01 X116.914 Y38.964
G01 X116.909 Y38.982
G01 X116.907 Y39.0
G01 X116.909 Y39.017
G01 X116.914 Y39.035
G01 X116.923 Y39.051
G01 X116.935 Y39.066
G01 X116.948 Y39.077
G01 X116.964 Y39.085
G01 X116.982 Y39.091
G01 X117.0 Y39.092
G01 Z-4.0 F100
G01 X117.017 Y39.091 F1000
G01 X117.035 Y39.085
G01 X117.051 Y39.077
G01 X117.064 Y39.066
G01 X117.076 Y39.051
G01 X117.085 Y39.035
G01 X117.09 Y39.017
G01 X117.092 Y39.0
G01 X117.09 Y38.982
G01 X117.085 Y38.964
G01 X117.076 Y38.948
G01 X117.064 Y38.933
G01 X117.051 Y38.922
G01 X117.035 Y38.914
G01 X117.017 Y38.909
G01 X117.0 Y38.907
G01 X116.982 Y38.909
G01 X116.964 Y38.914
G01 X116.948 Y38.922
G01 X116.935 Y38.933
G01 X116.923 Y38.948
G01 X116.914 Y38.964
G01 X116.909 Y38.982
G01 X116.907 Y39.0
G01 X116.909 Y39.017
G01 X116.914 Y39.035
G01 X116.923 Y39.051
G01 X116.935 Y39.066
G01 X116.948 Y39.077
G01 X116.964 Y39.085
G01 X116.982 Y39.091
G01 X117.0 Y39.092
G01 Z-6.0 F100
G01 X117.017 Y39.091 F1000
G01 X117.035 Y39.085
G01 X117.051 Y39.077
G01 X117.064 Y39.066
G01 X117.076 Y39.051
G01 X117.085 Y39.035
G01 X117.09 Y39.017
G01 X117.092 Y39.0
G01 X117.09 Y38.982
G01 X117.085 Y38.964
G01 X117.076 Y38.948
G01 X117.064 Y38.933
G01 X117.051 Y38.922
G01 X117.035 Y38.914
G01 X117.017 Y38.909
G01 X117.0 Y38.907
G01 X116.982 Y38.909
G01 X116.964 Y38.914
G01 X116.948 Y38.922
G01 X116.935 Y38.933
G01 X116.923 Y38.948
G01 X116.914 Y38.964
G01 X116.909 Y38.982
G01 X116.907 Y39.0
G01 X116.909 Y39.017
G01 X116.914 Y39.035
G01 X116.923 Y39.051
G01 X116.935 Y39.066
G01 X116.948 Y39.077
G01 X116.964 Y39.085
G01 X116.982 Y39.091
G01 X117.0 Y39.092
G01 Z-6.3 F100
G01 X117.017 Y39.091 F1000
G01 X117.035 Y39.085
G01 X117.051 Y39.077
G01 X117.064 Y39.066
G01 X117.076 Y39.051
G01 X117.085 Y39.035
G01 X117.09 Y39.017
G01 X117.092 Y39.0
G01 X117.09 Y38.982
G01 X117.085 Y38.964
G01 X117.076 Y38.948
G01 X117.064 Y38.933
G01 X117.051 Y38.922
G01 X117.035 Y38.914
G01 X117.017 Y38.909
G01 X117.0 Y38.907
G01 X116.982 Y38.909
G01 X116.964 Y38.914
G01 X116.948 Y38.922
G01 X116.935 Y38.933
G01 X116.923 Y38.948
G01 X116.914 Y38.964
G01 X116.909 Y38.982
G01 X116.907 Y39.0
G01 X116.909 Y39.017
G01 X116.914 Y39.035
G01 X116.923 Y39.051
G01 X116.935 Y39.066
G01 X116.948 Y39.077
G01 X116.964 Y39.085
G01 X116.982 Y39.091
G01 X117.0 Y39.092
G00 Z2.0
 (--------------------------------------------------)
 (Object: #9)
 (Layer: 0)
 (Pocket-Operation)
 (--------------------------------------------------)
 (--------------------------------------------------)
 (Object: #9)
 (Layer: 0)
 (Overcut: 0)
 (Depth: -6.300000)
 (Offset: Inside)
 (Tool-Num: 1)
 (Tool-Diameter: 3.00)
 (Tool-Speed: 12000)
 (--------------------------------------------------)

G00
G00 Y33.992
G00 Z1.0
G01 Z-2.0 F100
G01 X117.193 Y33.973 F1000
G01 X117.38 Y33.917
G01 X117.551 Y33.825
G01 X117.702 Y33.701
G01 X117.825 Y33.551
G01 X117.917 Y33.38
G01 X117.973 Y33.194
G01 X117.992 Y33.0
G01 X117.973 Y32.805
G01 X117.917 Y32.619
G01 X117.825 Y32.448
G01 X117.702 Y32.298
G01 X117.551 Y32.174
G01 X117.38 Y32.082
G01 X117.193 Y32.026
G01 X117.0 Y32.007
G01 X116.806 Y32.026
G01 X116.619 Y32.082
G01 X116.448 Y32.174
G01 X116.297 Y32.298
G01 X116.174 Y32.448
G01 X116.082 Y32.619
G01 X116.026 Y32.805
G01 X116.007 Y33.0
G01 X116.026 Y33.194
G01 X116.082 Y33.38
G01 X116.174 Y33.551
G01 X116.297 Y33.701
G01 X116.448 Y33.825
G01 X116.619 Y33.917
G01 X116.806 Y33.973
G01 X117.0 Y33.992
G01 Z-4.0 F100
G01 X117.193 Y33.973 F1000
G01 X117.38 Y33.917
G01 X117.551 Y33.825
G01 X117.702 Y33.701
G01 X117.825 Y33.551
G01 X117.917 Y33.38
G01 X117.973 Y33.194
G01 X117.992 Y33.0
G01 X117.973 Y32.805
G01 X117.917 Y32.619
G01 X117.825 Y32.448
G01 X117.702 Y32.298
G01 X117.551 Y32.174
G01 X117.38 Y32.082
G01 X117.193 Y32.026
G01 X117.0 Y32.007
G01 X116.806 Y32.026
G01 X116.619 Y32.082
G01 X116.448 Y32.174
G01 X116.297 Y32.298
G01 X116.174 Y32.448
G01 X116.082 Y32.619
G01 X116.026 Y32.805
G01 X116.007 Y33.0
G01 X116.026 Y33.194
G01 X116.082 Y33.38
G01 X116.174 Y33.551
G01 X116.297 Y33.701
G01 X116.448 Y33.825
G01 X116.619 Y33.917
G01 X116.806 Y33.973
G01 X117.0 Y33.992
G01 Z-6.0 F100
G01 X117.193 Y33.973 F1000
G01 X117.38 Y33.917
G01 X117.551 Y33.825
G01 X117.702 Y33.701
G01 X117.825 Y33.551
G01 X117.917 Y33.38
G01 X117.973 Y33.194
G01 X117.992 Y33.0
G01 X117.973 Y32.805
G01 X117.917 Y32.619
G01 X117.825 Y32.448
G01 X117.702 Y32.298
G01 X117.551 Y32.174
G01 X117.38 Y32.082
G01 X117.193 Y32.026
G01 X117.0 Y32.007
G01 X116.806 Y32.026
G01 X116.619 Y32.082
G01 X116.448 Y32.174
G01 X116.297 Y32.298
G01 X116.174 Y32.448
G01 X116.082 Y32.619
G01 X116.026 Y32.805
G01 X116.007 Y33.0
G01 X116.026 Y33.194
G01 X116.082 Y33.38
G01 X116.174 Y33.551
G01 X116.297 Y33.701
G01 X116.448 Y33.825
G01 X116.619 Y33.917
G01 X116.806 Y33.973
G01 X117.0 Y33.992
G01 Z-6.3 F100
G01 X117.193 Y33.973 F1000
G01 X117.38 Y33.917
G01 X117.551 Y33.825
G01 X117.702 Y33.701
G01 X117.825 Y33.551
G01 X117.917 Y33.38
G01 X117.973 Y33.194
G01 X117.992 Y33.0
G01 X117.973 Y32.805
G01 X117.917 Y32.619
G01 X117.825 Y32.448
G01 X117.702 Y32.298
G01 X117.551 Y32.174
G01 X117.38 Y32.082
G01 X117.193 Y32.026
G01 X117.0 Y32.007
G01 X116.806 Y32.026
G01 X116.619 Y32.082
G01 X116.448 Y32.174
G01 X116.297 Y32.298
G01 X116.174 Y32.448
G01 X116.082 Y32.619
G01 X116.026 Y32.805
G01 X116.007 Y33.0
G01 X116.026 Y33.194
G01 X116.082 Y33.38
G01 X116.174 Y33.551
G01 X116.297 Y33.701
G01 X116.448 Y33.825
G01 X116.619 Y33.917
G01 X116.806 Y33.973
G01 X117.0 Y33.992
G00 Z2.0
 (--------------------------------------------------)
 (Object: #0)
 (Layer: 0)
 (Overcut: 0)
 (Depth: -6.300000)
 (Offset: Outside)
 (Tool-Num: 1)
 (Tool-Diameter: 3.00)
 (Tool-Speed: 12000)
 (--------------------------------------------------)

G00
G00 X126.492 Y32.852
G00 Z1.0
G01 Z-2.0 F100
G03 X126.5 Y33.0 I-1.492 J0.147 F1000
G01 Y117.0
G03 X126.492 Y117.147 I-1.5 J-0.0
G01 X126.338 Y118.708
G03 X126.281 Y118.996 I-1.492 J-0.147
G01 X125.826 Y120.496
G03 X125.714 Y120.767 I-1.435 J-0.435
G01 X124.975 Y122.151
G03 X124.811 Y122.396 I-1.323 J-0.706
G01 X123.816 Y123.608
G03 X123.608 Y123.816 I-1.159 J-0.951
G01 X122.396 Y124.811
G03 X122.151 Y124.975 I-0.951 J-1.159
G01 X120.767 Y125.714
G03 X120.496 Y125.826 I-0.706 J-1.323
G01 X118.996 Y126.281
G03 X118.708 Y126.338 I-0.435 J-1.435
G01 X117.147 Y126.492
G03 X117.0 Y126.5 I-0.147 J-1.492
G01 X33.0
G03 X32.852 Y126.492 I-0.0 J-1.5
G01 X31.292 Y126.338
G03 X31.004 Y126.281 I0.147 J-1.492
G01 X29.503 Y125.826
G03 X29.231 Y125.713 I0.435 J-1.435
G01 X27.848 Y124.974
G03 X27.603 Y124.811 I0.706 J-1.322
G01 X26.391 Y123.816
G03 X26.183 Y123.608 I0.951 J-1.159
G01 X25.188 Y122.396
G03 X25.025 Y122.151 I1.159 J-0.951
G01 X24.285 Y120.767
G03 X24.173 Y120.496 I1.323 J-0.706
G01 X23.718 Y118.996
G03 X23.66 Y118.707 I1.435 J-0.435
G01 X23.507 Y117.146
G03 X23.5 Y117.0 I1.492 J-0.146
G01 Y33.0
G03 X23.507 Y32.852 I1.5 J0.0
G01 X23.66 Y31.292
G03 X23.718 Y31.003 I1.492 J0.147
G01 X24.173 Y29.503
G03 X24.286 Y29.231 I1.435 J0.435
G01 X25.025 Y27.848
G03 X25.188 Y27.603 I1.322 J0.707
G01 X26.183 Y26.391
G03 X26.391 Y26.183 I1.159 J0.951
G01 X27.603 Y25.188
G03 X27.848 Y25.025 I0.951 J1.159
G01 X29.231 Y24.286
G03 X29.503 Y24.173 I0.707 J1.322
G01 X31.003 Y23.718
G03 X31.292 Y23.66 I0.435 J1.435
G01 X32.852 Y23.507
G03 X33.0 Y23.5 I0.147 J1.492
G01 X117.0
G03 X117.146 Y23.507 I0.0 J1.5
G01 X118.707 Y23.66
G03 X118.996 Y23.718 I-0.146 J1.492
G01 X120.496 Y24.173
G03 X120.767 Y24.285 I-0.435 J1.435
G01 X122.151 Y25.025
G03 X122.396 Y25.188 I-0.706 J1.323
G01 X123.608 Y26.183
G03 X123.816 Y26.391 I-0.951 J1.159
G01 X124.811 Y27.603
G03 X124.974 Y27.848 I-1.159 J0.951
G01 X125.713 Y29.231
G03 X125.826 Y29.503 I-1.322 J0.706
G01 X126.281 Y31.004
G03 X126.338 Y31.292 I-1.435 J0.435
G01 X126.492 Y32.852
G01 Z-4.0 F100
G03 X126.5 Y33.0 I-1.492 J0.147 F1000
G01 Y117.0
G03 X126.492 Y117.147 I-1.5 J-0.0
G01 X126.338 Y118.708
G03 X126.281 Y118.996 I-1.492 J-0.147
G01 X125.826 Y120.496
G03 X125.714 Y120.767 I-1.435 J-0.435
G01 X124.975 Y122.151
G03 X124.811 Y122.396 I-1.323 J-0.706
G01 X123.816 Y123.608
G03 X123.608 Y123.816 I-1.159 J-0.951
G01 X122.396 Y124.811
G03 X122.151 Y124.975 I-0.951 J-1.159
G01 X120.767 Y125.714
G03 X120.496 Y125.826 I-0.706 J-1.323
G01 X118.996 Y126.281
G03 X118.708 Y126.338 I-0.435 J-1.435
G01 X117.147 Y126.492
G03 X117.0 Y126.5 I-0.147 J-1.492
G01 X33.0
G03 X32.852 Y126.492 I-0.0 J-1.5
G01 X31.292 Y126.338
G03 X31.004 Y126.281 I0.147 J-1.492
G01 X29.503 Y125.826
G03 X29.231 Y125.713 I0.435 J-1.435
G01 X27.848 Y124.974
G03 X27.603 Y124.811 I0.706 J-1.322
G01 X26.391 Y123.816
G03 X26.183 Y123.608 I0.951 J-1.159
G01 X25.188 Y122.396
G03 X25.025 Y122.151 I1.159 J-0.951
G01 X24.285 Y120.767
G03 X24.173 Y120.496 I1.323 J-0.706
G01 X23.718 Y118.996
G03 X23.66 Y118.707 I1.435 J-0.435
G01 X23.507 Y117.146
G03 X23.5 Y117.0 I1.492 J-0.146
G01 Y33.0
G03 X23.507 Y32.852 I1.5 J0.0
G01 X23.66 Y31.292
G03 X23.718 Y31.003 I1.492 J0.147
G01 X24.173 Y29.503
G03 X24.286 Y29.231 I1.435 J0.435
G01 X25.025 Y27.848
G03 X25.188 Y27.603 I1.322 J0.707
G01 X26.183 Y26.391
G03 X26.391 Y26.183 I1.159 J0.951
G01 X27.603 Y25.188
G03 X27.848 Y25.025 I0.951 J1.159
G01 X29.231 Y24.286
G03 X29.503 Y24.173 I0.707 J1.322
G01 X31.003 Y23.718
G03 X31.292 Y23.66 I0.435 J1.435
G01 X32.852 Y23.507
G03 X33.0 Y23.5 I0.147 J1.492
G01 X117.0
G03 X117.146 Y23.507 I0.0 J1.5
G01 X118.707 Y23.66
G03 X118.996 Y23.718 I-0.146 J1.492
G01 X120.496 Y24.173
G03 X120.767 Y24.285 I-0.435 J1.435
G01 X122.151 Y25.025
G03 X122.396 Y25.188 I-0.706 J1.323
G01 X123.608 Y26.183
G03 X123.816 Y26.391 I-0.951 J1.159
G01 X124.811 Y27.603
G03 X124.974 Y27.848 I-1.159 J0.951
G01 X125.713 Y29.231
G03 X125.826 Y29.503 I-1.322 J0.706
G01 X126.281 Y31.004
G03 X126.338 Y31.292 I-1.435 J0.435
G01 X126.492 Y32.852
G01 Z-6.0 F100
G03 X126.5 Y33.0 I-1.492 J0.147 F1000
G01 Y71.0
G01 Z-5.0
G01 Y79.0
G01 Z-6.0
G01 Y117.0
G03 X126.492 Y117.147 I-1.5 J-0.0
G01 X126.338 Y118.708
G03 X126.281 Y118.996 I-1.492 J-0.147
G01 X125.826 Y120.496
G03 X125.714 Y120.767 I-1.435 J-0.435
G01 X124.975 Y122.151
G03 X124.811 Y122.396 I-1.323 J-0.706
G01 X123.816 Y123.608
G03 X123.608 Y123.816 I-1.159 J-0.951
G01 X122.396 Y124.811
G03 X122.151 Y124.975 I-0.951 J-1.159
G01 X120.767 Y125.714
G03 X120.496 Y125.826 I-0.706 J-1.323
G01 X118.996 Y126.281
G03 X118.708 Y126.338 I-0.435 J-1.435
G01 X117.147 Y126.492
G03 X117.0 Y126.5 I-0.147 J-1.492
G01 X79.0
G01 Z-5.0
G01 X71.0
G01 Z-6.0
G01 X33.0
G03 X32.852 Y126.492 I-0.0 J-1.5
G01 X31.292 Y126.338
G03 X31.004 Y126.281 I0.147 J-1.492
G01 X29.503 Y125.826
G03 X29.231 Y125.713 I0.435 J-1.435
G01 X27.848 Y124.974
G03 X27.603 Y124.811 I0.706 J-1.322
G01 X26.391 Y123.816
G03 X26.183 Y123.608 I0.951 J-1.159
G01 X25.188 Y122.396
G03 X25.025 Y122.151 I1.159 J-0.951
G01 X24.285 Y120.767
G03 X24.173 Y120.496 I1.323 J-0.706
G01 X23.718 Y118.996
G03 X23.66 Y118.707 I1.435 J-0.435
G01 X23.507 Y117.146
G03 X23.5 Y117.0 I1.492 J-0.146
G01 Y79.0
G01 Z-5.0
G01 Y71.0
G01 Z-6.0
G01 Y33.0
G03 X23.507 Y32.852 I1.5 J0.0
G01 X23.66 Y31.292
G03 X23.718 Y31.003 I1.492 J0.147
G01 X24.173 Y29.503
G03 X24.286 Y29.231 I1.435 J0.435
G01 X25.025 Y27.848
G03 X25.188 Y27.603 I1.322 J0.707
G01 X26.183 Y26.391
G03 X26.391 Y26.183 I1.159 J0.951
G01 X27.603 Y25.188
G03 X27.848 Y25.025 I0.951 J1.159
G01 X29.231 Y24.286
G03 X29.503 Y24.173 I0.707 J1.322
G01 X31.003 Y23.718
G03 X31.292 Y23.66 I0.435 J1.435
G01 X32.852 Y23.507
G03 X33.0 Y23.5 I0.147 J1.492
G01 X71.0
G01 Z-5.0
G01 X79.0
G01 Z-6.0
G01 X117.0
G03 X117.146 Y23.507 I0.0 J1.5
G01 X118.707 Y23.66
G03 X118.996 Y23.718 I-0.146 J1.492
G01 X120.496 Y24.173
G03 X120.767 Y24.285 I-0.435 J1.435
G01 X122.151 Y25.025
G03 X122.396 Y25.188 I-0.706 J1.323
G01 X123.608 Y26.183
G03 X123.816 Y26.391 I-0.951 J1.159
G01 X124.811 Y27.603
G03 X124.974 Y27.848 I-1.159 J0.951
G01 X125.713 Y29.231
G03 X125.826 Y29.503 I-1.322 J0.706
G01 X126.281 Y31.004
G03 X126.338 Y31.292 I-1.435 J0.435
G01 X126.492 Y32.852
G01 Z-6.3 F100
G03 X126.5 Y33.0 I-1.492 J0.147 F1000
G01 Y71.0
G01 Z-5.0
G01 Y79.0
G01 Z-6.3
G01 Y117.0
G03 X126.492 Y117.147 I-1.5 J-0.0
G01 X126.338 Y118.708
G03 X126.281 Y118.996 I-1.492 J-0.147
G01 X125.826 Y120.496
G03 X125.714 Y120.767 I-1.435 J-0.435
G01 X124.975 Y122.151
G03 X124.811 Y122.396 I-1.323 J-0.706
G01 X123.816 Y123.608
G03 X123.608 Y123.816 I-1.159 J-0.951
G01 X122.396 Y124.811
G03 X122.151 Y124.975 I-0.951 J-1.159
G01 X120.767 Y125.714
G03 X120.496 Y125.826 I-0.706 J-1.323
G01 X118.996 Y126.281
G03 X118.708 Y126.338 I-0.435 J-1.435
G01 X117.147 Y126.492
G03 X117.0 Y126.5 I-0.147 J-1.492
G01 X79.0
G01 Z-5.0
G01 X71.0
G01 Z-6.3
G01 X33.0
G03 X32.852 Y126.492 I-0.0 J-1.5
G01 X31.292 Y126.338
G03 X31.004 Y126.281 I0.147 J-1.492
G01 X29.503 Y125.826
G03 X29.231 Y125.713 I0.435 J-1.435
G01 X27.848 Y124.974
G03 X27.603 Y124.811 I0.706 J-1.322
G01 X26.391 Y123.816
G03 X26.183 Y123.608 I0.951 J-1.159
G01 X25.188 Y122.396
G03 X25.025 Y122.151 I1.159 J-0.951
G01 X24.285 Y120.767
G03 X24.173 Y120.496 I1.323 J-0.706
G01 X23.718 Y118.996
G03 X23.66 Y118.707 I1.435 J-0.435
G01 X23.507 Y117.146
G03 X23.5 Y117.0 I1.492 J-0.146
G01 Y79.0
G01 Z-5.0
G01 Y71.0
G01 Z-6.3
G01 Y33.0
G03 X23.507 Y32.852 I1.5 J0.0
G01 X23.66 Y31.292
G03 X23.718 Y31.003 I1.492 J0.147
G01 X24.173 Y29.503
G03 X24.286 Y29.231 I1.435 J0.435
G01 X25.025 Y27.848
G03 X25.188 Y27.603 I1.322 J0.707
G01 X26.183 Y26.391
G03 X26.391 Y26.183 I1.159 J0.951
G01 X27.603 Y25.188
G03 X27.848 Y25.025 I0.951 J1.159
G01 X29.231 Y24.286
G03 X29.503 Y24.173 I0.707 J1.322
G01 X31.003 Y23.718
G03 X31.292 Y23.66 I0.435 J1.435
G01 X32.852 Y23.507
G03 X33.0 Y23.5 I0.147 J1.492
G01 X71.0
G01 Z-5.0
G01 X79.0
G01 Z-6.3
G01 X117.0
G03 X117.146 Y23.507 I0.0 J1.5
G01 X118.707 Y23.66
G03 X118.996 Y23.718 I-0.146 J1.492
G01 X120.496 Y24.173
G03 X120.767 Y24.285 I-0.435 J1.435
G01 X122.151 Y25.025
G03 X122.396 Y25.188 I-0.706 J1.323
G01 X123.608 Y26.183
G03 X123.816 Y26.391 I-0.951 J1.159
G01 X124.811 Y27.603
G03 X124.974 Y27.848 I-1.159 J0.951
G01 X125.713 Y29.231
G03 X125.826 Y29.503 I-1.322 J0.706
G01 X126.281 Y31.004
G03 X126.338 Y31.292 I-1.435 J0.435
G01 X126.492 Y32.852
G00 Z2.0
 (--------------------------------------------------)
 (CAMmill-Configuration)
 (cfg:View-Zoom: 2.780000)
 (cfg:View-Helplines: 1)
 (cfg:View-ShowGrid: 1)
 (cfg:View-ShowTool: 1)
 (cfg:View-Textures: 0)
 (cfg:View-Rotate-X: -25.000000)
 (cfg:View-Rotate-Y: 0.000000)
 (cfg:View-Rotate-Z: -6.800000)
 (cfg:View-Translate-X: -15)
 (cfg:View-Translate-Y: 9)
 (cfg:View-Grid-Size: 10.000000)
 (cfg:View-Arrow-Scale: 1.000000)
 (cfg:Tool-Select: -1)
 (cfg:Tool-Number: 1)
 (cfg:Tool-Diameter: 3.000000)
 (cfg:Tool-Speed: 12000)
 (cfg:Tool-Coolant: 0)
 (cfg:Tool-Kepp spinning: 1)
 (cfg:Milling-FeedRate: 1000)
 (cfg:Milling-PlungeRate: 100)
 (cfg:Milling-Depth: -6.300000)
 (cfg:Milling-Z-Step: -2.000000)
 (cfg:Milling-Save-Move: 2.000000)
 (cfg:Milling-Overcut: 0)
 (cfg:Milling-Lasermode: 0)
 (cfg:Milling-Climb: 0)
 (cfg:Milling-NoOffsets: 0)
 (cfg:Milling-Helix: 1)
 (cfg:Milling-Velocity-Mode: 0)
 (cfg:Milling-Blending Tolerance: 0.050000)
 (cfg:Milling-DXF-File: /home/tim/3d/tim-open-things/mill-highpowerledbracket/bracket2.dxf)
 (cfg:Milling-Output-File: /home/tim/3d/tim-open-things/mill-highpowerledbracket/bracket2b.ngc)
 (cfg:Pockets-Pocket: 1)
 (cfg:Pockets-Pocket-Stepover: 50)
 (cfg:Holding-Tabs-Activate: 1)
 (cfg:Holding-Tabs-Show Grid: 1)
 (cfg:Holding-Tabs-Depth: -5.000000)
 (cfg:Holding-Tabs-Length: 5.000000)
 (cfg:Holding-Tabs-Triangle-Type: 0)
 (cfg:Holding-Tabs-On Open: 0)
 (cfg:Holding-Tabs-On Inside: 0)
 (cfg:Holding-Tabs-On Outside: 1)
 (cfg:Holding-Tabs-X-Grid: 50.000000)
 (cfg:Holding-Tabs-Y-Grid: 50.000000)
 (cfg:Text-Mill Text: 0)
 (cfg:Text-Mill-Depth: -0.500000)
 (cfg:Text-Fixed-W: 1)
 (cfg:Text-Scale-W: 1.000000)
 (cfg:Text-Scale-H: 1.000000)
 (cfg:Text-Font: 0)
 (cfg:Text-Overwrite: 0)
 (cfg:Text-Tool-Number: 1)
 (cfg:Text-Tool-Diameter: 3.000000)
 (cfg:Text-Tool-Speed: 12000)
 (cfg:Machine-Fastmove-Speed: 2000)
 (cfg:Machine-Spindle-Delay: 1.000000)
 (cfg:Machine-Fast-Z: 1.000000)
 (cfg:Machine-Post: 0)
 (cfg:Machine-Post-Command: )
 (cfg:Calculation-Tool-Flutes: 2)
 (cfg:Calculation-Select: 8)
 (cfg:Calculation-Cutting Speed: 2000)
 (cfg:Calculation-Feed/Tooth@<4mm: 0.040000)
 (cfg:Calculation-Feed/Tooth@<8mm: 0.080000)
 (cfg:Calculation-Feed/Tooth@<12mm: 0.100000)
 (cfg:Calculation-CalcSpeed: 212206)
 (cfg:Calculation-MaxFeedRate: 960)
 (cfg:Objects-Select: 6)
 (cfg:Objects-Use: 1)
 (cfg:Objects-Overwrite: 1)
 (cfg:Objects-Climb: 0)
 (cfg:Objects-Offset: 2)
 (cfg:Objects-Overcut: 0)
 (cfg:Objects-Pocket: 0)
 (cfg:Objects-Helix: 1)
 (cfg:Objects-Laser: 0)
 (cfg:Objects-Depth: -6.300000)
 (cfg:Objects-Holding-Tab's: 1)
 (cfg:Objects-Order: 0)
 (cfg:Objects-Tool-Number: 1)
 (cfg:Objects-Tool-Diameter: 3.000000)
 (cfg:Objects-Tool-Speed: 12000)
 (cfg:Rotary-Activate: 0)
 (cfg:Rotary-Axis: 0)
 (cfg:Rotary-Diameter: 100.000000)
 (cfg:Tangencial-Activate: 0)
 (cfg:Tangencial-Axis: 1)
 (cfg:Tangencial-MaxAngle: 10.000000)
 (cfg:Window-X-Position: 0)
 (cfg:Window-Y-Position: 55)
 (cfg:Window-Width: 3246)
 (cfg:Window-Height: 1565)
 (cfg:Window-Maximized: 0)
 (cfg:Misc-Unit: 1)
 (cfg:Misc-Tolerance: 0.001000)
 (cfg:Misc-Tool-Table: )
 (cfg:Misc-Parameter: 0)
 (cfg:Misc-Setup-Autosave: 1)
 (cfg:Misc-Batchmode: 0)
 (cfg:Misc-LoadPath: /home/tim/3d/tim-open-things/mill-highpowerledbracket)
 (cfg:Misc-SavePath: /home/tim/3d/tim-open-things/mill-highpowerledbracket)
 (cfg:Misc-PresetPath: )
 (cfg:Misc-Delete Double Lines: 1)
 (cfg:Misc-Zero: 1)
 (cfg:Misc-Zero-Offset-X: 0.000000)
 (cfg:Misc-Zero-Offset-Y: 0.000000)
 (cfg:Misc-Append Config: 1)
 (cfg:Misc-Texture: ../share/cammill/textures/wood.bmp)
 (cfg:Misc-NC-Debug: 0)
 (--------------------------------------------------)
