 ( CAMmill GRBL Postprocessor )
 ( Ver: 20150830 - by onekk )
 ( GRBL Support only G61 mode )
 ( Version < 0.9i build 20150529 )
 ( must delete the G61 from this file )
 ( otherwise it raise an error )
G21 (Metric/mm)
G40 (No Offsets)
G90 (Absolute-Mode)
G61
F100
 (--------------------------------------------------)
 (Object: #1)
 (Layer: 0)
 (Overcut: 0)
 (Depth: -6.300000)
 (Offset: Inside)
 (Tool-Num: 1)
 (Tool-Diameter: 3.00)
 (Tool-Speed: 12000)
 (--------------------------------------------------)
M05
M6 T1
M03 S12000
G00 X21.111 Y21.111 Z2.0
G00 X30.989 Y30.989
G00 Z1.0
G01 Z-2.0
G01 X30.683 Y31.312 F1000
G01 X30.394 Y31.651
G01 X30.123 Y32.004
G01 X29.871 Y32.37
G01 X29.639 Y32.75
G01 X29.426 Y33.141
G01 X29.235 Y33.542
G01 X29.065 Y33.954
G01 X28.916 Y34.373
G01 X28.79 Y34.8
G01 X28.686 Y35.232
G01 X28.605 Y35.67
G01 X28.547 Y36.111
G01 X28.512 Y36.555
G01 X28.5 Y37.0
G01 X28.512 Y37.444
G01 X28.547 Y37.888
G01 X28.605 Y38.329
G01 X28.686 Y38.767
G01 X28.79 Y39.199
G01 X28.916 Y39.626
G01 X29.065 Y40.045
G01 X29.235 Y40.457
G01 X29.426 Y40.858
G01 X29.639 Y41.249
G01 X29.871 Y41.629
G01 X30.123 Y41.995
G01 X30.394 Y42.348
G01 X30.683 Y42.687
G01 X30.989 Y43.01
G01 X31.312 Y43.316
G01 X31.651 Y43.605
G01 X32.004 Y43.876
G01 X32.37 Y44.128
G01 X32.75 Y44.36
G01 X33.141 Y44.573
G01 X33.542 Y44.764
G01 X33.954 Y44.934
G01 X34.373 Y45.083
G01 X34.8 Y45.209
G01 X35.232 Y45.313
G01 X35.67 Y45.394
G01 X36.111 Y45.452
G01 X36.555 Y45.487
G01 X37.0 Y45.499
G01 X37.444 Y45.487
G01 X37.888 Y45.452
G01 X38.329 Y45.394
G01 X38.767 Y45.313
G01 X39.199 Y45.209
G01 X39.626 Y45.083
G01 X40.045 Y44.934
G01 X40.457 Y44.764
G01 X40.858 Y44.573
G01 X41.249 Y44.36
G01 X41.629 Y44.128
G01 X41.995 Y43.876
G01 X42.348 Y43.605
G01 X42.687 Y43.316
G01 X43.01 Y43.01
G01 X43.316 Y42.687
G01 X43.605 Y42.348
G01 X43.876 Y41.995
G01 X44.128 Y41.629
G01 X44.36 Y41.249
G01 X44.573 Y40.858
G01 X44.764 Y40.457
G01 X44.934 Y40.045
G01 X45.083 Y39.626
G01 X45.209 Y39.199
G01 X45.313 Y38.767
G01 X45.394 Y38.329
G01 X45.452 Y37.888
G01 X45.487 Y37.444
G01 X45.499 Y37.0
G01 X45.487 Y36.555
G01 X45.452 Y36.111
G01 X45.394 Y35.67
G01 X45.313 Y35.232
G01 X45.209 Y34.8
G01 X45.083 Y34.373
G01 X44.934 Y33.954
G01 X44.764 Y33.542
G01 X44.573 Y33.141
G01 X44.36 Y32.75
G01 X44.128 Y32.37
G01 X43.876 Y32.004
G01 X43.605 Y31.651
G01 X43.316 Y31.312
G01 X43.01 Y30.989
G01 X42.687 Y30.683
G01 X42.348 Y30.394
G01 X41.995 Y30.123
G01 X41.629 Y29.871
G01 X41.249 Y29.639
G01 X40.858 Y29.426
G01 X40.457 Y29.235
G01 X40.045 Y29.065
G01 X39.626 Y28.916
G01 X39.199 Y28.79
G01 X38.767 Y28.686
G01 X38.329 Y28.605
G01 X37.888 Y28.547
G01 X37.444 Y28.512
G01 X37.0 Y28.5
G01 X36.555 Y28.512
G01 X36.111 Y28.547
G01 X35.67 Y28.605
G01 X35.232 Y28.686
G01 X34.8 Y28.79
G01 X34.373 Y28.916
G01 X33.954 Y29.065
G01 X33.542 Y29.235
G01 X33.141 Y29.426
G01 X32.75 Y29.639
G01 X32.37 Y29.871
G01 X32.004 Y30.123
G01 X31.651 Y30.394
G01 X31.312 Y30.683
G01 X30.989 Y30.989
G01 Z-4.0 F100
G01 X30.683 Y31.312 F1000
G01 X30.394 Y31.651
G01 X30.123 Y32.004
G01 X29.871 Y32.37
G01 X29.639 Y32.75
G01 X29.426 Y33.141
G01 X29.235 Y33.542
G01 X29.065 Y33.954
G01 X28.916 Y34.373
G01 X28.79 Y34.8
G01 X28.686 Y35.232
G01 X28.605 Y35.67
G01 X28.547 Y36.111
G01 X28.512 Y36.555
G01 X28.5 Y37.0
G01 X28.512 Y37.444
G01 X28.547 Y37.888
G01 X28.605 Y38.329
G01 X28.686 Y38.767
G01 X28.79 Y39.199
G01 X28.916 Y39.626
G01 X29.065 Y40.045
G01 X29.235 Y40.457
G01 X29.426 Y40.858
G01 X29.639 Y41.249
G01 X29.871 Y41.629
G01 X30.123 Y41.995
G01 X30.394 Y42.348
G01 X30.683 Y42.687
G01 X30.989 Y43.01
G01 X31.312 Y43.316
G01 X31.651 Y43.605
G01 X32.004 Y43.876
G01 X32.37 Y44.128
G01 X32.75 Y44.36
G01 X33.141 Y44.573
G01 X33.542 Y44.764
G01 X33.954 Y44.934
G01 X34.373 Y45.083
G01 X34.8 Y45.209
G01 X35.232 Y45.313
G01 X35.67 Y45.394
G01 X36.111 Y45.452
G01 X36.555 Y45.487
G01 X37.0 Y45.499
G01 X37.444 Y45.487
G01 X37.888 Y45.452
G01 X38.329 Y45.394
G01 X38.767 Y45.313
G01 X39.199 Y45.209
G01 X39.626 Y45.083
G01 X40.045 Y44.934
G01 X40.457 Y44.764
G01 X40.858 Y44.573
G01 X41.249 Y44.36
G01 X41.629 Y44.128
G01 X41.995 Y43.876
G01 X42.348 Y43.605
G01 X42.687 Y43.316
G01 X43.01 Y43.01
G01 X43.316 Y42.687
G01 X43.605 Y42.348
G01 X43.876 Y41.995
G01 X44.128 Y41.629
G01 X44.36 Y41.249
G01 X44.573 Y40.858
G01 X44.764 Y40.457
G01 X44.934 Y40.045
G01 X45.083 Y39.626
G01 X45.209 Y39.199
G01 X45.313 Y38.767
G01 X45.394 Y38.329
G01 X45.452 Y37.888
G01 X45.487 Y37.444
G01 X45.499 Y37.0
G01 X45.487 Y36.555
G01 X45.452 Y36.111
G01 X45.394 Y35.67
G01 X45.313 Y35.232
G01 X45.209 Y34.8
G01 X45.083 Y34.373
G01 X44.934 Y33.954
G01 X44.764 Y33.542
G01 X44.573 Y33.141
G01 X44.36 Y32.75
G01 X44.128 Y32.37
G01 X43.876 Y32.004
G01 X43.605 Y31.651
G01 X43.316 Y31.312
G01 X43.01 Y30.989
G01 X42.687 Y30.683
G01 X42.348 Y30.394
G01 X41.995 Y30.123
G01 X41.629 Y29.871
G01 X41.249 Y29.639
G01 X40.858 Y29.426
G01 X40.457 Y29.235
G01 X40.045 Y29.065
G01 X39.626 Y28.916
G01 X39.199 Y28.79
G01 X38.767 Y28.686
G01 X38.329 Y28.605
G01 X37.888 Y28.547
G01 X37.444 Y28.512
G01 X37.0 Y28.5
G01 X36.555 Y28.512
G01 X36.111 Y28.547
G01 X35.67 Y28.605
G01 X35.232 Y28.686
G01 X34.8 Y28.79
G01 X34.373 Y28.916
G01 X33.954 Y29.065
G01 X33.542 Y29.235
G01 X33.141 Y29.426
G01 X32.75 Y29.639
G01 X32.37 Y29.871
G01 X32.004 Y30.123
G01 X31.651 Y30.394
G01 X31.312 Y30.683
G01 X30.989 Y30.989
G01 Z-6.0 F100
G01 X30.683 Y31.312 F1000
G01 X30.394 Y31.651
G01 X30.123 Y32.004
G01 X29.871 Y32.37
G01 X29.639 Y32.75
G01 X29.426 Y33.141
G01 X29.235 Y33.542
G01 X29.065 Y33.954
G01 X28.916 Y34.373
G01 X28.79 Y34.8
G01 X28.686 Y35.232
G01 X28.605 Y35.67
G01 X28.547 Y36.111
G01 X28.512 Y36.555
G01 X28.5 Y37.0
G01 X28.512 Y37.444
G01 X28.547 Y37.888
G01 X28.605 Y38.329
G01 X28.686 Y38.767
G01 X28.79 Y39.199
G01 X28.916 Y39.626
G01 X29.065 Y40.045
G01 X29.235 Y40.457
G01 X29.426 Y40.858
G01 X29.639 Y41.249
G01 X29.871 Y41.629
G01 X30.123 Y41.995
G01 X30.394 Y42.348
G01 X30.683 Y42.687
G01 X30.989 Y43.01
G01 X31.312 Y43.316
G01 X31.651 Y43.605
G01 X32.004 Y43.876
G01 X32.37 Y44.128
G01 X32.75 Y44.36
G01 X33.141 Y44.573
G01 X33.542 Y44.764
G01 X33.954 Y44.934
G01 X34.373 Y45.083
G01 X34.8 Y45.209
G01 X35.232 Y45.313
G01 X35.67 Y45.394
G01 X36.111 Y45.452
G01 X36.555 Y45.487
G01 X37.0 Y45.499
G01 X37.444 Y45.487
G01 X37.888 Y45.452
G01 X38.329 Y45.394
G01 X38.767 Y45.313
G01 X39.199 Y45.209
G01 X39.626 Y45.083
G01 X40.045 Y44.934
G01 X40.457 Y44.764
G01 X40.858 Y44.573
G01 X41.249 Y44.36
G01 X41.629 Y44.128
G01 X41.995 Y43.876
G01 X42.348 Y43.605
G01 X42.687 Y43.316
G01 X43.01 Y43.01
G01 X43.316 Y42.687
G01 X43.605 Y42.348
G01 X43.876 Y41.995
G01 X44.128 Y41.629
G01 X44.36 Y41.249
G01 X44.573 Y40.858
G01 X44.764 Y40.457
G01 X44.934 Y40.045
G01 X45.083 Y39.626
G01 X45.209 Y39.199
G01 X45.313 Y38.767
G01 X45.394 Y38.329
G01 X45.452 Y37.888
G01 X45.487 Y37.444
G01 X45.499 Y37.0
G01 X45.487 Y36.555
G01 X45.452 Y36.111
G01 X45.394 Y35.67
G01 X45.313 Y35.232
G01 X45.209 Y34.8
G01 X45.083 Y34.373
G01 X44.934 Y33.954
G01 X44.764 Y33.542
G01 X44.573 Y33.141
G01 X44.36 Y32.75
G01 X44.128 Y32.37
G01 X43.876 Y32.004
G01 X43.605 Y31.651
G01 X43.316 Y31.312
G01 X43.01 Y30.989
G01 X42.687 Y30.683
G01 X42.348 Y30.394
G01 X41.995 Y30.123
G01 X41.629 Y29.871
G01 X41.249 Y29.639
G01 X40.858 Y29.426
G01 X40.457 Y29.235
G01 X40.045 Y29.065
G01 X39.626 Y28.916
G01 X39.199 Y28.79
G01 X38.767 Y28.686
G01 X38.329 Y28.605
G01 X37.888 Y28.547
G01 X37.444 Y28.512
G01 X37.0 Y28.5
G01 X36.555 Y28.512
G01 X36.111 Y28.547
G01 X35.67 Y28.605
G01 X35.232 Y28.686
G01 X34.8 Y28.79
G01 X34.373 Y28.916
G01 X33.954 Y29.065
G01 X33.542 Y29.235
G01 X33.141 Y29.426
G01 X32.75 Y29.639
G01 X32.37 Y29.871
G01 X32.004 Y30.123
G01 X31.651 Y30.394
G01 X31.312 Y30.683
G01 X30.989 Y30.989
G01 Z-6.3 F100
G01 X30.683 Y31.312 F1000
G01 X30.394 Y31.651
G01 X30.123 Y32.004
G01 X29.871 Y32.37
G01 X29.639 Y32.75
G01 X29.426 Y33.141
G01 X29.235 Y33.542
G01 X29.065 Y33.954
G01 X28.916 Y34.373
G01 X28.79 Y34.8
G01 X28.686 Y35.232
G01 X28.605 Y35.67
G01 X28.547 Y36.111
G01 X28.512 Y36.555
G01 X28.5 Y37.0
G01 X28.512 Y37.444
G01 X28.547 Y37.888
G01 X28.605 Y38.329
G01 X28.686 Y38.767
G01 X28.79 Y39.199
G01 X28.916 Y39.626
G01 X29.065 Y40.045
G01 X29.235 Y40.457
G01 X29.426 Y40.858
G01 X29.639 Y41.249
G01 X29.871 Y41.629
G01 X30.123 Y41.995
G01 X30.394 Y42.348
G01 X30.683 Y42.687
G01 X30.989 Y43.01
G01 X31.312 Y43.316
G01 X31.651 Y43.605
G01 X32.004 Y43.876
G01 X32.37 Y44.128
G01 X32.75 Y44.36
G01 X33.141 Y44.573
G01 X33.542 Y44.764
G01 X33.954 Y44.934
G01 X34.373 Y45.083
G01 X34.8 Y45.209
G01 X35.232 Y45.313
G01 X35.67 Y45.394
G01 X36.111 Y45.452
G01 X36.555 Y45.487
G01 X37.0 Y45.499
G01 X37.444 Y45.487
G01 X37.888 Y45.452
G01 X38.329 Y45.394
G01 X38.767 Y45.313
G01 X39.199 Y45.209
G01 X39.626 Y45.083
G01 X40.045 Y44.934
G01 X40.457 Y44.764
G01 X40.858 Y44.573
G01 X41.249 Y44.36
G01 X41.629 Y44.128
G01 X41.995 Y43.876
G01 X42.348 Y43.605
G01 X42.687 Y43.316
G01 X43.01 Y43.01
G01 X43.316 Y42.687
G01 X43.605 Y42.348
G01 X43.876 Y41.995
G01 X44.128 Y41.629
G01 X44.36 Y41.249
G01 X44.573 Y40.858
G01 X44.764 Y40.457
G01 X44.934 Y40.045
G01 X45.083 Y39.626
G01 X45.209 Y39.199
G01 X45.313 Y38.767
G01 X45.394 Y38.329
G01 X45.452 Y37.888
G01 X45.487 Y37.444
G01 X45.499 Y37.0
G01 X45.487 Y36.555
G01 X45.452 Y36.111
G01 X45.394 Y35.67
G01 X45.313 Y35.232
G01 X45.209 Y34.8
G01 X45.083 Y34.373
G01 X44.934 Y33.954
G01 X44.764 Y33.542
G01 X44.573 Y33.141
G01 X44.36 Y32.75
G01 X44.128 Y32.37
G01 X43.876 Y32.004
G01 X43.605 Y31.651
G01 X43.316 Y31.312
G01 X43.01 Y30.989
G01 X42.687 Y30.683
G01 X42.348 Y30.394
G01 X41.995 Y30.123
G01 X41.629 Y29.871
G01 X41.249 Y29.639
G01 X40.858 Y29.426
G01 X40.457 Y29.235
G01 X40.045 Y29.065
G01 X39.626 Y28.916
G01 X39.199 Y28.79
G01 X38.767 Y28.686
G01 X38.329 Y28.605
G01 X37.888 Y28.547
G01 X37.444 Y28.512
G01 X37.0 Y28.5
G01 X36.555 Y28.512
G01 X36.111 Y28.547
G01 X35.67 Y28.605
G01 X35.232 Y28.686
G01 X34.8 Y28.79
G01 X34.373 Y28.916
G01 X33.954 Y29.065
G01 X33.542 Y29.235
G01 X33.141 Y29.426
G01 X32.75 Y29.639
G01 X32.37 Y29.871
G01 X32.004 Y30.123
G01 X31.651 Y30.394
G01 X31.312 Y30.683
G01 X30.989 Y30.989
G00 Z2.0
 (--------------------------------------------------)
 (Object: #0)
 (Layer: 0)
 (Overcut: 0)
 (Depth: -6.300000)
 (Offset: Outside)
 (Tool-Num: 1)
 (Tool-Diameter: 3.00)
 (Tool-Speed: 12000)
 (--------------------------------------------------)
M05

M03
G00
G00 X25.053 Y18.507
G00 Z1.0
G01 Z-2.0 F100
G03 X25.2 Y18.5 I0.146 J1.492 F1000
G01 X48.8
G03 X48.946 Y18.507 I0.0 J1.5
G01 X49.961 Y18.607
G03 X50.249 Y18.664 I-0.146 J1.492
G01 X51.225 Y18.96
G03 X51.497 Y19.072 I-0.435 J1.435
G01 X52.396 Y19.553
G03 X52.64 Y19.716 I-0.707 J1.322
G01 X53.428 Y20.363
G03 X53.636 Y20.571 I-0.951 J1.159
G01 X54.283 Y21.359
G03 X54.446 Y21.603 I-1.159 J0.951
G01 X54.927 Y22.502
G03 X55.039 Y22.774 I-1.322 J0.707
G01 X55.335 Y23.75
G03 X55.392 Y24.038 I-1.435 J0.435
G01 X55.492 Y25.053
G03 X55.5 Y25.2 I-1.492 J0.146
G01 Y48.8
G03 X55.492 Y48.946 I-1.5 J0.0
G01 X55.392 Y49.961
G03 X55.335 Y50.249 I-1.492 J-0.146
G01 X55.039 Y51.225
G03 X54.927 Y51.497 I-1.435 J-0.435
G01 X54.446 Y52.396
G03 X54.283 Y52.64 I-1.322 J-0.707
G01 X53.636 Y53.428
G03 X53.428 Y53.636 I-1.159 J-0.951
G01 X52.64 Y54.283
G03 X52.396 Y54.446 I-0.951 J-1.159
G01 X51.497 Y54.927
G03 X51.225 Y55.039 I-0.707 J-1.322
G01 X50.249 Y55.335
G03 X49.961 Y55.392 I-0.435 J-1.435
G01 X48.946 Y55.492
G03 X48.8 Y55.5 I-0.146 J-1.492
G01 X25.2
G03 X25.053 Y55.492 I-0.0 J-1.5
G01 X24.038 Y55.392
G03 X23.75 Y55.335 I0.146 J-1.492
G01 X22.774 Y55.039
G03 X22.502 Y54.927 I0.435 J-1.435
G01 X21.603 Y54.446
G03 X21.359 Y54.283 I0.707 J-1.322
G01 X20.571 Y53.636
G03 X20.363 Y53.428 I0.951 J-1.159
G01 X19.716 Y52.64
G03 X19.553 Y52.396 I1.159 J-0.951
G01 X19.072 Y51.497
G03 X18.96 Y51.225 I1.322 J-0.707
G01 X18.664 Y50.249
G03 X18.607 Y49.961 I1.435 J-0.435
G01 X18.507 Y48.946
G03 X18.5 Y48.8 I1.492 J-0.146
G01 Y25.2
G03 X18.507 Y25.053 I1.5 J0.0
G01 X18.607 Y24.038
G03 X18.664 Y23.75 I1.492 J0.146
G01 X18.96 Y22.774
G03 X19.072 Y22.502 I1.435 J0.435
G01 X19.553 Y21.603
G03 X19.716 Y21.359 I1.322 J0.707
G01 X20.363 Y20.571
G03 X20.571 Y20.363 I1.159 J0.951
G01 X21.359 Y19.716
G03 X21.603 Y19.553 I0.951 J1.159
G01 X22.502 Y19.072
G03 X22.774 Y18.96 I0.707 J1.322
G01 X23.75 Y18.664
G03 X24.038 Y18.607 I0.435 J1.435
G01 X25.053 Y18.507
G01 Z-4.0 F100
G03 X25.2 Y18.5 I0.146 J1.492 F1000
G01 X48.8
G03 X48.946 Y18.507 I0.0 J1.5
G01 X49.961 Y18.607
G03 X50.249 Y18.664 I-0.146 J1.492
G01 X51.225 Y18.96
G03 X51.497 Y19.072 I-0.435 J1.435
G01 X52.396 Y19.553
G03 X52.64 Y19.716 I-0.707 J1.322
G01 X53.428 Y20.363
G03 X53.636 Y20.571 I-0.951 J1.159
G01 X54.283 Y21.359
G03 X54.446 Y21.603 I-1.159 J0.951
G01 X54.927 Y22.502
G03 X55.039 Y22.774 I-1.322 J0.707
G01 X55.335 Y23.75
G03 X55.392 Y24.038 I-1.435 J0.435
G01 X55.492 Y25.053
G03 X55.5 Y25.2 I-1.492 J0.146
G01 Y48.8
G03 X55.492 Y48.946 I-1.5 J0.0
G01 X55.392 Y49.961
G03 X55.335 Y50.249 I-1.492 J-0.146
G01 X55.039 Y51.225
G03 X54.927 Y51.497 I-1.435 J-0.435
G01 X54.446 Y52.396
G03 X54.283 Y52.64 I-1.322 J-0.707
G01 X53.636 Y53.428
G03 X53.428 Y53.636 I-1.159 J-0.951
G01 X52.64 Y54.283
G03 X52.396 Y54.446 I-0.951 J-1.159
G01 X51.497 Y54.927
G03 X51.225 Y55.039 I-0.707 J-1.322
G01 X50.249 Y55.335
G03 X49.961 Y55.392 I-0.435 J-1.435
G01 X48.946 Y55.492
G03 X48.8 Y55.5 I-0.146 J-1.492
G01 X25.2
G03 X25.053 Y55.492 I-0.0 J-1.5
G01 X24.038 Y55.392
G03 X23.75 Y55.335 I0.146 J-1.492
G01 X22.774 Y55.039
G03 X22.502 Y54.927 I0.435 J-1.435
G01 X21.603 Y54.446
G03 X21.359 Y54.283 I0.707 J-1.322
G01 X20.571 Y53.636
G03 X20.363 Y53.428 I0.951 J-1.159
G01 X19.716 Y52.64
G03 X19.553 Y52.396 I1.159 J-0.951
G01 X19.072 Y51.497
G03 X18.96 Y51.225 I1.322 J-0.707
G01 X18.664 Y50.249
G03 X18.607 Y49.961 I1.435 J-0.435
G01 X18.507 Y48.946
G03 X18.5 Y48.8 I1.492 J-0.146
G01 Y25.2
G03 X18.507 Y25.053 I1.5 J0.0
G01 X18.607 Y24.038
G03 X18.664 Y23.75 I1.492 J0.146
G01 X18.96 Y22.774
G03 X19.072 Y22.502 I1.435 J0.435
G01 X19.553 Y21.603
G03 X19.716 Y21.359 I1.322 J0.707
G01 X20.363 Y20.571
G03 X20.571 Y20.363 I1.159 J0.951
G01 X21.359 Y19.716
G03 X21.603 Y19.553 I0.951 J1.159
G01 X22.502 Y19.072
G03 X22.774 Y18.96 I0.707 J1.322
G01 X23.75 Y18.664
G03 X24.038 Y18.607 I0.435 J1.435
G01 X25.053 Y18.507
G01 Z-6.0 F100
G03 X25.2 Y18.5 I0.146 J1.492 F1000
G01 X33.0
G01 Z-5.0
G01 X41.0
G01 Z-6.0
G01 X48.8
G03 X48.946 Y18.507 I0.0 J1.5
G01 X49.961 Y18.607
G03 X50.249 Y18.664 I-0.146 J1.492
G01 X51.225 Y18.96
G03 X51.497 Y19.072 I-0.435 J1.435
G01 X52.396 Y19.553
G03 X52.64 Y19.716 I-0.707 J1.322
G01 X53.428 Y20.363
G03 X53.636 Y20.571 I-0.951 J1.159
G01 X54.283 Y21.359
G03 X54.446 Y21.603 I-1.159 J0.951
G01 X54.927 Y22.502
G03 X55.039 Y22.774 I-1.322 J0.707
G01 X55.335 Y23.75
G03 X55.392 Y24.038 I-1.435 J0.435
G01 X55.492 Y25.053
G03 X55.5 Y25.2 I-1.492 J0.146
G01 Y33.0
G01 Z-5.0
G01 Y41.0
G01 Z-6.0
G01 Y48.8
G03 X55.492 Y48.946 I-1.5 J0.0
G01 X55.392 Y49.961
G03 X55.335 Y50.249 I-1.492 J-0.146
G01 X55.039 Y51.225
G03 X54.927 Y51.497 I-1.435 J-0.435
G01 X54.446 Y52.396
G03 X54.283 Y52.64 I-1.322 J-0.707
G01 X53.636 Y53.428
G03 X53.428 Y53.636 I-1.159 J-0.951
G01 X52.64 Y54.283
G03 X52.396 Y54.446 I-0.951 J-1.159
G01 X51.497 Y54.927
G03 X51.225 Y55.039 I-0.707 J-1.322
G01 X50.249 Y55.335
G03 X49.961 Y55.392 I-0.435 J-1.435
G01 X48.946 Y55.492
G03 X48.8 Y55.5 I-0.146 J-1.492
G01 X41.0
G01 Z-5.0
G01 X33.0
G01 Z-6.0
G01 X25.2
G03 X25.053 Y55.492 I-0.0 J-1.5
G01 X24.038 Y55.392
G03 X23.75 Y55.335 I0.146 J-1.492
G01 X22.774 Y55.039
G03 X22.502 Y54.927 I0.435 J-1.435
G01 X21.603 Y54.446
G03 X21.359 Y54.283 I0.707 J-1.322
G01 X20.571 Y53.636
G03 X20.363 Y53.428 I0.951 J-1.159
G01 X19.716 Y52.64
G03 X19.553 Y52.396 I1.159 J-0.951
G01 X19.072 Y51.497
G03 X18.96 Y51.225 I1.322 J-0.707
G01 X18.664 Y50.249
G03 X18.607 Y49.961 I1.435 J-0.435
G01 X18.507 Y48.946
G03 X18.5 Y48.8 I1.492 J-0.146
G01 Y41.0
G01 Z-5.0
G01 Y33.0
G01 Z-6.0
G01 Y25.2
G03 X18.507 Y25.053 I1.5 J0.0
G01 X18.607 Y24.038
G03 X18.664 Y23.75 I1.492 J0.146
G01 X18.96 Y22.774
G03 X19.072 Y22.502 I1.435 J0.435
G01 X19.553 Y21.603
G03 X19.716 Y21.359 I1.322 J0.707
G01 X20.363 Y20.571
G03 X20.571 Y20.363 I1.159 J0.951
G01 X21.359 Y19.716
G03 X21.603 Y19.553 I0.951 J1.159
G01 X22.502 Y19.072
G03 X22.774 Y18.96 I0.707 J1.322
G01 X23.75 Y18.664
G03 X24.038 Y18.607 I0.435 J1.435
G01 X25.053 Y18.507
G01 Z-6.3 F100
G03 X25.2 Y18.5 I0.146 J1.492 F1000
G01 X33.0
G01 Z-5.0
G01 X41.0
G01 Z-6.3
G01 X48.8
G03 X48.946 Y18.507 I0.0 J1.5
G01 X49.961 Y18.607
G03 X50.249 Y18.664 I-0.146 J1.492
G01 X51.225 Y18.96
G03 X51.497 Y19.072 I-0.435 J1.435
G01 X52.396 Y19.553
G03 X52.64 Y19.716 I-0.707 J1.322
G01 X53.428 Y20.363
G03 X53.636 Y20.571 I-0.951 J1.159
G01 X54.283 Y21.359
G03 X54.446 Y21.603 I-1.159 J0.951
G01 X54.927 Y22.502
G03 X55.039 Y22.774 I-1.322 J0.707
G01 X55.335 Y23.75
G03 X55.392 Y24.038 I-1.435 J0.435
G01 X55.492 Y25.053
G03 X55.5 Y25.2 I-1.492 J0.146
G01 Y33.0
G01 Z-5.0
G01 Y41.0
G01 Z-6.3
G01 Y48.8
G03 X55.492 Y48.946 I-1.5 J0.0
G01 X55.392 Y49.961
G03 X55.335 Y50.249 I-1.492 J-0.146
G01 X55.039 Y51.225
G03 X54.927 Y51.497 I-1.435 J-0.435
G01 X54.446 Y52.396
G03 X54.283 Y52.64 I-1.322 J-0.707
G01 X53.636 Y53.428
G03 X53.428 Y53.636 I-1.159 J-0.951
G01 X52.64 Y54.283
G03 X52.396 Y54.446 I-0.951 J-1.159
G01 X51.497 Y54.927
G03 X51.225 Y55.039 I-0.707 J-1.322
G01 X50.249 Y55.335
G03 X49.961 Y55.392 I-0.435 J-1.435
G01 X48.946 Y55.492
G03 X48.8 Y55.5 I-0.146 J-1.492
G01 X41.0
G01 Z-5.0
G01 X33.0
G01 Z-6.3
G01 X25.2
G03 X25.053 Y55.492 I-0.0 J-1.5
G01 X24.038 Y55.392
G03 X23.75 Y55.335 I0.146 J-1.492
G01 X22.774 Y55.039
G03 X22.502 Y54.927 I0.435 J-1.435
G01 X21.603 Y54.446
G03 X21.359 Y54.283 I0.707 J-1.322
G01 X20.571 Y53.636
G03 X20.363 Y53.428 I0.951 J-1.159
G01 X19.716 Y52.64
G03 X19.553 Y52.396 I1.159 J-0.951
G01 X19.072 Y51.497
G03 X18.96 Y51.225 I1.322 J-0.707
G01 X18.664 Y50.249
G03 X18.607 Y49.961 I1.435 J-0.435
G01 X18.507 Y48.946
G03 X18.5 Y48.8 I1.492 J-0.146
G01 Y41.0
G01 Z-5.0
G01 Y33.0
G01 Z-6.3
G01 Y25.2
G03 X18.507 Y25.053 I1.5 J0.0
G01 X18.607 Y24.038
G03 X18.664 Y23.75 I1.492 J0.146
G01 X18.96 Y22.774
G03 X19.072 Y22.502 I1.435 J0.435
G01 X19.553 Y21.603
G03 X19.716 Y21.359 I1.322 J0.707
G01 X20.363 Y20.571
G03 X20.571 Y20.363 I1.159 J0.951
G01 X21.359 Y19.716
G03 X21.603 Y19.553 I0.951 J1.159
G01 X22.502 Y19.072
G03 X22.774 Y18.96 I0.707 J1.322
G01 X23.75 Y18.664
G03 X24.038 Y18.607 I0.435 J1.435
G01 X25.053 Y18.507
G00 Z2.0
M05
M02
 (--------------------------------------------------)
 (CAMmill-Configuration)
 (cfg:View-Zoom: 0.580001)
 (cfg:View-Helplines: 1)
 (cfg:View-ShowGrid: 1)
 (cfg:View-ShowTool: 1)
 (cfg:View-Textures: 0)
 (cfg:View-Rotate-X: -25.000000)
 (cfg:View-Rotate-Y: 0.000000)
 (cfg:View-Rotate-Z: -6.800000)
 (cfg:View-Translate-X: -22)
 (cfg:View-Translate-Y: -2)
 (cfg:View-Grid-Size: 10.000000)
 (cfg:View-Arrow-Scale: 1.000000)
 (cfg:Tool-Select: -1)
 (cfg:Tool-Number: 1)
 (cfg:Tool-Diameter: 3.000000)
 (cfg:Tool-Speed: 12000)
 (cfg:Tool-Coolant: 0)
 (cfg:Tool-Kepp spinning: 1)
 (cfg:Milling-FeedRate: 1000)
 (cfg:Milling-PlungeRate: 100)
 (cfg:Milling-Depth: -6.300000)
 (cfg:Milling-Z-Step: -2.000000)
 (cfg:Milling-Save-Move: 2.000000)
 (cfg:Milling-Overcut: 0)
 (cfg:Milling-Lasermode: 0)
 (cfg:Milling-Climb: 0)
 (cfg:Milling-NoOffsets: 0)
 (cfg:Milling-Helix: 1)
 (cfg:Milling-Velocity-Mode: 0)
 (cfg:Milling-Blending Tolerance: 0.050000)
 (cfg:Milling-DXF-File: /home/tim/3d/tim-open-things/mill-highpowerledbracket/bracket-insert.dxf)
 (cfg:Milling-Output-File: /home/tim/3d/tim-open-things/mill-highpowerledbracket/bracket-insert.ngc)
 (cfg:Pockets-Pocket: 1)
 (cfg:Pockets-Pocket-Stepover: 50)
 (cfg:Holding-Tabs-Activate: 1)
 (cfg:Holding-Tabs-Show Grid: 1)
 (cfg:Holding-Tabs-Depth: -5.000000)
 (cfg:Holding-Tabs-Length: 5.000000)
 (cfg:Holding-Tabs-Triangle-Type: 0)
 (cfg:Holding-Tabs-On Open: 0)
 (cfg:Holding-Tabs-On Inside: 0)
 (cfg:Holding-Tabs-On Outside: 1)
 (cfg:Holding-Tabs-X-Grid: 17.000000)
 (cfg:Holding-Tabs-Y-Grid: 17.000000)
 (cfg:Text-Mill Text: 0)
 (cfg:Text-Mill-Depth: -0.500000)
 (cfg:Text-Fixed-W: 1)
 (cfg:Text-Scale-W: 1.000000)
 (cfg:Text-Scale-H: 1.000000)
 (cfg:Text-Font: 0)
 (cfg:Text-Overwrite: 0)
 (cfg:Text-Tool-Number: 1)
 (cfg:Text-Tool-Diameter: 3.000000)
 (cfg:Text-Tool-Speed: 12000)
 (cfg:Machine-Fastmove-Speed: 2000)
 (cfg:Machine-Spindle-Delay: 1.000000)
 (cfg:Machine-Fast-Z: 1.000000)
 (cfg:Machine-Post: 0)
 (cfg:Machine-Post-Command: )
 (cfg:Calculation-Tool-Flutes: 2)
 (cfg:Calculation-Select: 8)
 (cfg:Calculation-Cutting Speed: 2000)
 (cfg:Calculation-Feed/Tooth@<4mm: 0.040000)
 (cfg:Calculation-Feed/Tooth@<8mm: 0.080000)
 (cfg:Calculation-Feed/Tooth@<12mm: 0.100000)
 (cfg:Calculation-CalcSpeed: 212206)
 (cfg:Calculation-MaxFeedRate: 960)
 (cfg:Objects-Select: 0)
 (cfg:Objects-Use: 1)
 (cfg:Objects-Overwrite: 0)
 (cfg:Objects-Climb: 0)
 (cfg:Objects-Offset: 2)
 (cfg:Objects-Overcut: 0)
 (cfg:Objects-Pocket: 0)
 (cfg:Objects-Helix: 1)
 (cfg:Objects-Laser: 0)
 (cfg:Objects-Depth: -6.300000)
 (cfg:Objects-Holding-Tab's: 1)
 (cfg:Objects-Order: 5)
 (cfg:Objects-Tool-Number: 1)
 (cfg:Objects-Tool-Diameter: 3.000000)
 (cfg:Objects-Tool-Speed: 12000)
 (cfg:Rotary-Activate: 0)
 (cfg:Rotary-Axis: 0)
 (cfg:Rotary-Diameter: 100.000000)
 (cfg:Tangencial-Activate: 0)
 (cfg:Tangencial-Axis: 1)
 (cfg:Tangencial-MaxAngle: 10.000000)
 (cfg:Window-X-Position: 0)
 (cfg:Window-Y-Position: 55)
 (cfg:Window-Width: 3246)
 (cfg:Window-Height: 1565)
 (cfg:Window-Maximized: 0)
 (cfg:Misc-Unit: 1)
 (cfg:Misc-Tolerance: 0.001000)
 (cfg:Misc-Tool-Table: )
 (cfg:Misc-Parameter: 0)
 (cfg:Misc-Setup-Autosave: 1)
 (cfg:Misc-Batchmode: 0)
 (cfg:Misc-LoadPath: /home/tim/3d/tim-open-things/mill-highpowerledbracket)
 (cfg:Misc-SavePath: /home/tim/3d/tim-open-things/mill-highpowerledbracket)
 (cfg:Misc-PresetPath: /home/tim)
 (cfg:Misc-Delete Double Lines: 1)
 (cfg:Misc-Zero: 1)
 (cfg:Misc-Zero-Offset-X: 0.000000)
 (cfg:Misc-Zero-Offset-Y: 0.000000)
 (cfg:Misc-Append Config: 1)
 (cfg:Misc-Texture: ../share/cammill/textures/wood.bmp)
 (cfg:Misc-NC-Debug: 0)
 (--------------------------------------------------)
