 ( CAMmill GRBL Postprocessor )
 ( Ver: 20150830 - by onekk )
 ( GRBL Support only G61 mode )
 ( Version < 0.9i build 20150529 )
 ( must delete the G61 from this file )
 ( otherwise it raise an error )
G21 (Metric/mm)
G40 (No Offsets)
G90 (Absolute-Mode)
G61
F100
 (--------------------------------------------------)
 (Object: #10)
 (Layer: 0)
 (Pocket-Operation)
 (--------------------------------------------------)
 (--------------------------------------------------)
 (Object: #10)
 (Layer: 0)
 (Overcut: 0)
 (Depth: -6.300000)
 (Offset: Inside)
 (Tool-Num: 1)
 (Tool-Diameter: 3.00)
 (Tool-Speed: 10000)
 (--------------------------------------------------)
M05
M6 T1
M03 S10000
G00 X1.111 Y1.111 Z1.0
G00 X7.298 Y7.298
G01 Z-2.0
G01 X7.174 Y7.448 F200
G01 X7.082 Y7.62
G01 X7.026 Y7.806
G01 X7.007 Y8.0
G01 X7.026 Y8.193
G01 X7.082 Y8.379
G01 X7.174 Y8.551
G01 X7.298 Y8.701
G01 X7.448 Y8.825
G01 X7.62 Y8.917
G01 X7.806 Y8.973
G01 X8.0 Y8.992
G01 X8.193 Y8.973
G01 X8.379 Y8.917
G01 X8.551 Y8.825
G01 X8.701 Y8.701
G01 X8.825 Y8.551
G01 X8.917 Y8.379
G01 X8.973 Y8.193
G01 X8.992 Y8.0
G01 X8.973 Y7.806
G01 X8.917 Y7.62
G01 X8.825 Y7.448
G01 X8.701 Y7.298
G01 X8.551 Y7.174
G01 X8.379 Y7.082
G01 X8.193 Y7.026
G01 X8.0 Y7.007
G01 X7.806 Y7.026
G01 X7.62 Y7.082
G01 X7.448 Y7.174
G01 X7.298 Y7.298
G01 Z-4.0 F100
G01 X7.174 Y7.448 F200
G01 X7.082 Y7.62
G01 X7.026 Y7.806
G01 X7.007 Y8.0
G01 X7.026 Y8.193
G01 X7.082 Y8.379
G01 X7.174 Y8.551
G01 X7.298 Y8.701
G01 X7.448 Y8.825
G01 X7.62 Y8.917
G01 X7.806 Y8.973
G01 X8.0 Y8.992
G01 X8.193 Y8.973
G01 X8.379 Y8.917
G01 X8.551 Y8.825
G01 X8.701 Y8.701
G01 X8.825 Y8.551
G01 X8.917 Y8.379
G01 X8.973 Y8.193
G01 X8.992 Y8.0
G01 X8.973 Y7.806
G01 X8.917 Y7.62
G01 X8.825 Y7.448
G01 X8.701 Y7.298
G01 X8.551 Y7.174
G01 X8.379 Y7.082
G01 X8.193 Y7.026
G01 X8.0 Y7.007
G01 X7.806 Y7.026
G01 X7.62 Y7.082
G01 X7.448 Y7.174
G01 X7.298 Y7.298
G01 Z-6.0 F100
G01 X7.174 Y7.448 F200
G01 X7.082 Y7.62
G01 X7.026 Y7.806
G01 X7.007 Y8.0
G01 X7.026 Y8.193
G01 X7.082 Y8.379
G01 X7.174 Y8.551
G01 X7.298 Y8.701
G01 X7.448 Y8.825
G01 X7.62 Y8.917
G01 X7.806 Y8.973
G01 X8.0 Y8.992
G01 X8.193 Y8.973
G01 X8.379 Y8.917
G01 X8.551 Y8.825
G01 X8.701 Y8.701
G01 X8.825 Y8.551
G01 X8.917 Y8.379
G01 X8.973 Y8.193
G01 X8.992 Y8.0
G01 X8.973 Y7.806
G01 X8.917 Y7.62
G01 X8.825 Y7.448
G01 X8.701 Y7.298
G01 X8.551 Y7.174
G01 X8.379 Y7.082
G01 X8.193 Y7.026
G01 X8.0 Y7.007
G01 X7.806 Y7.026
G01 X7.62 Y7.082
G01 X7.448 Y7.174
G01 X7.298 Y7.298
G01 Z-6.3 F100
G01 X7.174 Y7.448 F200
G01 X7.082 Y7.62
G01 X7.026 Y7.806
G01 X7.007 Y8.0
G01 X7.026 Y8.193
G01 X7.082 Y8.379
G01 X7.174 Y8.551
G01 X7.298 Y8.701
G01 X7.448 Y8.825
G01 X7.62 Y8.917
G01 X7.806 Y8.973
G01 X8.0 Y8.992
G01 X8.193 Y8.973
G01 X8.379 Y8.917
G01 X8.551 Y8.825
G01 X8.701 Y8.701
G01 X8.825 Y8.551
G01 X8.917 Y8.379
G01 X8.973 Y8.193
G01 X8.992 Y8.0
G01 X8.973 Y7.806
G01 X8.917 Y7.62
G01 X8.825 Y7.448
G01 X8.701 Y7.298
G01 X8.551 Y7.174
G01 X8.379 Y7.082
G01 X8.193 Y7.026
G01 X8.0 Y7.007
G01 X7.806 Y7.026
G01 X7.62 Y7.082
G01 X7.448 Y7.174
G01 X7.298 Y7.298
G00 Z1.0
 (--------------------------------------------------)
 (Object: #8)
 (Layer: 0)
 (Pocket-Operation)
 (--------------------------------------------------)
 (--------------------------------------------------)
 (Object: #8)
 (Layer: 0)
 (Overcut: 0)
 (Depth: -6.300000)
 (Offset: Inside)
 (Tool-Num: 1)
 (Tool-Diameter: 3.00)
 (Tool-Speed: 10000)
 (--------------------------------------------------)
M05

M03
G00
G00 X7.981 Y13.909
G01 Z-2.0 F100
G01 X7.964 Y13.914 F200
G01 X7.948 Y13.922
G01 X7.934 Y13.934
G01 X7.922 Y13.948
G01 X7.914 Y13.964
G01 X7.909 Y13.981
G01 X7.907 Y14.0
G01 X7.909 Y14.018
G01 X7.914 Y14.035
G01 X7.922 Y14.051
G01 X7.934 Y14.065
G01 X7.948 Y14.077
G01 X7.964 Y14.085
G01 X7.981 Y14.09
G01 X8.0 Y14.092
G01 X8.018 Y14.09
G01 X8.035 Y14.085
G01 X8.051 Y14.077
G01 X8.065 Y14.065
G01 X8.077 Y14.051
G01 X8.085 Y14.035
G01 X8.09 Y14.018
G01 X8.092 Y14.0
G01 X8.09 Y13.981
G01 X8.085 Y13.964
G01 X8.077 Y13.948
G01 X8.065 Y13.934
G01 X8.051 Y13.922
G01 X8.035 Y13.914
G01 X8.018 Y13.909
G01 X8.0 Y13.907
G01 X7.981 Y13.909
G01 Z-4.0 F100
G01 X7.964 Y13.914 F200
G01 X7.948 Y13.922
G01 X7.934 Y13.934
G01 X7.922 Y13.948
G01 X7.914 Y13.964
G01 X7.909 Y13.981
G01 X7.907 Y14.0
G01 X7.909 Y14.018
G01 X7.914 Y14.035
G01 X7.922 Y14.051
G01 X7.934 Y14.065
G01 X7.948 Y14.077
G01 X7.964 Y14.085
G01 X7.981 Y14.09
G01 X8.0 Y14.092
G01 X8.018 Y14.09
G01 X8.035 Y14.085
G01 X8.051 Y14.077
G01 X8.065 Y14.065
G01 X8.077 Y14.051
G01 X8.085 Y14.035
G01 X8.09 Y14.018
G01 X8.092 Y14.0
G01 X8.09 Y13.981
G01 X8.085 Y13.964
G01 X8.077 Y13.948
G01 X8.065 Y13.934
G01 X8.051 Y13.922
G01 X8.035 Y13.914
G01 X8.018 Y13.909
G01 X8.0 Y13.907
G01 X7.981 Y13.909
G01 Z-6.0 F100
G01 X7.964 Y13.914 F200
G01 X7.948 Y13.922
G01 X7.934 Y13.934
G01 X7.922 Y13.948
G01 X7.914 Y13.964
G01 X7.909 Y13.981
G01 X7.907 Y14.0
G01 X7.909 Y14.018
G01 X7.914 Y14.035
G01 X7.922 Y14.051
G01 X7.934 Y14.065
G01 X7.948 Y14.077
G01 X7.964 Y14.085
G01 X7.981 Y14.09
G01 X8.0 Y14.092
G01 X8.018 Y14.09
G01 X8.035 Y14.085
G01 X8.051 Y14.077
G01 X8.065 Y14.065
G01 X8.077 Y14.051
G01 X8.085 Y14.035
G01 X8.09 Y14.018
G01 X8.092 Y14.0
G01 X8.09 Y13.981
G01 X8.085 Y13.964
G01 X8.077 Y13.948
G01 X8.065 Y13.934
G01 X8.051 Y13.922
G01 X8.035 Y13.914
G01 X8.018 Y13.909
G01 X8.0 Y13.907
G01 X7.981 Y13.909
G01 Z-6.3 F100
G01 X7.964 Y13.914 F200
G01 X7.948 Y13.922
G01 X7.934 Y13.934
G01 X7.922 Y13.948
G01 X7.914 Y13.964
G01 X7.909 Y13.981
G01 X7.907 Y14.0
G01 X7.909 Y14.018
G01 X7.914 Y14.035
G01 X7.922 Y14.051
G01 X7.934 Y14.065
G01 X7.948 Y14.077
G01 X7.964 Y14.085
G01 X7.981 Y14.09
G01 X8.0 Y14.092
G01 X8.018 Y14.09
G01 X8.035 Y14.085
G01 X8.051 Y14.077
G01 X8.065 Y14.065
G01 X8.077 Y14.051
G01 X8.085 Y14.035
G01 X8.09 Y14.018
G01 X8.092 Y14.0
G01 X8.09 Y13.981
G01 X8.085 Y13.964
G01 X8.077 Y13.948
G01 X8.065 Y13.934
G01 X8.051 Y13.922
G01 X8.035 Y13.914
G01 X8.018 Y13.909
G01 X8.0 Y13.907
G01 X7.981 Y13.909
G00 Z1.0
 (--------------------------------------------------)
 (Object: #5)
 (Layer: 0)
 (Pocket-Operation)
 (--------------------------------------------------)
G00
G00 X32.25 Y33.0
G01 Z-2.0 F100
G01 X67.5 F200
G01 Y34.5
G01 X64.5
G01 X66.0 Y36.0
G01 X67.5
G01 Y37.5
G01 X66.0
G01 Y39.0
G01 X67.5
G01 Y40.5
G01 X66.0
G01 Y42.0
G01 X67.5
G01 Y43.5
G01 X66.0
G01 Y45.0
G01 X67.5
G01 Y46.5
G01 X66.0
G01 Y48.0
G01 X67.5
G01 Y49.5
G01 X66.0
G01 Y51.0
G01 X67.5
G01 Y52.5
G01 X66.0
G01 Y54.0
G01 X67.5
G01 Y55.5
G01 X66.0
G01 Y57.0
G01 X67.5
G01 Y58.5
G01 X66.0
G01 Y60.0
G01 X67.5
G01 Y61.5
G01 X66.0
G01 Y63.0
G01 X67.5
G01 Y64.5
G01 X65.25
G01 X67.5 Y66.0
G01 X32.25
G01 Y64.5
G01 X34.5
G01 X33.75 Y63.0
G01 X32.25
G01 Y61.5
G01 X33.75
G01 Y60.0
G01 X32.25
G01 Y58.5
G01 X33.75
G01 Y57.0
G01 X32.25
G01 Y55.5
G01 X33.75
G01 Y54.0
G01 X32.25
G01 Y52.5
G01 X33.75
G01 Y51.0
G01 X32.25
G01 Y49.5
G01 X33.75
G01 Y48.0
G01 X32.25
G01 Y46.5
G01 X33.75
G01 Y45.0
G01 X32.25
G01 Y43.5
G01 X33.75
G01 Y42.0
G01 X32.25
G01 Y40.5
G01 X33.75
G01 Y39.0
G01 X32.25
G01 Y37.5
G01 X33.75
G01 X34.5 Y36.0
G01 X32.25
G01 Y34.5
G01 X36.0
G00 Z1.0
G00 X32.25 Y67.5
G01 Z-2.0 F100
G01 X67.5 F200
G00 Z1.0
G00 X32.25 Y33.0
G00 Z-1.0
G01 Z-4.0 F100
G01 X67.5 F200
G01 Y34.5
G01 X64.5
G01 X66.0 Y36.0
G01 X67.5
G01 Y37.5
G01 X66.0
G01 Y39.0
G01 X67.5
G01 Y40.5
G01 X66.0
G01 Y42.0
G01 X67.5
G01 Y43.5
G01 X66.0
G01 Y45.0
G01 X67.5
G01 Y46.5
G01 X66.0
G01 Y48.0
G01 X67.5
G01 Y49.5
G01 X66.0
G01 Y51.0
G01 X67.5
G01 Y52.5
G01 X66.0
G01 Y54.0
G01 X67.5
G01 Y55.5
G01 X66.0
G01 Y57.0
G01 X67.5
G01 Y58.5
G01 X66.0
G01 Y60.0
G01 X67.5
G01 Y61.5
G01 X66.0
G01 Y63.0
G01 X67.5
G01 Y64.5
G01 X65.25
G01 X67.5 Y66.0
G01 X32.25
G01 Y64.5
G01 X34.5
G01 X33.75 Y63.0
G01 X32.25
G01 Y61.5
G01 X33.75
G01 Y60.0
G01 X32.25
G01 Y58.5
G01 X33.75
G01 Y57.0
G01 X32.25
G01 Y55.5
G01 X33.75
G01 Y54.0
G01 X32.25
G01 Y52.5
G01 X33.75
G01 Y51.0
G01 X32.25
G01 Y49.5
G01 X33.75
G01 Y48.0
G01 X32.25
G01 Y46.5
G01 X33.75
G01 Y45.0
G01 X32.25
G01 Y43.5
G01 X33.75
G01 Y42.0
G01 X32.25
G01 Y40.5
G01 X33.75
G01 Y39.0
G01 X32.25
G01 Y37.5
G01 X33.75
G01 X34.5 Y36.0
G01 X32.25
G01 Y34.5
G01 X36.0
G00 Z1.0
G00 X32.25 Y67.5
G00 Z-1.0
G01 Z-4.0 F100
G01 X67.5 F200
G00 Z1.0
G00 X32.25 Y33.0
G00 Z-3.0
G01 Z-6.0 F100
G01 X67.5 F200
G01 Y34.5
G01 X64.5
G01 X66.0 Y36.0
G01 X67.5
G01 Y37.5
G01 X66.0
G01 Y39.0
G01 X67.5
G01 Y40.5
G01 X66.0
G01 Y42.0
G01 X67.5
G01 Y43.5
G01 X66.0
G01 Y45.0
G01 X67.5
G01 Y46.5
G01 X66.0
G01 Y48.0
G01 X67.5
G01 Y49.5
G01 X66.0
G01 Y51.0
G01 X67.5
G01 Y52.5
G01 X66.0
G01 Y54.0
G01 X67.5
G01 Y55.5
G01 X66.0
G01 Y57.0
G01 X67.5
G01 Y58.5
G01 X66.0
G01 Y60.0
G01 X67.5
G01 Y61.5
G01 X66.0
G01 Y63.0
G01 X67.5
G01 Y64.5
G01 X65.25
G01 X67.5 Y66.0
G01 X32.25
G01 Y64.5
G01 X34.5
G01 X33.75 Y63.0
G01 X32.25
G01 Y61.5
G01 X33.75
G01 Y60.0
G01 X32.25
G01 Y58.5
G01 X33.75
G01 Y57.0
G01 X32.25
G01 Y55.5
G01 X33.75
G01 Y54.0
G01 X32.25
G01 Y52.5
G01 X33.75
G01 Y51.0
G01 X32.25
G01 Y49.5
G01 X33.75
G01 Y48.0
G01 X32.25
G01 Y46.5
G01 X33.75
G01 Y45.0
G01 X32.25
G01 Y43.5
G01 X33.75
G01 Y42.0
G01 X32.25
G01 Y40.5
G01 X33.75
G01 Y39.0
G01 X32.25
G01 Y37.5
G01 X33.75
G01 X34.5 Y36.0
G01 X32.25
G01 Y34.5
G01 X36.0
G00 Z1.0
G00 X32.25 Y67.5
G00 Z-3.0
G01 Z-6.0 F100
G01 X67.5 F200
G00 Z1.0
G00 X32.25 Y33.0
G00 Z-5.0
G01 Z-6.3 F100
G01 X67.5 F200
G01 Y34.5
G01 X64.5
G01 X66.0 Y36.0
G01 X67.5
G01 Y37.5
G01 X66.0
G01 Y39.0
G01 X67.5
G01 Y40.5
G01 X66.0
G01 Y42.0
G01 X67.5
G01 Y43.5
G01 X66.0
G01 Y45.0
G01 X67.5
G01 Y46.5
G01 X66.0
G01 Y48.0
G01 X67.5
G01 Y49.5
G01 X66.0
G01 Y51.0
G01 X67.5
G01 Y52.5
G01 X66.0
G01 Y54.0
G01 X67.5
G01 Y55.5
G01 X66.0
G01 Y57.0
G01 X67.5
G01 Y58.5
G01 X66.0
G01 Y60.0
G01 X67.5
G01 Y61.5
G01 X66.0
G01 Y63.0
G01 X67.5
G01 Y64.5
G01 X65.25
G01 X67.5 Y66.0
G01 X32.25
G01 Y64.5
G01 X34.5
G01 X33.75 Y63.0
G01 X32.25
G01 Y61.5
G01 X33.75
G01 Y60.0
G01 X32.25
G01 Y58.5
G01 X33.75
G01 Y57.0
G01 X32.25
G01 Y55.5
G01 X33.75
G01 Y54.0
G01 X32.25
G01 Y52.5
G01 X33.75
G01 Y51.0
G01 X32.25
G01 Y49.5
G01 X33.75
G01 Y48.0
G01 X32.25
G01 Y46.5
G01 X33.75
G01 Y45.0
G01 X32.25
G01 Y43.5
G01 X33.75
G01 Y42.0
G01 X32.25
G01 Y40.5
G01 X33.75
G01 Y39.0
G01 X32.25
G01 Y37.5
G01 X33.75
G01 X34.5 Y36.0
G01 X32.25
G01 Y34.5
G01 X36.0
G00 Z1.0
G00 X32.25 Y67.5
G00 Z-5.0
G01 Z-6.3 F100
G01 X67.5 F200
 (--------------------------------------------------)
 (Object: #5)
 (Layer: 0)
 (Overcut: 0)
 (Depth: -6.300000)
 (Offset: Inside)
 (Tool-Num: 1)
 (Tool-Diameter: 3.00)
 (Tool-Speed: 10000)
 (--------------------------------------------------)
M05

M03
G00 Z1.0
G00 X31.59 Y31.726
G01 Z-2.0 F100
G01 X31.544 Y31.811 F200
G01 X31.516 Y31.903
G01 X31.5 Y32.073
G01 Y67.926
G01 X31.516 Y68.096
G01 X31.544 Y68.188
G01 X31.59 Y68.273
G01 X31.651 Y68.348
G01 X31.726 Y68.409
G01 X31.811 Y68.455
G01 X31.903 Y68.483
G01 X32.073 Y68.5
G01 X67.926
G01 X68.096 Y68.483
G01 X68.188 Y68.455
G01 X68.273 Y68.409
G01 X68.348 Y68.348
G01 X68.409 Y68.273
G01 X68.455 Y68.188
G01 X68.483 Y68.096
G01 X68.5 Y67.926
G01 Y32.073
G01 X68.483 Y31.903
G01 X68.455 Y31.811
G01 X68.409 Y31.726
G01 X68.348 Y31.651
G01 X68.273 Y31.59
G01 X68.188 Y31.544
G01 X68.096 Y31.516
G01 X67.926 Y31.5
G01 X32.073
G01 X31.903 Y31.516
G01 X31.811 Y31.544
G01 X31.726 Y31.59
G01 X31.651 Y31.651
G01 X31.59 Y31.726
G01 Z-4.0 F100
G01 X31.544 Y31.811 F200
G01 X31.516 Y31.903
G01 X31.5 Y32.073
G01 Y67.926
G01 X31.516 Y68.096
G01 X31.544 Y68.188
G01 X31.59 Y68.273
G01 X31.651 Y68.348
G01 X31.726 Y68.409
G01 X31.811 Y68.455
G01 X31.903 Y68.483
G01 X32.073 Y68.5
G01 X67.926
G01 X68.096 Y68.483
G01 X68.188 Y68.455
G01 X68.273 Y68.409
G01 X68.348 Y68.348
G01 X68.409 Y68.273
G01 X68.455 Y68.188
G01 X68.483 Y68.096
G01 X68.5 Y67.926
G01 Y32.073
G01 X68.483 Y31.903
G01 X68.455 Y31.811
G01 X68.409 Y31.726
G01 X68.348 Y31.651
G01 X68.273 Y31.59
G01 X68.188 Y31.544
G01 X68.096 Y31.516
G01 X67.926 Y31.5
G01 X32.073
G01 X31.903 Y31.516
G01 X31.811 Y31.544
G01 X31.726 Y31.59
G01 X31.651 Y31.651
G01 X31.59 Y31.726
G01 Z-6.0 F100
G01 X31.544 Y31.811 F200
G01 X31.516 Y31.903
G01 X31.5 Y32.073
G01 Y67.926
G01 X31.516 Y68.096
G01 X31.544 Y68.188
G01 X31.59 Y68.273
G01 X31.651 Y68.348
G01 X31.726 Y68.409
G01 X31.811 Y68.455
G01 X31.903 Y68.483
G01 X32.073 Y68.5
G01 X67.926
G01 X68.096 Y68.483
G01 X68.188 Y68.455
G01 X68.273 Y68.409
G01 X68.348 Y68.348
G01 X68.409 Y68.273
G01 X68.455 Y68.188
G01 X68.483 Y68.096
G01 X68.5 Y67.926
G01 Y32.073
G01 X68.483 Y31.903
G01 X68.455 Y31.811
G01 X68.409 Y31.726
G01 X68.348 Y31.651
G01 X68.273 Y31.59
G01 X68.188 Y31.544
G01 X68.096 Y31.516
G01 X67.926 Y31.5
G01 X32.073
G01 X31.903 Y31.516
G01 X31.811 Y31.544
G01 X31.726 Y31.59
G01 X31.651 Y31.651
G01 X31.59 Y31.726
G01 Z-6.3 F100
G01 X31.544 Y31.811 F200
G01 X31.516 Y31.903
G01 X31.5 Y32.073
G01 Y67.926
G01 X31.516 Y68.096
G01 X31.544 Y68.188
G01 X31.59 Y68.273
G01 X31.651 Y68.348
G01 X31.726 Y68.409
G01 X31.811 Y68.455
G01 X31.903 Y68.483
G01 X32.073 Y68.5
G01 X67.926
G01 X68.096 Y68.483
G01 X68.188 Y68.455
G01 X68.273 Y68.409
G01 X68.348 Y68.348
G01 X68.409 Y68.273
G01 X68.455 Y68.188
G01 X68.483 Y68.096
G01 X68.5 Y67.926
G01 Y32.073
G01 X68.483 Y31.903
G01 X68.455 Y31.811
G01 X68.409 Y31.726
G01 X68.348 Y31.651
G01 X68.273 Y31.59
G01 X68.188 Y31.544
G01 X68.096 Y31.516
G01 X67.926 Y31.5
G01 X32.073
G01 X31.903 Y31.516
G01 X31.811 Y31.544
G01 X31.726 Y31.59
G01 X31.651 Y31.651
G01 X31.59 Y31.726
G00 Z1.0
 (--------------------------------------------------)
 (Object: #4)
 (Layer: 0)
 (Pocket-Operation)
 (--------------------------------------------------)
 (--------------------------------------------------)
 (Object: #4)
 (Layer: 0)
 (Overcut: 0)
 (Depth: -6.300000)
 (Offset: Inside)
 (Tool-Num: 1)
 (Tool-Diameter: 3.00)
 (Tool-Speed: 10000)
 (--------------------------------------------------)
M05

M03
G00
G00 X8.035 Y85.914
G01 Z-2.0 F100
G01 X8.017 Y85.909 F200
G01 X8.0 Y85.907
G01 X7.982 Y85.909
G01 X7.964 Y85.914
G01 X7.948 Y85.923
G01 X7.933 Y85.935
G01 X7.922 Y85.948
G01 X7.914 Y85.964
G01 X7.909 Y85.982
G01 X7.907 Y86.0
G01 X7.909 Y86.017
G01 X7.914 Y86.035
G01 X7.922 Y86.051
G01 X7.933 Y86.064
G01 X7.948 Y86.076
G01 X7.964 Y86.085
G01 X7.982 Y86.09
G01 X8.0 Y86.092
G01 X8.017 Y86.09
G01 X8.035 Y86.085
G01 X8.051 Y86.076
G01 X8.066 Y86.064
G01 X8.077 Y86.051
G01 X8.085 Y86.035
G01 X8.091 Y86.017
G01 X8.092 Y86.0
G01 X8.091 Y85.982
G01 X8.085 Y85.964
G01 X8.077 Y85.948
G01 X8.066 Y85.935
G01 X8.051 Y85.923
G01 X8.035 Y85.914
G01 Z-4.0 F100
G01 X8.017 Y85.909 F200
G01 X8.0 Y85.907
G01 X7.982 Y85.909
G01 X7.964 Y85.914
G01 X7.948 Y85.923
G01 X7.933 Y85.935
G01 X7.922 Y85.948
G01 X7.914 Y85.964
G01 X7.909 Y85.982
G01 X7.907 Y86.0
G01 X7.909 Y86.017
G01 X7.914 Y86.035
G01 X7.922 Y86.051
G01 X7.933 Y86.064
G01 X7.948 Y86.076
G01 X7.964 Y86.085
G01 X7.982 Y86.09
G01 X8.0 Y86.092
G01 X8.017 Y86.09
G01 X8.035 Y86.085
G01 X8.051 Y86.076
G01 X8.066 Y86.064
G01 X8.077 Y86.051
G01 X8.085 Y86.035
G01 X8.091 Y86.017
G01 X8.092 Y86.0
G01 X8.091 Y85.982
G01 X8.085 Y85.964
G01 X8.077 Y85.948
G01 X8.066 Y85.935
G01 X8.051 Y85.923
G01 X8.035 Y85.914
G01 Z-6.0 F100
G01 X8.017 Y85.909 F200
G01 X8.0 Y85.907
G01 X7.982 Y85.909
G01 X7.964 Y85.914
G01 X7.948 Y85.923
G01 X7.933 Y85.935
G01 X7.922 Y85.948
G01 X7.914 Y85.964
G01 X7.909 Y85.982
G01 X7.907 Y86.0
G01 X7.909 Y86.017
G01 X7.914 Y86.035
G01 X7.922 Y86.051
G01 X7.933 Y86.064
G01 X7.948 Y86.076
G01 X7.964 Y86.085
G01 X7.982 Y86.09
G01 X8.0 Y86.092
G01 X8.017 Y86.09
G01 X8.035 Y86.085
G01 X8.051 Y86.076
G01 X8.066 Y86.064
G01 X8.077 Y86.051
G01 X8.085 Y86.035
G01 X8.091 Y86.017
G01 X8.092 Y86.0
G01 X8.091 Y85.982
G01 X8.085 Y85.964
G01 X8.077 Y85.948
G01 X8.066 Y85.935
G01 X8.051 Y85.923
G01 X8.035 Y85.914
G01 Z-6.3 F100
G01 X8.017 Y85.909 F200
G01 X8.0 Y85.907
G01 X7.982 Y85.909
G01 X7.964 Y85.914
G01 X7.948 Y85.923
G01 X7.933 Y85.935
G01 X7.922 Y85.948
G01 X7.914 Y85.964
G01 X7.909 Y85.982
G01 X7.907 Y86.0
G01 X7.909 Y86.017
G01 X7.914 Y86.035
G01 X7.922 Y86.051
G01 X7.933 Y86.064
G01 X7.948 Y86.076
G01 X7.964 Y86.085
G01 X7.982 Y86.09
G01 X8.0 Y86.092
G01 X8.017 Y86.09
G01 X8.035 Y86.085
G01 X8.051 Y86.076
G01 X8.066 Y86.064
G01 X8.077 Y86.051
G01 X8.085 Y86.035
G01 X8.091 Y86.017
G01 X8.092 Y86.0
G01 X8.091 Y85.982
G01 X8.085 Y85.964
G01 X8.077 Y85.948
G01 X8.066 Y85.935
G01 X8.051 Y85.923
G01 X8.035 Y85.914
G00 Z1.0
 (--------------------------------------------------)
 (Object: #2)
 (Layer: 0)
 (Pocket-Operation)
 (--------------------------------------------------)
 (--------------------------------------------------)
 (Object: #2)
 (Layer: 0)
 (Overcut: 0)
 (Depth: -6.300000)
 (Offset: Inside)
 (Tool-Num: 1)
 (Tool-Diameter: 3.00)
 (Tool-Speed: 10000)
 (--------------------------------------------------)
M05

M03
G00
G00 X8.0 Y91.007
G01 Z-2.0 F100
G01 X7.805 Y91.026 F200
G01 X7.619 Y91.082
G01 X7.448 Y91.174
G01 X7.298 Y91.297
G01 X7.174 Y91.448
G01 X7.082 Y91.619
G01 X7.026 Y91.806
G01 X7.007 Y92.0
G01 X7.026 Y92.193
G01 X7.082 Y92.38
G01 X7.174 Y92.551
G01 X7.298 Y92.702
G01 X7.448 Y92.825
G01 X7.619 Y92.917
G01 X7.805 Y92.973
G01 X8.0 Y92.992
G01 X8.194 Y92.973
G01 X8.38 Y92.917
G01 X8.551 Y92.825
G01 X8.701 Y92.702
G01 X8.825 Y92.551
G01 X8.917 Y92.38
G01 X8.973 Y92.193
G01 X8.992 Y92.0
G01 X8.973 Y91.806
G01 X8.917 Y91.619
G01 X8.825 Y91.448
G01 X8.701 Y91.297
G01 X8.551 Y91.174
G01 X8.38 Y91.082
G01 X8.194 Y91.026
G01 X8.0 Y91.007
G01 Z-4.0 F100
G01 X7.805 Y91.026 F200
G01 X7.619 Y91.082
G01 X7.448 Y91.174
G01 X7.298 Y91.297
G01 X7.174 Y91.448
G01 X7.082 Y91.619
G01 X7.026 Y91.806
G01 X7.007 Y92.0
G01 X7.026 Y92.193
G01 X7.082 Y92.38
G01 X7.174 Y92.551
G01 X7.298 Y92.702
G01 X7.448 Y92.825
G01 X7.619 Y92.917
G01 X7.805 Y92.973
G01 X8.0 Y92.992
G01 X8.194 Y92.973
G01 X8.38 Y92.917
G01 X8.551 Y92.825
G01 X8.701 Y92.702
G01 X8.825 Y92.551
G01 X8.917 Y92.38
G01 X8.973 Y92.193
G01 X8.992 Y92.0
G01 X8.973 Y91.806
G01 X8.917 Y91.619
G01 X8.825 Y91.448
G01 X8.701 Y91.297
G01 X8.551 Y91.174
G01 X8.38 Y91.082
G01 X8.194 Y91.026
G01 X8.0 Y91.007
G01 Z-6.0 F100
G01 X7.805 Y91.026 F200
G01 X7.619 Y91.082
G01 X7.448 Y91.174
G01 X7.298 Y91.297
G01 X7.174 Y91.448
G01 X7.082 Y91.619
G01 X7.026 Y91.806
G01 X7.007 Y92.0
G01 X7.026 Y92.193
G01 X7.082 Y92.38
G01 X7.174 Y92.551
G01 X7.298 Y92.702
G01 X7.448 Y92.825
G01 X7.619 Y92.917
G01 X7.805 Y92.973
G01 X8.0 Y92.992
G01 X8.194 Y92.973
G01 X8.38 Y92.917
G01 X8.551 Y92.825
G01 X8.701 Y92.702
G01 X8.825 Y92.551
G01 X8.917 Y92.38
G01 X8.973 Y92.193
G01 X8.992 Y92.0
G01 X8.973 Y91.806
G01 X8.917 Y91.619
G01 X8.825 Y91.448
G01 X8.701 Y91.297
G01 X8.551 Y91.174
G01 X8.38 Y91.082
G01 X8.194 Y91.026
G01 X8.0 Y91.007
G01 Z-6.3 F100
G01 X7.805 Y91.026 F200
G01 X7.619 Y91.082
G01 X7.448 Y91.174
G01 X7.298 Y91.297
G01 X7.174 Y91.448
G01 X7.082 Y91.619
G01 X7.026 Y91.806
G01 X7.007 Y92.0
G01 X7.026 Y92.193
G01 X7.082 Y92.38
G01 X7.174 Y92.551
G01 X7.298 Y92.702
G01 X7.448 Y92.825
G01 X7.619 Y92.917
G01 X7.805 Y92.973
G01 X8.0 Y92.992
G01 X8.194 Y92.973
G01 X8.38 Y92.917
G01 X8.551 Y92.825
G01 X8.701 Y92.702
G01 X8.825 Y92.551
G01 X8.917 Y92.38
G01 X8.973 Y92.193
G01 X8.992 Y92.0
G01 X8.973 Y91.806
G01 X8.917 Y91.619
G01 X8.825 Y91.448
G01 X8.701 Y91.297
G01 X8.551 Y91.174
G01 X8.38 Y91.082
G01 X8.194 Y91.026
G01 X8.0 Y91.007
G00 Z1.0
 (--------------------------------------------------)
 (Object: #1)
 (Layer: 0)
 (Pocket-Operation)
 (--------------------------------------------------)
 (--------------------------------------------------)
 (Object: #1)
 (Layer: 0)
 (Overcut: 0)
 (Depth: -6.300000)
 (Offset: Inside)
 (Tool-Num: 1)
 (Tool-Diameter: 3.00)
 (Tool-Speed: 10000)
 (--------------------------------------------------)
M05

M03
G00
G00 X91.007 Y92.0
G01 Z-2.0 F100
G01 X91.026 Y92.194 F200
G01 X91.082 Y92.38
G01 X91.174 Y92.551
G01 X91.297 Y92.702
G01 X91.448 Y92.825
G01 X91.619 Y92.917
G01 X91.805 Y92.973
G01 X92.0 Y92.992
G01 X92.194 Y92.973
G01 X92.38 Y92.917
G01 X92.551 Y92.825
G01 X92.702 Y92.702
G01 X92.825 Y92.551
G01 X92.917 Y92.38
G01 X92.973 Y92.194
G01 X92.992 Y92.0
G01 X92.973 Y91.805
G01 X92.917 Y91.619
G01 X92.825 Y91.448
G01 X92.702 Y91.297
G01 X92.551 Y91.174
G01 X92.38 Y91.082
G01 X92.194 Y91.026
G01 X92.0 Y91.007
G01 X91.805 Y91.026
G01 X91.619 Y91.082
G01 X91.448 Y91.174
G01 X91.297 Y91.297
G01 X91.174 Y91.448
G01 X91.082 Y91.619
G01 X91.026 Y91.805
G01 X91.007 Y92.0
G01 Z-4.0 F100
G01 X91.026 Y92.194 F200
G01 X91.082 Y92.38
G01 X91.174 Y92.551
G01 X91.297 Y92.702
G01 X91.448 Y92.825
G01 X91.619 Y92.917
G01 X91.805 Y92.973
G01 X92.0 Y92.992
G01 X92.194 Y92.973
G01 X92.38 Y92.917
G01 X92.551 Y92.825
G01 X92.702 Y92.702
G01 X92.825 Y92.551
G01 X92.917 Y92.38
G01 X92.973 Y92.194
G01 X92.992 Y92.0
G01 X92.973 Y91.805
G01 X92.917 Y91.619
G01 X92.825 Y91.448
G01 X92.702 Y91.297
G01 X92.551 Y91.174
G01 X92.38 Y91.082
G01 X92.194 Y91.026
G01 X92.0 Y91.007
G01 X91.805 Y91.026
G01 X91.619 Y91.082
G01 X91.448 Y91.174
G01 X91.297 Y91.297
G01 X91.174 Y91.448
G01 X91.082 Y91.619
G01 X91.026 Y91.805
G01 X91.007 Y92.0
G01 Z-6.0 F100
G01 X91.026 Y92.194 F200
G01 X91.082 Y92.38
G01 X91.174 Y92.551
G01 X91.297 Y92.702
G01 X91.448 Y92.825
G01 X91.619 Y92.917
G01 X91.805 Y92.973
G01 X92.0 Y92.992
G01 X92.194 Y92.973
G01 X92.38 Y92.917
G01 X92.551 Y92.825
G01 X92.702 Y92.702
G01 X92.825 Y92.551
G01 X92.917 Y92.38
G01 X92.973 Y92.194
G01 X92.992 Y92.0
G01 X92.973 Y91.805
G01 X92.917 Y91.619
G01 X92.825 Y91.448
G01 X92.702 Y91.297
G01 X92.551 Y91.174
G01 X92.38 Y91.082
G01 X92.194 Y91.026
G01 X92.0 Y91.007
G01 X91.805 Y91.026
G01 X91.619 Y91.082
G01 X91.448 Y91.174
G01 X91.297 Y91.297
G01 X91.174 Y91.448
G01 X91.082 Y91.619
G01 X91.026 Y91.805
G01 X91.007 Y92.0
G01 Z-6.3 F100
G01 X91.026 Y92.194 F200
G01 X91.082 Y92.38
G01 X91.174 Y92.551
G01 X91.297 Y92.702
G01 X91.448 Y92.825
G01 X91.619 Y92.917
G01 X91.805 Y92.973
G01 X92.0 Y92.992
G01 X92.194 Y92.973
G01 X92.38 Y92.917
G01 X92.551 Y92.825
G01 X92.702 Y92.702
G01 X92.825 Y92.551
G01 X92.917 Y92.38
G01 X92.973 Y92.194
G01 X92.992 Y92.0
G01 X92.973 Y91.805
G01 X92.917 Y91.619
G01 X92.825 Y91.448
G01 X92.702 Y91.297
G01 X92.551 Y91.174
G01 X92.38 Y91.082
G01 X92.194 Y91.026
G01 X92.0 Y91.007
G01 X91.805 Y91.026
G01 X91.619 Y91.082
G01 X91.448 Y91.174
G01 X91.297 Y91.297
G01 X91.174 Y91.448
G01 X91.082 Y91.619
G01 X91.026 Y91.805
G01 X91.007 Y92.0
G00 Z1.0
 (--------------------------------------------------)
 (Object: #3)
 (Layer: 0)
 (Pocket-Operation)
 (--------------------------------------------------)
 (--------------------------------------------------)
 (Object: #3)
 (Layer: 0)
 (Overcut: 0)
 (Depth: -6.300000)
 (Offset: Inside)
 (Tool-Num: 1)
 (Tool-Diameter: 3.00)
 (Tool-Speed: 10000)
 (--------------------------------------------------)
M05

M03
G00
G00 X91.982 Y86.09
G01 Z-2.0 F100
G01 X92.0 Y86.092 F200
G01 X92.017 Y86.09
G01 X92.035 Y86.085
G01 X92.051 Y86.077
G01 X92.065 Y86.065
G01 X92.077 Y86.051
G01 X92.085 Y86.035
G01 X92.09 Y86.017
G01 X92.092 Y86.0
G01 X92.09 Y85.982
G01 X92.085 Y85.964
G01 X92.077 Y85.948
G01 X92.065 Y85.934
G01 X92.051 Y85.922
G01 X92.035 Y85.914
G01 X92.017 Y85.909
G01 X92.0 Y85.907
G01 X91.982 Y85.909
G01 X91.964 Y85.914
G01 X91.948 Y85.922
G01 X91.934 Y85.934
G01 X91.922 Y85.948
G01 X91.914 Y85.964
G01 X91.909 Y85.982
G01 X91.907 Y86.0
G01 X91.909 Y86.017
G01 X91.914 Y86.035
G01 X91.922 Y86.051
G01 X91.934 Y86.065
G01 X91.948 Y86.077
G01 X91.964 Y86.085
G01 X91.982 Y86.09
G01 Z-4.0 F100
G01 X92.0 Y86.092 F200
G01 X92.017 Y86.09
G01 X92.035 Y86.085
G01 X92.051 Y86.077
G01 X92.065 Y86.065
G01 X92.077 Y86.051
G01 X92.085 Y86.035
G01 X92.09 Y86.017
G01 X92.092 Y86.0
G01 X92.09 Y85.982
G01 X92.085 Y85.964
G01 X92.077 Y85.948
G01 X92.065 Y85.934
G01 X92.051 Y85.922
G01 X92.035 Y85.914
G01 X92.017 Y85.909
G01 X92.0 Y85.907
G01 X91.982 Y85.909
G01 X91.964 Y85.914
G01 X91.948 Y85.922
G01 X91.934 Y85.934
G01 X91.922 Y85.948
G01 X91.914 Y85.964
G01 X91.909 Y85.982
G01 X91.907 Y86.0
G01 X91.909 Y86.017
G01 X91.914 Y86.035
G01 X91.922 Y86.051
G01 X91.934 Y86.065
G01 X91.948 Y86.077
G01 X91.964 Y86.085
G01 X91.982 Y86.09
G01 Z-6.0 F100
G01 X92.0 Y86.092 F200
G01 X92.017 Y86.09
G01 X92.035 Y86.085
G01 X92.051 Y86.077
G01 X92.065 Y86.065
G01 X92.077 Y86.051
G01 X92.085 Y86.035
G01 X92.09 Y86.017
G01 X92.092 Y86.0
G01 X92.09 Y85.982
G01 X92.085 Y85.964
G01 X92.077 Y85.948
G01 X92.065 Y85.934
G01 X92.051 Y85.922
G01 X92.035 Y85.914
G01 X92.017 Y85.909
G01 X92.0 Y85.907
G01 X91.982 Y85.909
G01 X91.964 Y85.914
G01 X91.948 Y85.922
G01 X91.934 Y85.934
G01 X91.922 Y85.948
G01 X91.914 Y85.964
G01 X91.909 Y85.982
G01 X91.907 Y86.0
G01 X91.909 Y86.017
G01 X91.914 Y86.035
G01 X91.922 Y86.051
G01 X91.934 Y86.065
G01 X91.948 Y86.077
G01 X91.964 Y86.085
G01 X91.982 Y86.09
G01 Z-6.3 F100
G01 X92.0 Y86.092 F200
G01 X92.017 Y86.09
G01 X92.035 Y86.085
G01 X92.051 Y86.077
G01 X92.065 Y86.065
G01 X92.077 Y86.051
G01 X92.085 Y86.035
G01 X92.09 Y86.017
G01 X92.092 Y86.0
G01 X92.09 Y85.982
G01 X92.085 Y85.964
G01 X92.077 Y85.948
G01 X92.065 Y85.934
G01 X92.051 Y85.922
G01 X92.035 Y85.914
G01 X92.017 Y85.909
G01 X92.0 Y85.907
G01 X91.982 Y85.909
G01 X91.964 Y85.914
G01 X91.948 Y85.922
G01 X91.934 Y85.934
G01 X91.922 Y85.948
G01 X91.914 Y85.964
G01 X91.909 Y85.982
G01 X91.907 Y86.0
G01 X91.909 Y86.017
G01 X91.914 Y86.035
G01 X91.922 Y86.051
G01 X91.934 Y86.065
G01 X91.948 Y86.077
G01 X91.964 Y86.085
G01 X91.982 Y86.09
G00 Z1.0
 (--------------------------------------------------)
 (Object: #7)
 (Layer: 0)
 (Pocket-Operation)
 (--------------------------------------------------)
 (--------------------------------------------------)
 (Object: #7)
 (Layer: 0)
 (Overcut: 0)
 (Depth: -6.300000)
 (Offset: Inside)
 (Tool-Num: 1)
 (Tool-Diameter: 3.00)
 (Tool-Speed: 10000)
 (--------------------------------------------------)
M05

M03
G00
G00 X92.0 Y14.092
G01 Z-2.0 F100
G01 X92.017 Y14.091 F200
G01 X92.035 Y14.085
G01 X92.051 Y14.077
G01 X92.064 Y14.066
G01 X92.076 Y14.051
G01 X92.085 Y14.035
G01 X92.09 Y14.017
G01 X92.092 Y14.0
G01 X92.09 Y13.982
G01 X92.085 Y13.964
G01 X92.076 Y13.948
G01 X92.064 Y13.933
G01 X92.051 Y13.922
G01 X92.035 Y13.914
G01 X92.017 Y13.909
G01 X92.0 Y13.907
G01 X91.982 Y13.909
G01 X91.964 Y13.914
G01 X91.948 Y13.922
G01 X91.935 Y13.933
G01 X91.923 Y13.948
G01 X91.914 Y13.964
G01 X91.909 Y13.982
G01 X91.907 Y14.0
G01 X91.909 Y14.017
G01 X91.914 Y14.035
G01 X91.923 Y14.051
G01 X91.935 Y14.066
G01 X91.948 Y14.077
G01 X91.964 Y14.085
G01 X91.982 Y14.091
G01 X92.0 Y14.092
G01 Z-4.0 F100
G01 X92.017 Y14.091 F200
G01 X92.035 Y14.085
G01 X92.051 Y14.077
G01 X92.064 Y14.066
G01 X92.076 Y14.051
G01 X92.085 Y14.035
G01 X92.09 Y14.017
G01 X92.092 Y14.0
G01 X92.09 Y13.982
G01 X92.085 Y13.964
G01 X92.076 Y13.948
G01 X92.064 Y13.933
G01 X92.051 Y13.922
G01 X92.035 Y13.914
G01 X92.017 Y13.909
G01 X92.0 Y13.907
G01 X91.982 Y13.909
G01 X91.964 Y13.914
G01 X91.948 Y13.922
G01 X91.935 Y13.933
G01 X91.923 Y13.948
G01 X91.914 Y13.964
G01 X91.909 Y13.982
G01 X91.907 Y14.0
G01 X91.909 Y14.017
G01 X91.914 Y14.035
G01 X91.923 Y14.051
G01 X91.935 Y14.066
G01 X91.948 Y14.077
G01 X91.964 Y14.085
G01 X91.982 Y14.091
G01 X92.0 Y14.092
G01 Z-6.0 F100
G01 X92.017 Y14.091 F200
G01 X92.035 Y14.085
G01 X92.051 Y14.077
G01 X92.064 Y14.066
G01 X92.076 Y14.051
G01 X92.085 Y14.035
G01 X92.09 Y14.017
G01 X92.092 Y14.0
G01 X92.09 Y13.982
G01 X92.085 Y13.964
G01 X92.076 Y13.948
G01 X92.064 Y13.933
G01 X92.051 Y13.922
G01 X92.035 Y13.914
G01 X92.017 Y13.909
G01 X92.0 Y13.907
G01 X91.982 Y13.909
G01 X91.964 Y13.914
G01 X91.948 Y13.922
G01 X91.935 Y13.933
G01 X91.923 Y13.948
G01 X91.914 Y13.964
G01 X91.909 Y13.982
G01 X91.907 Y14.0
G01 X91.909 Y14.017
G01 X91.914 Y14.035
G01 X91.923 Y14.051
G01 X91.935 Y14.066
G01 X91.948 Y14.077
G01 X91.964 Y14.085
G01 X91.982 Y14.091
G01 X92.0 Y14.092
G01 Z-6.3 F100
G01 X92.017 Y14.091 F200
G01 X92.035 Y14.085
G01 X92.051 Y14.077
G01 X92.064 Y14.066
G01 X92.076 Y14.051
G01 X92.085 Y14.035
G01 X92.09 Y14.017
G01 X92.092 Y14.0
G01 X92.09 Y13.982
G01 X92.085 Y13.964
G01 X92.076 Y13.948
G01 X92.064 Y13.933
G01 X92.051 Y13.922
G01 X92.035 Y13.914
G01 X92.017 Y13.909
G01 X92.0 Y13.907
G01 X91.982 Y13.909
G01 X91.964 Y13.914
G01 X91.948 Y13.922
G01 X91.935 Y13.933
G01 X91.923 Y13.948
G01 X91.914 Y13.964
G01 X91.909 Y13.982
G01 X91.907 Y14.0
G01 X91.909 Y14.017
G01 X91.914 Y14.035
G01 X91.923 Y14.051
G01 X91.935 Y14.066
G01 X91.948 Y14.077
G01 X91.964 Y14.085
G01 X91.982 Y14.091
G01 X92.0 Y14.092
G00 Z1.0
 (--------------------------------------------------)
 (Object: #9)
 (Layer: 0)
 (Pocket-Operation)
 (--------------------------------------------------)
 (--------------------------------------------------)
 (Object: #9)
 (Layer: 0)
 (Overcut: 0)
 (Depth: -6.300000)
 (Offset: Inside)
 (Tool-Num: 1)
 (Tool-Diameter: 3.00)
 (Tool-Speed: 10000)
 (--------------------------------------------------)
M05

M03
G00
G00 Y8.992
G01 Z-2.0 F100
G01 X92.193 Y8.973 F200
G01 X92.38 Y8.917
G01 X92.551 Y8.825
G01 X92.702 Y8.701
G01 X92.825 Y8.551
G01 X92.917 Y8.38
G01 X92.973 Y8.194
G01 X92.992 Y8.0
G01 X92.973 Y7.805
G01 X92.917 Y7.619
G01 X92.825 Y7.448
G01 X92.702 Y7.298
G01 X92.551 Y7.174
G01 X92.38 Y7.082
G01 X92.193 Y7.026
G01 X92.0 Y7.007
G01 X91.806 Y7.026
G01 X91.619 Y7.082
G01 X91.448 Y7.174
G01 X91.297 Y7.298
G01 X91.174 Y7.448
G01 X91.082 Y7.619
G01 X91.026 Y7.805
G01 X91.007 Y8.0
G01 X91.026 Y8.194
G01 X91.082 Y8.38
G01 X91.174 Y8.551
G01 X91.297 Y8.701
G01 X91.448 Y8.825
G01 X91.619 Y8.917
G01 X91.806 Y8.973
G01 X92.0 Y8.992
G01 Z-4.0 F100
G01 X92.193 Y8.973 F200
G01 X92.38 Y8.917
G01 X92.551 Y8.825
G01 X92.702 Y8.701
G01 X92.825 Y8.551
G01 X92.917 Y8.38
G01 X92.973 Y8.194
G01 X92.992 Y8.0
G01 X92.973 Y7.805
G01 X92.917 Y7.619
G01 X92.825 Y7.448
G01 X92.702 Y7.298
G01 X92.551 Y7.174
G01 X92.38 Y7.082
G01 X92.193 Y7.026
G01 X92.0 Y7.007
G01 X91.806 Y7.026
G01 X91.619 Y7.082
G01 X91.448 Y7.174
G01 X91.297 Y7.298
G01 X91.174 Y7.448
G01 X91.082 Y7.619
G01 X91.026 Y7.805
G01 X91.007 Y8.0
G01 X91.026 Y8.194
G01 X91.082 Y8.38
G01 X91.174 Y8.551
G01 X91.297 Y8.701
G01 X91.448 Y8.825
G01 X91.619 Y8.917
G01 X91.806 Y8.973
G01 X92.0 Y8.992
G01 Z-6.0 F100
G01 X92.193 Y8.973 F200
G01 X92.38 Y8.917
G01 X92.551 Y8.825
G01 X92.702 Y8.701
G01 X92.825 Y8.551
G01 X92.917 Y8.38
G01 X92.973 Y8.194
G01 X92.992 Y8.0
G01 X92.973 Y7.805
G01 X92.917 Y7.619
G01 X92.825 Y7.448
G01 X92.702 Y7.298
G01 X92.551 Y7.174
G01 X92.38 Y7.082
G01 X92.193 Y7.026
G01 X92.0 Y7.007
G01 X91.806 Y7.026
G01 X91.619 Y7.082
G01 X91.448 Y7.174
G01 X91.297 Y7.298
G01 X91.174 Y7.448
G01 X91.082 Y7.619
G01 X91.026 Y7.805
G01 X91.007 Y8.0
G01 X91.026 Y8.194
G01 X91.082 Y8.38
G01 X91.174 Y8.551
G01 X91.297 Y8.701
G01 X91.448 Y8.825
G01 X91.619 Y8.917
G01 X91.806 Y8.973
G01 X92.0 Y8.992
G01 Z-6.3 F100
G01 X92.193 Y8.973 F200
G01 X92.38 Y8.917
G01 X92.551 Y8.825
G01 X92.702 Y8.701
G01 X92.825 Y8.551
G01 X92.917 Y8.38
G01 X92.973 Y8.194
G01 X92.992 Y8.0
G01 X92.973 Y7.805
G01 X92.917 Y7.619
G01 X92.825 Y7.448
G01 X92.702 Y7.298
G01 X92.551 Y7.174
G01 X92.38 Y7.082
G01 X92.193 Y7.026
G01 X92.0 Y7.007
G01 X91.806 Y7.026
G01 X91.619 Y7.082
G01 X91.448 Y7.174
G01 X91.297 Y7.298
G01 X91.174 Y7.448
G01 X91.082 Y7.619
G01 X91.026 Y7.805
G01 X91.007 Y8.0
G01 X91.026 Y8.194
G01 X91.082 Y8.38
G01 X91.174 Y8.551
G01 X91.297 Y8.701
G01 X91.448 Y8.825
G01 X91.619 Y8.917
G01 X91.806 Y8.973
G01 X92.0 Y8.992
G00 Z1.0
 (--------------------------------------------------)
 (Object: #0)
 (Layer: 0)
 (Overcut: 0)
 (Depth: -6.300000)
 (Offset: Outside)
 (Tool-Num: 1)
 (Tool-Diameter: 3.00)
 (Tool-Speed: 10000)
 (--------------------------------------------------)
M05

M03
G00
G00 X101.492 Y7.852
G01 Z-2.0 F100
G03 X101.5 Y8.0 I-1.492 J0.147 F200
G01 Y92.0
G03 X101.492 Y92.147 I-1.5 J-0.0
G01 X101.338 Y93.708
G03 X101.281 Y93.996 I-1.492 J-0.147
G01 X100.826 Y95.496
G03 X100.714 Y95.767 I-1.435 J-0.435
G01 X99.975 Y97.151
G03 X99.811 Y97.396 I-1.323 J-0.706
G01 X98.816 Y98.608
G03 X98.608 Y98.816 I-1.159 J-0.951
G01 X97.396 Y99.811
G03 X97.151 Y99.975 I-0.951 J-1.159
G01 X95.767 Y100.714
G03 X95.496 Y100.826 I-0.706 J-1.323
G01 X93.996 Y101.281
G03 X93.708 Y101.338 I-0.435 J-1.435
G01 X92.147 Y101.492
G03 X92.0 Y101.5 I-0.147 J-1.492
G01 X8.0
G03 X7.852 Y101.492 I-0.0 J-1.5
G01 X6.292 Y101.338
G03 X6.004 Y101.281 I0.147 J-1.492
G01 X4.503 Y100.826
G03 X4.231 Y100.713 I0.435 J-1.435
G01 X2.848 Y99.974
G03 X2.603 Y99.811 I0.706 J-1.322
G01 X1.391 Y98.816
G03 X1.183 Y98.608 I0.951 J-1.159
G01 X0.188 Y97.396
G03 X0.025 Y97.151 I1.159 J-0.951
G01 X-0.714 Y95.767
G03 X-0.826 Y95.496 I1.323 J-0.706
G01 X-1.281 Y93.996
G03 X-1.339 Y93.707 I1.435 J-0.435
G01 X-1.492 Y92.146
G03 X-1.5 Y92.0 I1.492 J-0.146
G01 Y8.0
G03 X-1.492 Y7.852 I1.5 J0.0
G01 X-1.339 Y6.292
G03 X-1.281 Y6.003 I1.492 J0.147
G01 X-0.826 Y4.503
G03 X-0.713 Y4.231 I1.435 J0.435
G01 X0.025 Y2.848
G03 X0.188 Y2.603 I1.322 J0.707
G01 X1.183 Y1.391
G03 X1.391 Y1.183 I1.159 J0.951
G01 X2.603 Y0.188
G03 X2.848 Y0.025 I0.951 J1.159
G01 X4.231 Y-0.713
G03 X4.503 Y-0.826 I0.707 J1.322
G01 X6.003 Y-1.281
G03 X6.292 Y-1.339 I0.435 J1.435
G01 X7.852 Y-1.492
G03 X8.0 Y-1.5 I0.147 J1.492
G01 X92.0
G03 X92.146 Y-1.492 I0.0 J1.5
G01 X93.707 Y-1.339
G03 X93.996 Y-1.281 I-0.146 J1.492
G01 X95.496 Y-0.826
G03 X95.767 Y-0.714 I-0.435 J1.435
G01 X97.151 Y0.025
G03 X97.396 Y0.188 I-0.706 J1.323
G01 X98.608 Y1.183
G03 X98.816 Y1.391 I-0.951 J1.159
G01 X99.811 Y2.603
G03 X99.974 Y2.848 I-1.159 J0.951
G01 X100.713 Y4.231
G03 X100.826 Y4.503 I-1.322 J0.706
G01 X101.281 Y6.004
G03 X101.338 Y6.292 I-1.435 J0.435
G01 X101.492 Y7.852
G01 Z-4.0 F100
G03 X101.5 Y8.0 I-1.492 J0.147 F200
G01 Y92.0
G03 X101.492 Y92.147 I-1.5 J-0.0
G01 X101.338 Y93.708
G03 X101.281 Y93.996 I-1.492 J-0.147
G01 X100.826 Y95.496
G03 X100.714 Y95.767 I-1.435 J-0.435
G01 X99.975 Y97.151
G03 X99.811 Y97.396 I-1.323 J-0.706
G01 X98.816 Y98.608
G03 X98.608 Y98.816 I-1.159 J-0.951
G01 X97.396 Y99.811
G03 X97.151 Y99.975 I-0.951 J-1.159
G01 X95.767 Y100.714
G03 X95.496 Y100.826 I-0.706 J-1.323
G01 X93.996 Y101.281
G03 X93.708 Y101.338 I-0.435 J-1.435
G01 X92.147 Y101.492
G03 X92.0 Y101.5 I-0.147 J-1.492
G01 X8.0
G03 X7.852 Y101.492 I-0.0 J-1.5
G01 X6.292 Y101.338
G03 X6.004 Y101.281 I0.147 J-1.492
G01 X4.503 Y100.826
G03 X4.231 Y100.713 I0.435 J-1.435
G01 X2.848 Y99.974
G03 X2.603 Y99.811 I0.706 J-1.322
G01 X1.391 Y98.816
G03 X1.183 Y98.608 I0.951 J-1.159
G01 X0.188 Y97.396
G03 X0.025 Y97.151 I1.159 J-0.951
G01 X-0.714 Y95.767
G03 X-0.826 Y95.496 I1.323 J-0.706
G01 X-1.281 Y93.996
G03 X-1.339 Y93.707 I1.435 J-0.435
G01 X-1.492 Y92.146
G03 X-1.5 Y92.0 I1.492 J-0.146
G01 Y8.0
G03 X-1.492 Y7.852 I1.5 J0.0
G01 X-1.339 Y6.292
G03 X-1.281 Y6.003 I1.492 J0.147
G01 X-0.826 Y4.503
G03 X-0.713 Y4.231 I1.435 J0.435
G01 X0.025 Y2.848
G03 X0.188 Y2.603 I1.322 J0.707
G01 X1.183 Y1.391
G03 X1.391 Y1.183 I1.159 J0.951
G01 X2.603 Y0.188
G03 X2.848 Y0.025 I0.951 J1.159
G01 X4.231 Y-0.713
G03 X4.503 Y-0.826 I0.707 J1.322
G01 X6.003 Y-1.281
G03 X6.292 Y-1.339 I0.435 J1.435
G01 X7.852 Y-1.492
G03 X8.0 Y-1.5 I0.147 J1.492
G01 X92.0
G03 X92.146 Y-1.492 I0.0 J1.5
G01 X93.707 Y-1.339
G03 X93.996 Y-1.281 I-0.146 J1.492
G01 X95.496 Y-0.826
G03 X95.767 Y-0.714 I-0.435 J1.435
G01 X97.151 Y0.025
G03 X97.396 Y0.188 I-0.706 J1.323
G01 X98.608 Y1.183
G03 X98.816 Y1.391 I-0.951 J1.159
G01 X99.811 Y2.603
G03 X99.974 Y2.848 I-1.159 J0.951
G01 X100.713 Y4.231
G03 X100.826 Y4.503 I-1.322 J0.706
G01 X101.281 Y6.004
G03 X101.338 Y6.292 I-1.435 J0.435
G01 X101.492 Y7.852
G01 Z-6.0 F100
G03 X101.5 Y8.0 I-1.492 J0.147 F200
G01 Y40.0
G01 Z-5.0
G01 Y48.0
G01 Z-6.0
G01 Y92.0
G03 X101.492 Y92.147 I-1.5 J-0.0
G01 X101.338 Y93.708
G03 X101.281 Y93.996 I-1.492 J-0.147
G01 X100.826 Y95.496
G03 X100.714 Y95.767 I-1.435 J-0.435
G01 X99.975 Y97.151
G03 X99.811 Y97.396 I-1.323 J-0.706
G01 X98.816 Y98.608
G03 X98.608 Y98.816 I-1.159 J-0.951
G01 X97.396 Y99.811
G03 X97.151 Y99.975 I-0.951 J-1.159
G01 X95.767 Y100.714
G03 X95.496 Y100.826 I-0.706 J-1.323
G01 X93.996 Y101.281
G03 X93.708 Y101.338 I-0.435 J-1.435
G01 X92.147 Y101.492
G03 X92.0 Y101.5 I-0.147 J-1.492
G01 X59.0
G01 Z-5.0
G01 X51.0
G01 Z-6.0
G01 X8.0
G03 X7.852 Y101.492 I-0.0 J-1.5
G01 X6.292 Y101.338
G03 X6.004 Y101.281 I0.147 J-1.492
G01 X4.503 Y100.826
G03 X4.231 Y100.713 I0.435 J-1.435
G01 X2.848 Y99.974
G03 X2.603 Y99.811 I0.706 J-1.322
G01 X1.391 Y98.816
G03 X1.183 Y98.608 I0.951 J-1.159
G01 X0.188 Y97.396
G03 X0.025 Y97.151 I1.159 J-0.951
G01 X-0.714 Y95.767
G03 X-0.826 Y95.496 I1.323 J-0.706
G01 X-1.281 Y93.996
G03 X-1.339 Y93.707 I1.435 J-0.435
G01 X-1.492 Y92.146
G03 X-1.5 Y92.0 I1.492 J-0.146
G01 X-1.5 Y48.0
G01 Z-5.0
G01 X-1.5 Y40.0
G01 Z-6.0
G01 X-1.5 Y8.0
G03 X-1.492 Y7.852 I1.5 J0.0
G01 X-1.339 Y6.292
G03 X-1.281 Y6.003 I1.492 J0.147
G01 X-0.826 Y4.503
G03 X-0.713 Y4.231 I1.435 J0.435
G01 X0.025 Y2.848
G03 X0.188 Y2.603 I1.322 J0.707
G01 X1.183 Y1.391
G03 X1.391 Y1.183 I1.159 J0.951
G01 X2.603 Y0.188
G03 X2.848 Y0.025 I0.951 J1.159
G01 X4.231 Y-0.713
G03 X4.503 Y-0.826 I0.707 J1.322
G01 X6.003 Y-1.281
G03 X6.292 Y-1.339 I0.435 J1.435
G01 X7.852 Y-1.492
G03 X8.0 Y-1.5 I0.147 J1.492
G01 X51.0 Y-1.5
G01 Z-5.0
G01 X59.0 Y-1.5
G01 Z-6.0
G01 X92.0 Y-1.5
G03 X92.146 Y-1.492 I0.0 J1.5
G01 X93.707 Y-1.339
G03 X93.996 Y-1.281 I-0.146 J1.492
G01 X95.496 Y-0.826
G03 X95.767 Y-0.714 I-0.435 J1.435
G01 X97.151 Y0.025
G03 X97.396 Y0.188 I-0.706 J1.323
G01 X98.608 Y1.183
G03 X98.816 Y1.391 I-0.951 J1.159
G01 X99.811 Y2.603
G03 X99.974 Y2.848 I-1.159 J0.951
G01 X100.713 Y4.231
G03 X100.826 Y4.503 I-1.322 J0.706
G01 X101.281 Y6.004
G03 X101.338 Y6.292 I-1.435 J0.435
G01 X101.492 Y7.852
G01 Z-6.3 F100
G03 X101.5 Y8.0 I-1.492 J0.147 F200
G01 Y40.0
G01 Z-5.0
G01 Y48.0
G01 Z-6.3
G01 Y92.0
G03 X101.492 Y92.147 I-1.5 J-0.0
G01 X101.338 Y93.708
G03 X101.281 Y93.996 I-1.492 J-0.147
G01 X100.826 Y95.496
G03 X100.714 Y95.767 I-1.435 J-0.435
G01 X99.975 Y97.151
G03 X99.811 Y97.396 I-1.323 J-0.706
G01 X98.816 Y98.608
G03 X98.608 Y98.816 I-1.159 J-0.951
G01 X97.396 Y99.811
G03 X97.151 Y99.975 I-0.951 J-1.159
G01 X95.767 Y100.714
G03 X95.496 Y100.826 I-0.706 J-1.323
G01 X93.996 Y101.281
G03 X93.708 Y101.338 I-0.435 J-1.435
G01 X92.147 Y101.492
G03 X92.0 Y101.5 I-0.147 J-1.492
G01 X59.0
G01 Z-5.0
G01 X51.0
G01 Z-6.3
G01 X8.0
G03 X7.852 Y101.492 I-0.0 J-1.5
G01 X6.292 Y101.338
G03 X6.004 Y101.281 I0.147 J-1.492
G01 X4.503 Y100.826
G03 X4.231 Y100.713 I0.435 J-1.435
G01 X2.848 Y99.974
G03 X2.603 Y99.811 I0.706 J-1.322
G01 X1.391 Y98.816
G03 X1.183 Y98.608 I0.951 J-1.159
G01 X0.188 Y97.396
G03 X0.025 Y97.151 I1.159 J-0.951
G01 X-0.714 Y95.767
G03 X-0.826 Y95.496 I1.323 J-0.706
G01 X-1.281 Y93.996
G03 X-1.339 Y93.707 I1.435 J-0.435
G01 X-1.492 Y92.146
G03 X-1.5 Y92.0 I1.492 J-0.146
G01 X-1.5 Y48.0
G01 Z-5.0
G01 X-1.5 Y40.0
G01 Z-6.3
G01 X-1.5 Y8.0
G03 X-1.492 Y7.852 I1.5 J0.0
G01 X-1.339 Y6.292
G03 X-1.281 Y6.003 I1.492 J0.147
G01 X-0.826 Y4.503
G03 X-0.713 Y4.231 I1.435 J0.435
G01 X0.025 Y2.848
G03 X0.188 Y2.603 I1.322 J0.707
G01 X1.183 Y1.391
G03 X1.391 Y1.183 I1.159 J0.951
G01 X2.603 Y0.188
G03 X2.848 Y0.025 I0.951 J1.159
G01 X4.231 Y-0.713
G03 X4.503 Y-0.826 I0.707 J1.322
G01 X6.003 Y-1.281
G03 X6.292 Y-1.339 I0.435 J1.435
G01 X7.852 Y-1.492
G03 X8.0 Y-1.5 I0.147 J1.492
G01 X51.0 Y-1.5
G01 Z-5.0
G01 X59.0 Y-1.5
G01 Z-6.3
G01 X92.0 Y-1.5
G03 X92.146 Y-1.492 I0.0 J1.5
G01 X93.707 Y-1.339
G03 X93.996 Y-1.281 I-0.146 J1.492
G01 X95.496 Y-0.826
G03 X95.767 Y-0.714 I-0.435 J1.435
G01 X97.151 Y0.025
G03 X97.396 Y0.188 I-0.706 J1.323
G01 X98.608 Y1.183
G03 X98.816 Y1.391 I-0.951 J1.159
G01 X99.811 Y2.603
G03 X99.974 Y2.848 I-1.159 J0.951
G01 X100.713 Y4.231
G03 X100.826 Y4.503 I-1.322 J0.706
G01 X101.281 Y6.004
G03 X101.338 Y6.292 I-1.435 J0.435
G01 X101.492 Y7.852
G00 Z1.0
 (--------------------------------------------------)
 (Object: #6)
 (Layer: 0)
 (Overcut: 0)
 (Depth: -6.300000)
 (Offset: Outside)
 (Tool-Num: 1)
 (Tool-Diameter: 3.00)
 (Tool-Speed: 10000)
 (--------------------------------------------------)
M05

M03
G00
G00 X64.822 Y35.937
G01 Z-2.0 F100
G03 X64.985 Y36.181 I-1.159 J0.951 F200
G01 X65.17 Y36.527
G03 X65.283 Y36.798 I-1.322 J0.707
G01 X65.396 Y37.174
G03 X65.454 Y37.462 I-1.435 J0.435
G01 X65.492 Y37.853
G03 X65.5 Y38.0 I-1.492 J0.146
G01 Y62.0
G03 X65.492 Y62.146 I-1.5 J0.0
G01 X65.454 Y62.537
G03 X65.396 Y62.825 I-1.492 J-0.146
G01 X65.283 Y63.201
G03 X65.17 Y63.472 I-1.435 J-0.435
G01 X64.985 Y63.818
G03 X64.822 Y64.062 I-1.322 J-0.707
G01 X64.573 Y64.365
G03 X64.365 Y64.573 I-1.159 J-0.951
G01 X64.062 Y64.822
G03 X63.818 Y64.985 I-0.951 J-1.159
G01 X63.472 Y65.17
G03 X63.201 Y65.283 I-0.707 J-1.322
G01 X62.825 Y65.396
G03 X62.537 Y65.454 I-0.435 J-1.435
G01 X62.146 Y65.492
G03 X62.0 Y65.5 I-0.146 J-1.492
G01 X38.0
G03 X37.853 Y65.492 I-0.0 J-1.5
G01 X37.462 Y65.454
G03 X37.174 Y65.396 I0.146 J-1.492
G01 X36.798 Y65.283
G03 X36.527 Y65.17 I0.435 J-1.435
G01 X36.181 Y64.985
G03 X35.937 Y64.822 I0.707 J-1.322
G01 X35.634 Y64.573
G03 X35.426 Y64.365 I0.951 J-1.159
G01 X35.177 Y64.062
G03 X35.014 Y63.818 I1.159 J-0.951
G01 X34.829 Y63.472
G03 X34.716 Y63.201 I1.322 J-0.707
G01 X34.603 Y62.825
G03 X34.545 Y62.537 I1.435 J-0.435
G01 X34.507 Y62.146
G03 X34.5 Y62.0 I1.492 J-0.146
G01 Y38.0
G03 X34.507 Y37.853 I1.5 J0.0
G01 X34.545 Y37.462
G03 X34.603 Y37.174 I1.492 J0.146
G01 X34.716 Y36.798
G03 X34.829 Y36.527 I1.435 J0.435
G01 X35.014 Y36.181
G03 X35.177 Y35.937 I1.322 J0.707
G01 X35.426 Y35.634
G03 X35.634 Y35.426 I1.159 J0.951
G01 X35.937 Y35.177
G03 X36.181 Y35.014 I0.951 J1.159
G01 X36.527 Y34.829
G03 X36.798 Y34.716 I0.707 J1.322
G01 X37.174 Y34.603
G03 X37.462 Y34.545 I0.435 J1.435
G01 X37.853 Y34.507
G03 X38.0 Y34.5 I0.146 J1.492
G01 X62.0
G03 X62.146 Y34.507 I0.0 J1.5
G01 X62.537 Y34.545
G03 X62.825 Y34.603 I-0.146 J1.492
G01 X63.201 Y34.716
G03 X63.472 Y34.829 I-0.435 J1.435
G01 X63.818 Y35.014
G03 X64.062 Y35.177 I-0.707 J1.322
G01 X64.365 Y35.426
G03 X64.573 Y35.634 I-0.951 J1.159
G01 X64.822 Y35.937
G01 Z-4.0 F100
G03 X64.985 Y36.181 I-1.159 J0.951 F200
G01 X65.17 Y36.527
G03 X65.283 Y36.798 I-1.322 J0.707
G01 X65.396 Y37.174
G03 X65.454 Y37.462 I-1.435 J0.435
G01 X65.492 Y37.853
G03 X65.5 Y38.0 I-1.492 J0.146
G01 Y62.0
G03 X65.492 Y62.146 I-1.5 J0.0
G01 X65.454 Y62.537
G03 X65.396 Y62.825 I-1.492 J-0.146
G01 X65.283 Y63.201
G03 X65.17 Y63.472 I-1.435 J-0.435
G01 X64.985 Y63.818
G03 X64.822 Y64.062 I-1.322 J-0.707
G01 X64.573 Y64.365
G03 X64.365 Y64.573 I-1.159 J-0.951
G01 X64.062 Y64.822
G03 X63.818 Y64.985 I-0.951 J-1.159
G01 X63.472 Y65.17
G03 X63.201 Y65.283 I-0.707 J-1.322
G01 X62.825 Y65.396
G03 X62.537 Y65.454 I-0.435 J-1.435
G01 X62.146 Y65.492
G03 X62.0 Y65.5 I-0.146 J-1.492
G01 X38.0
G03 X37.853 Y65.492 I-0.0 J-1.5
G01 X37.462 Y65.454
G03 X37.174 Y65.396 I0.146 J-1.492
G01 X36.798 Y65.283
G03 X36.527 Y65.17 I0.435 J-1.435
G01 X36.181 Y64.985
G03 X35.937 Y64.822 I0.707 J-1.322
G01 X35.634 Y64.573
G03 X35.426 Y64.365 I0.951 J-1.159
G01 X35.177 Y64.062
G03 X35.014 Y63.818 I1.159 J-0.951
G01 X34.829 Y63.472
G03 X34.716 Y63.201 I1.322 J-0.707
G01 X34.603 Y62.825
G03 X34.545 Y62.537 I1.435 J-0.435
G01 X34.507 Y62.146
G03 X34.5 Y62.0 I1.492 J-0.146
G01 Y38.0
G03 X34.507 Y37.853 I1.5 J0.0
G01 X34.545 Y37.462
G03 X34.603 Y37.174 I1.492 J0.146
G01 X34.716 Y36.798
G03 X34.829 Y36.527 I1.435 J0.435
G01 X35.014 Y36.181
G03 X35.177 Y35.937 I1.322 J0.707
G01 X35.426 Y35.634
G03 X35.634 Y35.426 I1.159 J0.951
G01 X35.937 Y35.177
G03 X36.181 Y35.014 I0.951 J1.159
G01 X36.527 Y34.829
G03 X36.798 Y34.716 I0.707 J1.322
G01 X37.174 Y34.603
G03 X37.462 Y34.545 I0.435 J1.435
G01 X37.853 Y34.507
G03 X38.0 Y34.5 I0.146 J1.492
G01 X62.0
G03 X62.146 Y34.507 I0.0 J1.5
G01 X62.537 Y34.545
G03 X62.825 Y34.603 I-0.146 J1.492
G01 X63.201 Y34.716
G03 X63.472 Y34.829 I-0.435 J1.435
G01 X63.818 Y35.014
G03 X64.062 Y35.177 I-0.707 J1.322
G01 X64.365 Y35.426
G03 X64.573 Y35.634 I-0.951 J1.159
G01 X64.822 Y35.937
G01 Z-6.0 F100
G03 X64.985 Y36.181 I-1.159 J0.951 F200
G01 X65.17 Y36.527
G03 X65.283 Y36.798 I-1.322 J0.707
G01 X65.396 Y37.174
G03 X65.454 Y37.462 I-1.435 J0.435
G01 X65.492 Y37.853
G03 X65.5 Y38.0 I-1.492 J0.146
G01 Y40.0
G01 Z-5.0
G01 Y48.0
G01 Z-6.0
G01 Y62.0
G03 X65.492 Y62.146 I-1.5 J0.0
G01 X65.454 Y62.537
G03 X65.396 Y62.825 I-1.492 J-0.146
G01 X65.283 Y63.201
G03 X65.17 Y63.472 I-1.435 J-0.435
G01 X64.985 Y63.818
G03 X64.822 Y64.062 I-1.322 J-0.707
G01 X64.573 Y64.365
G03 X64.365 Y64.573 I-1.159 J-0.951
G01 X64.062 Y64.822
G03 X63.818 Y64.985 I-0.951 J-1.159
G01 X63.472 Y65.17
G03 X63.201 Y65.283 I-0.707 J-1.322
G01 X62.825 Y65.396
G03 X62.537 Y65.454 I-0.435 J-1.435
G01 X62.146 Y65.492
G03 X62.0 Y65.5 I-0.146 J-1.492
G01 X59.0
G01 Z-5.0
G01 X51.0
G01 Z-6.0
G01 X38.0
G03 X37.853 Y65.492 I-0.0 J-1.5
G01 X37.462 Y65.454
G03 X37.174 Y65.396 I0.146 J-1.492
G01 X36.798 Y65.283
G03 X36.527 Y65.17 I0.435 J-1.435
G01 X36.181 Y64.985
G03 X35.937 Y64.822 I0.707 J-1.322
G01 X35.634 Y64.573
G03 X35.426 Y64.365 I0.951 J-1.159
G01 X35.177 Y64.062
G03 X35.014 Y63.818 I1.159 J-0.951
G01 X34.829 Y63.472
G03 X34.716 Y63.201 I1.322 J-0.707
G01 X34.603 Y62.825
G03 X34.545 Y62.537 I1.435 J-0.435
G01 X34.507 Y62.146
G03 X34.5 Y62.0 I1.492 J-0.146
G01 Y48.0
G01 Z-5.0
G01 Y40.0
G01 Z-6.0
G01 Y38.0
G03 X34.507 Y37.853 I1.5 J0.0
G01 X34.545 Y37.462
G03 X34.603 Y37.174 I1.492 J0.146
G01 X34.716 Y36.798
G03 X34.829 Y36.527 I1.435 J0.435
G01 X35.014 Y36.181
G03 X35.177 Y35.937 I1.322 J0.707
G01 X35.426 Y35.634
G03 X35.634 Y35.426 I1.159 J0.951
G01 X35.937 Y35.177
G03 X36.181 Y35.014 I0.951 J1.159
G01 X36.527 Y34.829
G03 X36.798 Y34.716 I0.707 J1.322
G01 X37.174 Y34.603
G03 X37.462 Y34.545 I0.435 J1.435
G01 X37.853 Y34.507
G03 X38.0 Y34.5 I0.146 J1.492
G01 X51.0
G01 Z-5.0
G01 X59.0
G01 Z-6.0
G01 X62.0
G03 X62.146 Y34.507 I0.0 J1.5
G01 X62.537 Y34.545
G03 X62.825 Y34.603 I-0.146 J1.492
G01 X63.201 Y34.716
G03 X63.472 Y34.829 I-0.435 J1.435
G01 X63.818 Y35.014
G03 X64.062 Y35.177 I-0.707 J1.322
G01 X64.365 Y35.426
G03 X64.573 Y35.634 I-0.951 J1.159
G01 X64.822 Y35.937
G01 Z-6.3 F100
G03 X64.985 Y36.181 I-1.159 J0.951 F200
G01 X65.17 Y36.527
G03 X65.283 Y36.798 I-1.322 J0.707
G01 X65.396 Y37.174
G03 X65.454 Y37.462 I-1.435 J0.435
G01 X65.492 Y37.853
G03 X65.5 Y38.0 I-1.492 J0.146
G01 Y40.0
G01 Z-5.0
G01 Y48.0
G01 Z-6.3
G01 Y62.0
G03 X65.492 Y62.146 I-1.5 J0.0
G01 X65.454 Y62.537
G03 X65.396 Y62.825 I-1.492 J-0.146
G01 X65.283 Y63.201
G03 X65.17 Y63.472 I-1.435 J-0.435
G01 X64.985 Y63.818
G03 X64.822 Y64.062 I-1.322 J-0.707
G01 X64.573 Y64.365
G03 X64.365 Y64.573 I-1.159 J-0.951
G01 X64.062 Y64.822
G03 X63.818 Y64.985 I-0.951 J-1.159
G01 X63.472 Y65.17
G03 X63.201 Y65.283 I-0.707 J-1.322
G01 X62.825 Y65.396
G03 X62.537 Y65.454 I-0.435 J-1.435
G01 X62.146 Y65.492
G03 X62.0 Y65.5 I-0.146 J-1.492
G01 X59.0
G01 Z-5.0
G01 X51.0
G01 Z-6.3
G01 X38.0
G03 X37.853 Y65.492 I-0.0 J-1.5
G01 X37.462 Y65.454
G03 X37.174 Y65.396 I0.146 J-1.492
G01 X36.798 Y65.283
G03 X36.527 Y65.17 I0.435 J-1.435
G01 X36.181 Y64.985
G03 X35.937 Y64.822 I0.707 J-1.322
G01 X35.634 Y64.573
G03 X35.426 Y64.365 I0.951 J-1.159
G01 X35.177 Y64.062
G03 X35.014 Y63.818 I1.159 J-0.951
G01 X34.829 Y63.472
G03 X34.716 Y63.201 I1.322 J-0.707
G01 X34.603 Y62.825
G03 X34.545 Y62.537 I1.435 J-0.435
G01 X34.507 Y62.146
G03 X34.5 Y62.0 I1.492 J-0.146
G01 Y48.0
G01 Z-5.0
G01 Y40.0
G01 Z-6.3
G01 Y38.0
G03 X34.507 Y37.853 I1.5 J0.0
G01 X34.545 Y37.462
G03 X34.603 Y37.174 I1.492 J0.146
G01 X34.716 Y36.798
G03 X34.829 Y36.527 I1.435 J0.435
G01 X35.014 Y36.181
G03 X35.177 Y35.937 I1.322 J0.707
G01 X35.426 Y35.634
G03 X35.634 Y35.426 I1.159 J0.951
G01 X35.937 Y35.177
G03 X36.181 Y35.014 I0.951 J1.159
G01 X36.527 Y34.829
G03 X36.798 Y34.716 I0.707 J1.322
G01 X37.174 Y34.603
G03 X37.462 Y34.545 I0.435 J1.435
G01 X37.853 Y34.507
G03 X38.0 Y34.5 I0.146 J1.492
G01 X51.0
G01 Z-5.0
G01 X59.0
G01 Z-6.3
G01 X62.0
G03 X62.146 Y34.507 I0.0 J1.5
G01 X62.537 Y34.545
G03 X62.825 Y34.603 I-0.146 J1.492
G01 X63.201 Y34.716
G03 X63.472 Y34.829 I-0.435 J1.435
G01 X63.818 Y35.014
G03 X64.062 Y35.177 I-0.707 J1.322
G01 X64.365 Y35.426
G03 X64.573 Y35.634 I-0.951 J1.159
G01 X64.822 Y35.937
G00 Z1.0
M05
M02
 (--------------------------------------------------)
 (CAMmill-Configuration)
 (cfg:View-Zoom: 2.789999)
 (cfg:View-Helplines: 1)
 (cfg:View-ShowGrid: 1)
 (cfg:View-ShowTool: 1)
 (cfg:View-Textures: 0)
 (cfg:View-Rotate-X: -25.000000)
 (cfg:View-Rotate-Y: 0.000000)
 (cfg:View-Rotate-Z: -373.000000)
 (cfg:View-Translate-X: -14)
 (cfg:View-Translate-Y: 5)
 (cfg:View-Grid-Size: 10.000000)
 (cfg:View-Arrow-Scale: 1.000000)
 (cfg:Tool-Select: -1)
 (cfg:Tool-Number: 1)
 (cfg:Tool-Diameter: 3.000000)
 (cfg:Tool-Speed: 10000)
 (cfg:Tool-Coolant: 0)
 (cfg:Tool-Kepp spinning: 1)
 (cfg:Milling-FeedRate: 200)
 (cfg:Milling-PlungeRate: 100)
 (cfg:Milling-Depth: -6.300000)
 (cfg:Milling-Z-Step: -2.000000)
 (cfg:Milling-Save-Move: 1.000000)
 (cfg:Milling-Overcut: 0)
 (cfg:Milling-Lasermode: 0)
 (cfg:Milling-Climb: 0)
 (cfg:Milling-NoOffsets: 0)
 (cfg:Milling-Helix: 0)
 (cfg:Milling-Velocity-Mode: 0)
 (cfg:Milling-Blending Tolerance: 0.020000)
 (cfg:Milling-DXF-File: /home/tim/3d/tim-open-things/mill-highpowerledbracket/bracket2.dxf)
 (cfg:Milling-Output-File: /home/tim/3d/tim-open-things/mill-highpowerledbracket/bracket2.ngc)
 (cfg:Pockets-Pocket: 1)
 (cfg:Pockets-Pocket-Stepover: 50)
 (cfg:Holding-Tabs-Activate: 1)
 (cfg:Holding-Tabs-Show Grid: 1)
 (cfg:Holding-Tabs-Depth: -5.000000)
 (cfg:Holding-Tabs-Length: 5.000000)
 (cfg:Holding-Tabs-Triangle-Type: 0)
 (cfg:Holding-Tabs-On Open: 0)
 (cfg:Holding-Tabs-On Inside: 0)
 (cfg:Holding-Tabs-On Outside: 1)
 (cfg:Holding-Tabs-X-Grid: 55.000000)
 (cfg:Holding-Tabs-Y-Grid: 44.000000)
 (cfg:Text-Mill Text: 0)
 (cfg:Text-Mill-Depth: -0.500000)
 (cfg:Text-Fixed-W: 1)
 (cfg:Text-Scale-W: 1.000000)
 (cfg:Text-Scale-H: 1.000000)
 (cfg:Text-Font: 0)
 (cfg:Text-Overwrite: 0)
 (cfg:Text-Tool-Number: 1)
 (cfg:Text-Tool-Diameter: 3.000000)
 (cfg:Text-Tool-Speed: 10000)
 (cfg:Machine-Fastmove-Speed: 1000)
 (cfg:Machine-Spindle-Delay: 1.000000)
 (cfg:Machine-Fast-Z: 1.000000)
 (cfg:Machine-Post: 0)
 (cfg:Machine-Post-Command: )
 (cfg:Calculation-Tool-Flutes: 2)
 (cfg:Calculation-Select: 4)
 (cfg:Calculation-Cutting Speed: 100)
 (cfg:Calculation-Feed/Tooth@<4mm: 0.000000)
 (cfg:Calculation-Feed/Tooth@<8mm: 0.000000)
 (cfg:Calculation-Feed/Tooth@<12mm: 0.000000)
 (cfg:Calculation-CalcSpeed: 10610)
 (cfg:Calculation-MaxFeedRate: 0)
 (cfg:Objects-Select: 6)
 (cfg:Objects-Use: 1)
 (cfg:Objects-Overwrite: 0)
 (cfg:Objects-Climb: 0)
 (cfg:Objects-Offset: 2)
 (cfg:Objects-Overcut: 0)
 (cfg:Objects-Pocket: 0)
 (cfg:Objects-Helix: 0)
 (cfg:Objects-Laser: 0)
 (cfg:Objects-Depth: -6.300000)
 (cfg:Objects-Holding-Tab's: 1)
 (cfg:Objects-Order: 5)
 (cfg:Objects-Tool-Number: 1)
 (cfg:Objects-Tool-Diameter: 3.000000)
 (cfg:Objects-Tool-Speed: 10000)
 (cfg:Rotary-Activate: 0)
 (cfg:Rotary-Axis: 0)
 (cfg:Rotary-Diameter: 100.000000)
 (cfg:Tangencial-Activate: 0)
 (cfg:Tangencial-Axis: 1)
 (cfg:Tangencial-MaxAngle: 10.000000)
 (cfg:Window-X-Position: 0)
 (cfg:Window-Y-Position: 55)
 (cfg:Window-Width: 3246)
 (cfg:Window-Height: 1565)
 (cfg:Window-Maximized: 0)
 (cfg:Misc-Unit: 1)
 (cfg:Misc-Tolerance: 0.001000)
 (cfg:Misc-Tool-Table: )
 (cfg:Misc-Parameter: 0)
 (cfg:Misc-Setup-Autosave: 1)
 (cfg:Misc-Batchmode: 0)
 (cfg:Misc-LoadPath: /home/tim/3d/tim-open-things/mill-highpowerledbracket)
 (cfg:Misc-SavePath: /home/tim/3d/tim-open-things/mill-highpowerledbracket)
 (cfg:Misc-PresetPath: )
 (cfg:Misc-Delete Double Lines: 1)
 (cfg:Misc-Zero: 0)
 (cfg:Misc-Zero-Offset-X: 0.000000)
 (cfg:Misc-Zero-Offset-Y: 0.000000)
 (cfg:Misc-Append Config: 1)
 (cfg:Misc-Texture: ../share/cammill/textures/plast.bmp)
 (cfg:Misc-NC-Debug: 0)
 (--------------------------------------------------)
