 ( CAMmill GRBL Postprocessor )
 ( Ver: 20150830 - by onekk )
 ( GRBL Support only G61 mode )
 ( Version < 0.9i build 20150529 )
 ( must delete the G61 from this file )
 ( otherwise it raise an error )
G21 (Metric/mm)
G40 (No Offsets)
G90 (Absolute-Mode)
G61
F100
 (--------------------------------------------------)
 (Object: #9)
 (Layer: 0)
 (Overcut: 0)
 (Depth: -6.300000)
 (Offset: Inside)
 (Tool-Num: 1)
 (Tool-Diameter: 3.00)
 (Tool-Speed: 12000)
 (--------------------------------------------------)
M05
M6 T1
M03 S12000
G00 X20.111 Y20.111 Z2.0
G00 X26.298 Y26.298
G00 Z1.0
G01 Z-2.0
G01 X26.174 Y26.448 F1000
G01 X26.082 Y26.62
G01 X26.026 Y26.806
G01 X26.007 Y27.0
G01 X26.026 Y27.193
G01 X26.082 Y27.379
G01 X26.174 Y27.551
G01 X26.298 Y27.701
G01 X26.448 Y27.825
G01 X26.62 Y27.917
G01 X26.806 Y27.973
G01 X27.0 Y27.992
G01 X27.193 Y27.973
G01 X27.379 Y27.917
G01 X27.551 Y27.825
G01 X27.701 Y27.701
G01 X27.825 Y27.551
G01 X27.917 Y27.379
G01 X27.973 Y27.193
G01 X27.992 Y27.0
G01 X27.973 Y26.806
G01 X27.917 Y26.62
G01 X27.825 Y26.448
G01 X27.701 Y26.298
G01 X27.551 Y26.174
G01 X27.379 Y26.082
G01 X27.193 Y26.026
G01 X27.0 Y26.007
G01 X26.806 Y26.026
G01 X26.62 Y26.082
G01 X26.448 Y26.174
G01 X26.298 Y26.298
G01 Z-4.0 F100
G01 X26.174 Y26.448 F1000
G01 X26.082 Y26.62
G01 X26.026 Y26.806
G01 X26.007 Y27.0
G01 X26.026 Y27.193
G01 X26.082 Y27.379
G01 X26.174 Y27.551
G01 X26.298 Y27.701
G01 X26.448 Y27.825
G01 X26.62 Y27.917
G01 X26.806 Y27.973
G01 X27.0 Y27.992
G01 X27.193 Y27.973
G01 X27.379 Y27.917
G01 X27.551 Y27.825
G01 X27.701 Y27.701
G01 X27.825 Y27.551
G01 X27.917 Y27.379
G01 X27.973 Y27.193
G01 X27.992 Y27.0
G01 X27.973 Y26.806
G01 X27.917 Y26.62
G01 X27.825 Y26.448
G01 X27.701 Y26.298
G01 X27.551 Y26.174
G01 X27.379 Y26.082
G01 X27.193 Y26.026
G01 X27.0 Y26.007
G01 X26.806 Y26.026
G01 X26.62 Y26.082
G01 X26.448 Y26.174
G01 X26.298 Y26.298
G01 Z-6.0 F100
G01 X26.174 Y26.448 F1000
G01 X26.082 Y26.62
G01 X26.026 Y26.806
G01 X26.007 Y27.0
G01 X26.026 Y27.193
G01 X26.082 Y27.379
G01 X26.174 Y27.551
G01 X26.298 Y27.701
G01 X26.448 Y27.825
G01 X26.62 Y27.917
G01 X26.806 Y27.973
G01 X27.0 Y27.992
G01 X27.193 Y27.973
G01 X27.379 Y27.917
G01 X27.551 Y27.825
G01 X27.701 Y27.701
G01 X27.825 Y27.551
G01 X27.917 Y27.379
G01 X27.973 Y27.193
G01 X27.992 Y27.0
G01 X27.973 Y26.806
G01 X27.917 Y26.62
G01 X27.825 Y26.448
G01 X27.701 Y26.298
G01 X27.551 Y26.174
G01 X27.379 Y26.082
G01 X27.193 Y26.026
G01 X27.0 Y26.007
G01 X26.806 Y26.026
G01 X26.62 Y26.082
G01 X26.448 Y26.174
G01 X26.298 Y26.298
G01 Z-6.3 F100
G01 X26.174 Y26.448 F1000
G01 X26.082 Y26.62
G01 X26.026 Y26.806
G01 X26.007 Y27.0
G01 X26.026 Y27.193
G01 X26.082 Y27.379
G01 X26.174 Y27.551
G01 X26.298 Y27.701
G01 X26.448 Y27.825
G01 X26.62 Y27.917
G01 X26.806 Y27.973
G01 X27.0 Y27.992
G01 X27.193 Y27.973
G01 X27.379 Y27.917
G01 X27.551 Y27.825
G01 X27.701 Y27.701
G01 X27.825 Y27.551
G01 X27.917 Y27.379
G01 X27.973 Y27.193
G01 X27.992 Y27.0
G01 X27.973 Y26.806
G01 X27.917 Y26.62
G01 X27.825 Y26.448
G01 X27.701 Y26.298
G01 X27.551 Y26.174
G01 X27.379 Y26.082
G01 X27.193 Y26.026
G01 X27.0 Y26.007
G01 X26.806 Y26.026
G01 X26.62 Y26.082
G01 X26.448 Y26.174
G01 X26.298 Y26.298
G00 Z2.0
 (--------------------------------------------------)
 (Object: #7)
 (Layer: 0)
 (Overcut: 0)
 (Depth: -6.300000)
 (Offset: Inside)
 (Tool-Num: 1)
 (Tool-Diameter: 3.00)
 (Tool-Speed: 12000)
 (--------------------------------------------------)
M05

M03
G00
G00 X34.434 Y34.434
G00 Z1.0
G01 Z-2.0 F100
G01 X34.422 Y34.448 F1000
G01 X34.414 Y34.464
G01 X34.409 Y34.481
G01 X34.407 Y34.5
G01 X34.409 Y34.518
G01 X34.414 Y34.535
G01 X34.422 Y34.551
G01 X34.434 Y34.565
G01 X34.448 Y34.577
G01 X34.464 Y34.585
G01 X34.481 Y34.59
G01 X34.5 Y34.592
G01 X34.518 Y34.59
G01 X34.535 Y34.585
G01 X34.551 Y34.577
G01 X34.565 Y34.565
G01 X34.577 Y34.551
G01 X34.585 Y34.535
G01 X34.59 Y34.518
G01 X34.592 Y34.5
G01 X34.59 Y34.481
G01 X34.585 Y34.464
G01 X34.577 Y34.448
G01 X34.565 Y34.434
G01 X34.551 Y34.422
G01 X34.535 Y34.414
G01 X34.518 Y34.409
G01 X34.5 Y34.407
G01 X34.481 Y34.409
G01 X34.464 Y34.414
G01 X34.448 Y34.422
G01 X34.434 Y34.434
G01 Z-4.0 F100
G01 X34.422 Y34.448 F1000
G01 X34.414 Y34.464
G01 X34.409 Y34.481
G01 X34.407 Y34.5
G01 X34.409 Y34.518
G01 X34.414 Y34.535
G01 X34.422 Y34.551
G01 X34.434 Y34.565
G01 X34.448 Y34.577
G01 X34.464 Y34.585
G01 X34.481 Y34.59
G01 X34.5 Y34.592
G01 X34.518 Y34.59
G01 X34.535 Y34.585
G01 X34.551 Y34.577
G01 X34.565 Y34.565
G01 X34.577 Y34.551
G01 X34.585 Y34.535
G01 X34.59 Y34.518
G01 X34.592 Y34.5
G01 X34.59 Y34.481
G01 X34.585 Y34.464
G01 X34.577 Y34.448
G01 X34.565 Y34.434
G01 X34.551 Y34.422
G01 X34.535 Y34.414
G01 X34.518 Y34.409
G01 X34.5 Y34.407
G01 X34.481 Y34.409
G01 X34.464 Y34.414
G01 X34.448 Y34.422
G01 X34.434 Y34.434
G01 Z-6.0 F100
G01 X34.422 Y34.448 F1000
G01 X34.414 Y34.464
G01 X34.409 Y34.481
G01 X34.407 Y34.5
G01 X34.409 Y34.518
G01 X34.414 Y34.535
G01 X34.422 Y34.551
G01 X34.434 Y34.565
G01 X34.448 Y34.577
G01 X34.464 Y34.585
G01 X34.481 Y34.59
G01 X34.5 Y34.592
G01 X34.518 Y34.59
G01 X34.535 Y34.585
G01 X34.551 Y34.577
G01 X34.565 Y34.565
G01 X34.577 Y34.551
G01 X34.585 Y34.535
G01 X34.59 Y34.518
G01 X34.592 Y34.5
G01 X34.59 Y34.481
G01 X34.585 Y34.464
G01 X34.577 Y34.448
G01 X34.565 Y34.434
G01 X34.551 Y34.422
G01 X34.535 Y34.414
G01 X34.518 Y34.409
G01 X34.5 Y34.407
G01 X34.481 Y34.409
G01 X34.464 Y34.414
G01 X34.448 Y34.422
G01 X34.434 Y34.434
G01 Z-6.3 F100
G01 X34.422 Y34.448 F1000
G01 X34.414 Y34.464
G01 X34.409 Y34.481
G01 X34.407 Y34.5
G01 X34.409 Y34.518
G01 X34.414 Y34.535
G01 X34.422 Y34.551
G01 X34.434 Y34.565
G01 X34.448 Y34.577
G01 X34.464 Y34.585
G01 X34.481 Y34.59
G01 X34.5 Y34.592
G01 X34.518 Y34.59
G01 X34.535 Y34.585
G01 X34.551 Y34.577
G01 X34.565 Y34.565
G01 X34.577 Y34.551
G01 X34.585 Y34.535
G01 X34.59 Y34.518
G01 X34.592 Y34.5
G01 X34.59 Y34.481
G01 X34.585 Y34.464
G01 X34.577 Y34.448
G01 X34.565 Y34.434
G01 X34.551 Y34.422
G01 X34.535 Y34.414
G01 X34.518 Y34.409
G01 X34.5 Y34.407
G01 X34.481 Y34.409
G01 X34.464 Y34.414
G01 X34.448 Y34.422
G01 X34.434 Y34.434
G00 Z2.0
 (--------------------------------------------------)
 (Object: #5)
 (Layer: 0)
 (Pocket-Operation)
 (--------------------------------------------------)
G00
G00 X55.0 Y50.0
G00 Z1.0
G01 Z-1.5 F100
G01 X79.0 F1000
G01 X79.75 Y51.5
G01 X54.25
G01 X52.75 Y53.0
G01 X81.25
G00 Z2.0
G00 X84.25 Y54.5
G00 Z1.0
G01 Z-1.5 F100
G01 X49.75 F1000
G00 Z2.0
G00 X43.0 Y56.0
G00 Z1.0
G01 Z-1.5 F100
G01 X91.0 F1000
G01 X91.75 Y57.5
G01 X42.25
G01 Y59.0
G01 X62.5
G01 X60.25 Y60.5
G01 X42.25
G01 Y62.0
G01 X59.5
G01 X58.75 Y63.5
G01 X42.25
G01 Y65.0
G01 X58.0
G01 Y66.5
G01 X42.25
G01 Y68.0
G01 X58.0
G01 Y69.5
G01 X42.25
G01 Y71.0
G01 X58.75
G01 X59.5 Y72.5
G01 X42.25
G01 Y74.0
G01 X61.0
G00 Z2.0
G00 X64.0 Y75.5
G00 Z1.0
G01 Z-1.5 F100
G01 X42.25 F1000
G01 Y77.0
G01 X91.75
G01 Y75.5
G01 X70.0
G00 Z2.0
G00 X73.0 Y74.0
G00 Z1.0
G01 Z-1.5 F100
G01 X91.75 F1000
G01 Y72.5
G01 X74.5
G01 X75.25 Y71.0
G01 X91.75
G01 Y69.5
G01 X76.0
G01 Y68.0
G01 X91.75
G01 Y66.5
G01 X76.0
G01 Y65.0
G01 X91.75
G01 Y63.5
G01 X75.25
G01 X74.5 Y62.0
G01 X91.75
G01 Y60.5
G01 X73.75
G01 X71.5 Y59.0
G01 X91.75
G00 Z2.0
G00 X87.25 Y78.5
G00 Z1.0
G01 Z-1.5 F100
G01 X46.75 F1000
G00 Z2.0
G00 X51.25 Y80.0
G00 Z1.0
G01 Z-1.5 F100
G01 X82.75 F1000
G01 X80.5 Y81.5
G01 X53.5
G01 X54.25 Y83.0
G01 X79.75
G01 X79.0 Y84.5
G01 X55.0
 (--------------------------------------------------)
 (Object: #5)
 (Layer: 0)
 (Overcut: 0)
 (Depth: -1.500000)
 (Offset: Inside)
 (Tool-Num: 1)
 (Tool-Diameter: 3.00)
 (Tool-Speed: 12000)
 (--------------------------------------------------)
M05

M03
G00 Z2.0
G00 X42.428 Y55.62
G00 Z1.0
G01 Z-1.5 F100
G01 X42.17 Y55.758 F1000
G01 X41.944 Y55.944
G01 X41.758 Y56.17
G01 X41.62 Y56.428
G01 X41.535 Y56.708
G01 X41.5 Y57.073
G01 Y76.926
G01 X41.535 Y77.291
G01 X41.62 Y77.571
G01 X41.758 Y77.829
G01 X41.944 Y78.055
G01 X42.17 Y78.241
G01 X42.428 Y78.379
G01 X42.708 Y78.464
G01 X43.073 Y78.5
G01 X45.591
G03 X47.026 Y79.563 I0.0 J1.5
G01 X47.006 Y79.496
G01 X47.006 Y79.496
G01 X47.005 Y79.494
G01 X47.003 Y79.493
G01 X47.002 Y79.493
G01 X47.001 Y79.492
G01 X48.317 Y79.622
G03 X48.605 Y79.679 I-0.147 J1.492
G01 X49.731 Y80.021
G03 X50.003 Y80.133 I-0.435 J1.435
G01 X51.04 Y80.688
G03 X51.285 Y80.851 I-0.707 J1.322
G01 X52.194 Y81.597
G03 X52.402 Y81.805 I-0.951 J1.159
G01 X53.148 Y82.714
G03 X53.311 Y82.959 I-1.159 J0.951
G01 X53.866 Y83.996
G03 X53.978 Y84.268 I-1.322 J0.707
G01 X54.32 Y85.394
G03 X54.377 Y85.682 I-1.435 J0.435
G01 X54.507 Y86.998
G01 X54.506 Y86.997
G01 X54.506 Y86.996
G01 X54.505 Y86.994
G01 X54.503 Y86.993
G01 X54.502 Y86.993
G01 X54.501 Y86.992
G01 X54.5 Y86.992
G01 X54.498 Y86.992
G01 X54.497 Y86.993
G01 X54.496 Y86.993
G01 X54.494 Y86.995
G01 X54.493 Y86.996
G01 X54.493 Y86.997
G01 X54.492 Y86.998
G01 X54.507 Y86.853
G03 X56.0 Y85.5 I1.492 J0.146
G01 X78.0
G03 X79.492 Y86.853 I0.0 J1.5
G01 X79.507 Y86.998
G01 X79.506 Y86.997
G01 X79.506 Y86.996
G01 X79.505 Y86.995
G01 X79.503 Y86.993
G01 X79.502 Y86.993
G01 X79.501 Y86.992
G01 X79.5 Y86.992
G01 X79.498 Y86.992
G01 X79.497 Y86.993
G01 X79.496 Y86.993
G01 X79.494 Y86.994
G01 X79.493 Y86.996
G01 X79.493 Y86.997
G01 X79.492 Y86.998
G01 X79.622 Y85.682
G03 X79.679 Y85.394 I1.492 J0.147
G01 X80.021 Y84.268
G03 X80.133 Y83.996 I1.435 J0.435
G01 X80.688 Y82.959
G03 X80.851 Y82.714 I1.322 J0.707
G01 X81.597 Y81.805
G03 X81.805 Y81.597 I1.159 J0.951
G01 X82.714 Y80.851
G03 X82.959 Y80.688 I0.951 J1.159
G01 X83.996 Y80.133
G03 X84.268 Y80.021 I0.707 J1.322
G01 X85.394 Y79.679
G03 X85.682 Y79.622 I0.435 J1.435
G01 X86.998 Y79.492
G01 X86.997 Y79.493
G01 X86.996 Y79.493
G01 X86.994 Y79.494
G01 X86.993 Y79.496
G01 X86.993 Y79.496
G01 X86.973 Y79.563
G03 X88.408 Y78.5 I1.435 J0.436
G01 X90.926
G01 X91.291 Y78.464
G01 X91.571 Y78.379
G01 X91.829 Y78.241
G01 X92.055 Y78.055
G01 X92.241 Y77.829
G01 X92.379 Y77.571
G01 X92.464 Y77.291
G01 X92.5 Y76.926
G01 Y57.073
G01 X92.464 Y56.708
G01 X92.379 Y56.428
G01 X92.241 Y56.17
G01 X92.055 Y55.944
G01 X91.829 Y55.758
G01 X91.571 Y55.62
G01 X91.291 Y55.535
G01 X90.926 Y55.5
G01 X88.408
G03 X86.973 Y54.436 I0.0 J-1.5
G01 X86.993 Y54.503
G01 X86.993 Y54.503
G01 X86.994 Y54.505
G01 X86.996 Y54.506
G01 X86.997 Y54.506
G01 X86.998 Y54.507
G01 X85.682 Y54.377
G03 X85.394 Y54.32 I0.147 J-1.492
G01 X84.268 Y53.978
G03 X83.996 Y53.866 I0.435 J-1.435
G01 X82.959 Y53.311
G03 X82.714 Y53.148 I0.707 J-1.322
G01 X81.805 Y52.402
G03 X81.597 Y52.194 I0.951 J-1.159
G01 X80.851 Y51.285
G03 X80.688 Y51.04 I1.159 J-0.951
G01 X80.133 Y50.003
G03 X80.021 Y49.731 I1.322 J-0.707
G01 X79.679 Y48.605
G03 X79.622 Y48.317 I1.435 J-0.435
G01 X79.492 Y47.001
G01 X79.493 Y47.002
G01 X79.493 Y47.003
G01 X79.494 Y47.005
G01 X79.496 Y47.006
G01 X79.497 Y47.006
G01 X79.498 Y47.007
G01 X79.5 Y47.007
G01 X79.501 Y47.007
G01 X79.502 Y47.006
G01 X79.503 Y47.006
G01 X79.505 Y47.004
G01 X79.506 Y47.003
G01 X79.506 Y47.002
G01 X79.507 Y47.001
G01 X79.492 Y47.146
G03 X78.0 Y48.5 I-1.492 J-0.146
G01 X56.0
G03 X54.507 Y47.146 I0.0 J-1.5
G01 X54.492 Y47.001
G01 X54.493 Y47.002
G01 X54.493 Y47.003
G01 X54.494 Y47.004
G01 X54.496 Y47.006
G01 X54.497 Y47.006
G01 X54.498 Y47.007
G01 X54.5 Y47.007
G01 X54.501 Y47.007
G01 X54.502 Y47.006
G01 X54.503 Y47.006
G01 X54.505 Y47.005
G01 X54.506 Y47.003
G01 X54.506 Y47.002
G01 X54.507 Y47.001
G01 X54.377 Y48.317
G03 X54.32 Y48.605 I-1.492 J-0.147
G01 X53.978 Y49.731
G03 X53.866 Y50.003 I-1.435 J-0.435
G01 X53.311 Y51.04
G03 X53.148 Y51.285 I-1.322 J-0.707
G01 X52.402 Y52.194
G03 X52.194 Y52.402 I-1.159 J-0.951
G01 X51.285 Y53.148
G03 X51.04 Y53.311 I-0.951 J-1.159
G01 X50.003 Y53.866
G03 X49.731 Y53.978 I-0.707 J-1.322
G01 X48.605 Y54.32
G03 X48.317 Y54.377 I-0.435 J-1.435
G01 X47.001 Y54.507
G01 X47.002 Y54.506
G01 X47.003 Y54.506
G01 X47.005 Y54.505
G01 X47.006 Y54.503
G01 X47.006 Y54.503
G01 X47.026 Y54.436
G03 X45.591 Y55.5 I-1.435 J-0.436
G01 X43.073
G01 X42.708 Y55.535
G01 X42.428 Y55.62
G00 Z2.0
 (--------------------------------------------------)
 (Object: #4)
 (Layer: 0)
 (Overcut: 0)
 (Depth: -6.300000)
 (Offset: Inside)
 (Tool-Num: 1)
 (Tool-Diameter: 3.00)
 (Tool-Speed: 12000)
 (--------------------------------------------------)
M05

M03
G00
G00 X34.518 Y99.409
G00 Z1.0
G01 Z-2.0 F100
G01 X34.5 Y99.407 F1000
G01 X34.481 Y99.409
G01 X34.464 Y99.414
G01 X34.448 Y99.422
G01 X34.434 Y99.434
G01 X34.422 Y99.448
G01 X34.414 Y99.464
G01 X34.409 Y99.481
G01 X34.407 Y99.5
G01 X34.409 Y99.517
G01 X34.414 Y99.535
G01 X34.422 Y99.551
G01 X34.433 Y99.564
G01 X34.448 Y99.576
G01 X34.464 Y99.585
G01 X34.482 Y99.59
G01 X34.5 Y99.592
G01 X34.517 Y99.59
G01 X34.535 Y99.585
G01 X34.551 Y99.576
G01 X34.566 Y99.564
G01 X34.577 Y99.551
G01 X34.585 Y99.535
G01 X34.591 Y99.517
G01 X34.592 Y99.5
G01 X34.59 Y99.481
G01 X34.585 Y99.464
G01 X34.577 Y99.448
G01 X34.565 Y99.434
G01 X34.551 Y99.422
G01 X34.535 Y99.414
G01 X34.518 Y99.409
G01 Z-4.0 F100
G01 X34.5 Y99.407 F1000
G01 X34.481 Y99.409
G01 X34.464 Y99.414
G01 X34.448 Y99.422
G01 X34.434 Y99.434
G01 X34.422 Y99.448
G01 X34.414 Y99.464
G01 X34.409 Y99.481
G01 X34.407 Y99.5
G01 X34.409 Y99.517
G01 X34.414 Y99.535
G01 X34.422 Y99.551
G01 X34.433 Y99.564
G01 X34.448 Y99.576
G01 X34.464 Y99.585
G01 X34.482 Y99.59
G01 X34.5 Y99.592
G01 X34.517 Y99.59
G01 X34.535 Y99.585
G01 X34.551 Y99.576
G01 X34.566 Y99.564
G01 X34.577 Y99.551
G01 X34.585 Y99.535
G01 X34.591 Y99.517
G01 X34.592 Y99.5
G01 X34.59 Y99.481
G01 X34.585 Y99.464
G01 X34.577 Y99.448
G01 X34.565 Y99.434
G01 X34.551 Y99.422
G01 X34.535 Y99.414
G01 X34.518 Y99.409
G01 Z-6.0 F100
G01 X34.5 Y99.407 F1000
G01 X34.481 Y99.409
G01 X34.464 Y99.414
G01 X34.448 Y99.422
G01 X34.434 Y99.434
G01 X34.422 Y99.448
G01 X34.414 Y99.464
G01 X34.409 Y99.481
G01 X34.407 Y99.5
G01 X34.409 Y99.517
G01 X34.414 Y99.535
G01 X34.422 Y99.551
G01 X34.433 Y99.564
G01 X34.448 Y99.576
G01 X34.464 Y99.585
G01 X34.482 Y99.59
G01 X34.5 Y99.592
G01 X34.517 Y99.59
G01 X34.535 Y99.585
G01 X34.551 Y99.576
G01 X34.566 Y99.564
G01 X34.577 Y99.551
G01 X34.585 Y99.535
G01 X34.591 Y99.517
G01 X34.592 Y99.5
G01 X34.59 Y99.481
G01 X34.585 Y99.464
G01 X34.577 Y99.448
G01 X34.565 Y99.434
G01 X34.551 Y99.422
G01 X34.535 Y99.414
G01 X34.518 Y99.409
G01 Z-6.3 F100
G01 X34.5 Y99.407 F1000
G01 X34.481 Y99.409
G01 X34.464 Y99.414
G01 X34.448 Y99.422
G01 X34.434 Y99.434
G01 X34.422 Y99.448
G01 X34.414 Y99.464
G01 X34.409 Y99.481
G01 X34.407 Y99.5
G01 X34.409 Y99.517
G01 X34.414 Y99.535
G01 X34.422 Y99.551
G01 X34.433 Y99.564
G01 X34.448 Y99.576
G01 X34.464 Y99.585
G01 X34.482 Y99.59
G01 X34.5 Y99.592
G01 X34.517 Y99.59
G01 X34.535 Y99.585
G01 X34.551 Y99.576
G01 X34.566 Y99.564
G01 X34.577 Y99.551
G01 X34.585 Y99.535
G01 X34.591 Y99.517
G01 X34.592 Y99.5
G01 X34.59 Y99.481
G01 X34.585 Y99.464
G01 X34.577 Y99.448
G01 X34.565 Y99.434
G01 X34.551 Y99.422
G01 X34.535 Y99.414
G01 X34.518 Y99.409
G00 Z2.0
 (--------------------------------------------------)
 (Object: #2)
 (Layer: 0)
 (Overcut: 0)
 (Depth: -6.300000)
 (Offset: Inside)
 (Tool-Num: 1)
 (Tool-Diameter: 3.00)
 (Tool-Speed: 12000)
 (--------------------------------------------------)
M05

M03
G00
G00 X27.701 Y106.297
G00 Z1.0
G01 Z-2.0 F100
G01 X27.551 Y106.174 F1000
G01 X27.38 Y106.082
G01 X27.194 Y106.026
G01 X27.0 Y106.007
G01 X26.805 Y106.026
G01 X26.619 Y106.082
G01 X26.448 Y106.174
G01 X26.298 Y106.297
G01 X26.174 Y106.448
G01 X26.082 Y106.619
G01 X26.026 Y106.806
G01 X26.007 Y107.0
G01 X26.026 Y107.193
G01 X26.082 Y107.38
G01 X26.174 Y107.551
G01 X26.298 Y107.702
G01 X26.448 Y107.825
G01 X26.619 Y107.917
G01 X26.805 Y107.973
G01 X27.0 Y107.992
G01 X27.194 Y107.973
G01 X27.38 Y107.917
G01 X27.551 Y107.825
G01 X27.701 Y107.702
G01 X27.825 Y107.551
G01 X27.917 Y107.38
G01 X27.973 Y107.193
G01 X27.992 Y107.0
G01 X27.973 Y106.806
G01 X27.917 Y106.619
G01 X27.825 Y106.448
G01 X27.701 Y106.297
G01 Z-4.0 F100
G01 X27.551 Y106.174 F1000
G01 X27.38 Y106.082
G01 X27.194 Y106.026
G01 X27.0 Y106.007
G01 X26.805 Y106.026
G01 X26.619 Y106.082
G01 X26.448 Y106.174
G01 X26.298 Y106.297
G01 X26.174 Y106.448
G01 X26.082 Y106.619
G01 X26.026 Y106.806
G01 X26.007 Y107.0
G01 X26.026 Y107.193
G01 X26.082 Y107.38
G01 X26.174 Y107.551
G01 X26.298 Y107.702
G01 X26.448 Y107.825
G01 X26.619 Y107.917
G01 X26.805 Y107.973
G01 X27.0 Y107.992
G01 X27.194 Y107.973
G01 X27.38 Y107.917
G01 X27.551 Y107.825
G01 X27.701 Y107.702
G01 X27.825 Y107.551
G01 X27.917 Y107.38
G01 X27.973 Y107.193
G01 X27.992 Y107.0
G01 X27.973 Y106.806
G01 X27.917 Y106.619
G01 X27.825 Y106.448
G01 X27.701 Y106.297
G01 Z-6.0 F100
G01 X27.551 Y106.174 F1000
G01 X27.38 Y106.082
G01 X27.194 Y106.026
G01 X27.0 Y106.007
G01 X26.805 Y106.026
G01 X26.619 Y106.082
G01 X26.448 Y106.174
G01 X26.298 Y106.297
G01 X26.174 Y106.448
G01 X26.082 Y106.619
G01 X26.026 Y106.806
G01 X26.007 Y107.0
G01 X26.026 Y107.193
G01 X26.082 Y107.38
G01 X26.174 Y107.551
G01 X26.298 Y107.702
G01 X26.448 Y107.825
G01 X26.619 Y107.917
G01 X26.805 Y107.973
G01 X27.0 Y107.992
G01 X27.194 Y107.973
G01 X27.38 Y107.917
G01 X27.551 Y107.825
G01 X27.701 Y107.702
G01 X27.825 Y107.551
G01 X27.917 Y107.38
G01 X27.973 Y107.193
G01 X27.992 Y107.0
G01 X27.973 Y106.806
G01 X27.917 Y106.619
G01 X27.825 Y106.448
G01 X27.701 Y106.297
G01 Z-6.3 F100
G01 X27.551 Y106.174 F1000
G01 X27.38 Y106.082
G01 X27.194 Y106.026
G01 X27.0 Y106.007
G01 X26.805 Y106.026
G01 X26.619 Y106.082
G01 X26.448 Y106.174
G01 X26.298 Y106.297
G01 X26.174 Y106.448
G01 X26.082 Y106.619
G01 X26.026 Y106.806
G01 X26.007 Y107.0
G01 X26.026 Y107.193
G01 X26.082 Y107.38
G01 X26.174 Y107.551
G01 X26.298 Y107.702
G01 X26.448 Y107.825
G01 X26.619 Y107.917
G01 X26.805 Y107.973
G01 X27.0 Y107.992
G01 X27.194 Y107.973
G01 X27.38 Y107.917
G01 X27.551 Y107.825
G01 X27.701 Y107.702
G01 X27.825 Y107.551
G01 X27.917 Y107.38
G01 X27.973 Y107.193
G01 X27.992 Y107.0
G01 X27.973 Y106.806
G01 X27.917 Y106.619
G01 X27.825 Y106.448
G01 X27.701 Y106.297
G00 Z2.0
 (--------------------------------------------------)
 (Object: #3)
 (Layer: 0)
 (Overcut: 0)
 (Depth: -6.300000)
 (Offset: Inside)
 (Tool-Num: 1)
 (Tool-Diameter: 3.00)
 (Tool-Speed: 12000)
 (--------------------------------------------------)
M05

M03
G00
G00 X99.407 Y99.5
G00 Z1.0
G01 Z-2.0 F100
G01 X99.408 Y99.517 F1000
G01 X99.414 Y99.535
G01 X99.422 Y99.551
G01 X99.433 Y99.564
G01 X99.448 Y99.576
G01 X99.464 Y99.585
G01 X99.482 Y99.59
G01 X99.5 Y99.592
G01 X99.517 Y99.59
G01 X99.535 Y99.585
G01 X99.551 Y99.577
G01 X99.565 Y99.565
G01 X99.577 Y99.551
G01 X99.585 Y99.535
G01 X99.59 Y99.517
G01 X99.592 Y99.5
G01 X99.59 Y99.482
G01 X99.585 Y99.464
G01 X99.576 Y99.448
G01 X99.564 Y99.433
G01 X99.551 Y99.422
G01 X99.535 Y99.414
G01 X99.517 Y99.408
G01 X99.5 Y99.407
G01 X99.481 Y99.409
G01 X99.464 Y99.414
G01 X99.448 Y99.422
G01 X99.434 Y99.434
G01 X99.422 Y99.448
G01 X99.414 Y99.464
G01 X99.409 Y99.481
G01 X99.407 Y99.5
G01 Z-4.0 F100
G01 X99.408 Y99.517 F1000
G01 X99.414 Y99.535
G01 X99.422 Y99.551
G01 X99.433 Y99.564
G01 X99.448 Y99.576
G01 X99.464 Y99.585
G01 X99.482 Y99.59
G01 X99.5 Y99.592
G01 X99.517 Y99.59
G01 X99.535 Y99.585
G01 X99.551 Y99.577
G01 X99.565 Y99.565
G01 X99.577 Y99.551
G01 X99.585 Y99.535
G01 X99.59 Y99.517
G01 X99.592 Y99.5
G01 X99.59 Y99.482
G01 X99.585 Y99.464
G01 X99.576 Y99.448
G01 X99.564 Y99.433
G01 X99.551 Y99.422
G01 X99.535 Y99.414
G01 X99.517 Y99.408
G01 X99.5 Y99.407
G01 X99.481 Y99.409
G01 X99.464 Y99.414
G01 X99.448 Y99.422
G01 X99.434 Y99.434
G01 X99.422 Y99.448
G01 X99.414 Y99.464
G01 X99.409 Y99.481
G01 X99.407 Y99.5
G01 Z-6.0 F100
G01 X99.408 Y99.517 F1000
G01 X99.414 Y99.535
G01 X99.422 Y99.551
G01 X99.433 Y99.564
G01 X99.448 Y99.576
G01 X99.464 Y99.585
G01 X99.482 Y99.59
G01 X99.5 Y99.592
G01 X99.517 Y99.59
G01 X99.535 Y99.585
G01 X99.551 Y99.577
G01 X99.565 Y99.565
G01 X99.577 Y99.551
G01 X99.585 Y99.535
G01 X99.59 Y99.517
G01 X99.592 Y99.5
G01 X99.59 Y99.482
G01 X99.585 Y99.464
G01 X99.576 Y99.448
G01 X99.564 Y99.433
G01 X99.551 Y99.422
G01 X99.535 Y99.414
G01 X99.517 Y99.408
G01 X99.5 Y99.407
G01 X99.481 Y99.409
G01 X99.464 Y99.414
G01 X99.448 Y99.422
G01 X99.434 Y99.434
G01 X99.422 Y99.448
G01 X99.414 Y99.464
G01 X99.409 Y99.481
G01 X99.407 Y99.5
G01 Z-6.3 F100
G01 X99.408 Y99.517 F1000
G01 X99.414 Y99.535
G01 X99.422 Y99.551
G01 X99.433 Y99.564
G01 X99.448 Y99.576
G01 X99.464 Y99.585
G01 X99.482 Y99.59
G01 X99.5 Y99.592
G01 X99.517 Y99.59
G01 X99.535 Y99.585
G01 X99.551 Y99.577
G01 X99.565 Y99.565
G01 X99.577 Y99.551
G01 X99.585 Y99.535
G01 X99.59 Y99.517
G01 X99.592 Y99.5
G01 X99.59 Y99.482
G01 X99.585 Y99.464
G01 X99.576 Y99.448
G01 X99.564 Y99.433
G01 X99.551 Y99.422
G01 X99.535 Y99.414
G01 X99.517 Y99.408
G01 X99.5 Y99.407
G01 X99.481 Y99.409
G01 X99.464 Y99.414
G01 X99.448 Y99.422
G01 X99.434 Y99.434
G01 X99.422 Y99.448
G01 X99.414 Y99.464
G01 X99.409 Y99.481
G01 X99.407 Y99.5
G00 Z2.0
 (--------------------------------------------------)
 (Object: #1)
 (Layer: 0)
 (Overcut: 0)
 (Depth: -6.300000)
 (Offset: Inside)
 (Tool-Num: 1)
 (Tool-Diameter: 3.00)
 (Tool-Speed: 12000)
 (--------------------------------------------------)
M05

M03
G00
G00 X106.297 Y106.297
G00 Z1.0
G01 Z-2.0 F100
G01 X106.174 Y106.448 F1000
G01 X106.082 Y106.619
G01 X106.026 Y106.805
G01 X106.007 Y107.0
G01 X106.026 Y107.194
G01 X106.082 Y107.38
G01 X106.174 Y107.551
G01 X106.297 Y107.702
G01 X106.448 Y107.825
G01 X106.619 Y107.917
G01 X106.805 Y107.973
G01 X107.0 Y107.992
G01 X107.194 Y107.973
G01 X107.38 Y107.917
G01 X107.551 Y107.825
G01 X107.702 Y107.702
G01 X107.825 Y107.551
G01 X107.917 Y107.38
G01 X107.973 Y107.194
G01 X107.992 Y107.0
G01 X107.973 Y106.805
G01 X107.917 Y106.619
G01 X107.825 Y106.448
G01 X107.702 Y106.297
G01 X107.551 Y106.174
G01 X107.38 Y106.082
G01 X107.194 Y106.026
G01 X107.0 Y106.007
G01 X106.805 Y106.026
G01 X106.619 Y106.082
G01 X106.448 Y106.174
G01 X106.297 Y106.297
G01 Z-4.0 F100
G01 X106.174 Y106.448 F1000
G01 X106.082 Y106.619
G01 X106.026 Y106.805
G01 X106.007 Y107.0
G01 X106.026 Y107.194
G01 X106.082 Y107.38
G01 X106.174 Y107.551
G01 X106.297 Y107.702
G01 X106.448 Y107.825
G01 X106.619 Y107.917
G01 X106.805 Y107.973
G01 X107.0 Y107.992
G01 X107.194 Y107.973
G01 X107.38 Y107.917
G01 X107.551 Y107.825
G01 X107.702 Y107.702
G01 X107.825 Y107.551
G01 X107.917 Y107.38
G01 X107.973 Y107.194
G01 X107.992 Y107.0
G01 X107.973 Y106.805
G01 X107.917 Y106.619
G01 X107.825 Y106.448
G01 X107.702 Y106.297
G01 X107.551 Y106.174
G01 X107.38 Y106.082
G01 X107.194 Y106.026
G01 X107.0 Y106.007
G01 X106.805 Y106.026
G01 X106.619 Y106.082
G01 X106.448 Y106.174
G01 X106.297 Y106.297
G01 Z-6.0 F100
G01 X106.174 Y106.448 F1000
G01 X106.082 Y106.619
G01 X106.026 Y106.805
G01 X106.007 Y107.0
G01 X106.026 Y107.194
G01 X106.082 Y107.38
G01 X106.174 Y107.551
G01 X106.297 Y107.702
G01 X106.448 Y107.825
G01 X106.619 Y107.917
G01 X106.805 Y107.973
G01 X107.0 Y107.992
G01 X107.194 Y107.973
G01 X107.38 Y107.917
G01 X107.551 Y107.825
G01 X107.702 Y107.702
G01 X107.825 Y107.551
G01 X107.917 Y107.38
G01 X107.973 Y107.194
G01 X107.992 Y107.0
G01 X107.973 Y106.805
G01 X107.917 Y106.619
G01 X107.825 Y106.448
G01 X107.702 Y106.297
G01 X107.551 Y106.174
G01 X107.38 Y106.082
G01 X107.194 Y106.026
G01 X107.0 Y106.007
G01 X106.805 Y106.026
G01 X106.619 Y106.082
G01 X106.448 Y106.174
G01 X106.297 Y106.297
G01 Z-6.3 F100
G01 X106.174 Y106.448 F1000
G01 X106.082 Y106.619
G01 X106.026 Y106.805
G01 X106.007 Y107.0
G01 X106.026 Y107.194
G01 X106.082 Y107.38
G01 X106.174 Y107.551
G01 X106.297 Y107.702
G01 X106.448 Y107.825
G01 X106.619 Y107.917
G01 X106.805 Y107.973
G01 X107.0 Y107.992
G01 X107.194 Y107.973
G01 X107.38 Y107.917
G01 X107.551 Y107.825
G01 X107.702 Y107.702
G01 X107.825 Y107.551
G01 X107.917 Y107.38
G01 X107.973 Y107.194
G01 X107.992 Y107.0
G01 X107.973 Y106.805
G01 X107.917 Y106.619
G01 X107.825 Y106.448
G01 X107.702 Y106.297
G01 X107.551 Y106.174
G01 X107.38 Y106.082
G01 X107.194 Y106.026
G01 X107.0 Y106.007
G01 X106.805 Y106.026
G01 X106.619 Y106.082
G01 X106.448 Y106.174
G01 X106.297 Y106.297
G00 Z2.0
 (--------------------------------------------------)
 (Object: #8)
 (Layer: 0)
 (Overcut: 0)
 (Depth: -6.300000)
 (Offset: Inside)
 (Tool-Num: 1)
 (Tool-Diameter: 3.00)
 (Tool-Speed: 12000)
 (--------------------------------------------------)
M05

M03
G00
G00 X99.5 Y34.592
G00 Z1.0
G01 Z-2.0 F100
G01 X99.517 Y34.591 F1000
G01 X99.535 Y34.585
G01 X99.551 Y34.577
G01 X99.564 Y34.566
G01 X99.576 Y34.551
G01 X99.585 Y34.535
G01 X99.59 Y34.517
G01 X99.592 Y34.5
G01 X99.59 Y34.482
G01 X99.585 Y34.464
G01 X99.576 Y34.448
G01 X99.564 Y34.433
G01 X99.551 Y34.422
G01 X99.535 Y34.414
G01 X99.517 Y34.409
G01 X99.5 Y34.407
G01 X99.481 Y34.409
G01 X99.464 Y34.414
G01 X99.448 Y34.422
G01 X99.434 Y34.434
G01 X99.422 Y34.448
G01 X99.414 Y34.464
G01 X99.409 Y34.481
G01 X99.407 Y34.5
G01 X99.409 Y34.518
G01 X99.414 Y34.535
G01 X99.422 Y34.551
G01 X99.434 Y34.565
G01 X99.448 Y34.577
G01 X99.464 Y34.585
G01 X99.481 Y34.59
G01 X99.5 Y34.592
G01 Z-4.0 F100
G01 X99.517 Y34.591 F1000
G01 X99.535 Y34.585
G01 X99.551 Y34.577
G01 X99.564 Y34.566
G01 X99.576 Y34.551
G01 X99.585 Y34.535
G01 X99.59 Y34.517
G01 X99.592 Y34.5
G01 X99.59 Y34.482
G01 X99.585 Y34.464
G01 X99.576 Y34.448
G01 X99.564 Y34.433
G01 X99.551 Y34.422
G01 X99.535 Y34.414
G01 X99.517 Y34.409
G01 X99.5 Y34.407
G01 X99.481 Y34.409
G01 X99.464 Y34.414
G01 X99.448 Y34.422
G01 X99.434 Y34.434
G01 X99.422 Y34.448
G01 X99.414 Y34.464
G01 X99.409 Y34.481
G01 X99.407 Y34.5
G01 X99.409 Y34.518
G01 X99.414 Y34.535
G01 X99.422 Y34.551
G01 X99.434 Y34.565
G01 X99.448 Y34.577
G01 X99.464 Y34.585
G01 X99.481 Y34.59
G01 X99.5 Y34.592
G01 Z-6.0 F100
G01 X99.517 Y34.591 F1000
G01 X99.535 Y34.585
G01 X99.551 Y34.577
G01 X99.564 Y34.566
G01 X99.576 Y34.551
G01 X99.585 Y34.535
G01 X99.59 Y34.517
G01 X99.592 Y34.5
G01 X99.59 Y34.482
G01 X99.585 Y34.464
G01 X99.576 Y34.448
G01 X99.564 Y34.433
G01 X99.551 Y34.422
G01 X99.535 Y34.414
G01 X99.517 Y34.409
G01 X99.5 Y34.407
G01 X99.481 Y34.409
G01 X99.464 Y34.414
G01 X99.448 Y34.422
G01 X99.434 Y34.434
G01 X99.422 Y34.448
G01 X99.414 Y34.464
G01 X99.409 Y34.481
G01 X99.407 Y34.5
G01 X99.409 Y34.518
G01 X99.414 Y34.535
G01 X99.422 Y34.551
G01 X99.434 Y34.565
G01 X99.448 Y34.577
G01 X99.464 Y34.585
G01 X99.481 Y34.59
G01 X99.5 Y34.592
G01 Z-6.3 F100
G01 X99.517 Y34.591 F1000
G01 X99.535 Y34.585
G01 X99.551 Y34.577
G01 X99.564 Y34.566
G01 X99.576 Y34.551
G01 X99.585 Y34.535
G01 X99.59 Y34.517
G01 X99.592 Y34.5
G01 X99.59 Y34.482
G01 X99.585 Y34.464
G01 X99.576 Y34.448
G01 X99.564 Y34.433
G01 X99.551 Y34.422
G01 X99.535 Y34.414
G01 X99.517 Y34.409
G01 X99.5 Y34.407
G01 X99.481 Y34.409
G01 X99.464 Y34.414
G01 X99.448 Y34.422
G01 X99.434 Y34.434
G01 X99.422 Y34.448
G01 X99.414 Y34.464
G01 X99.409 Y34.481
G01 X99.407 Y34.5
G01 X99.409 Y34.518
G01 X99.414 Y34.535
G01 X99.422 Y34.551
G01 X99.434 Y34.565
G01 X99.448 Y34.577
G01 X99.464 Y34.585
G01 X99.481 Y34.59
G01 X99.5 Y34.592
G00 Z2.0
 (--------------------------------------------------)
 (Object: #10)
 (Layer: 0)
 (Overcut: 0)
 (Depth: -6.300000)
 (Offset: Inside)
 (Tool-Num: 1)
 (Tool-Diameter: 3.00)
 (Tool-Speed: 12000)
 (--------------------------------------------------)
M05

M03
G00
G00 X106.297 Y27.701
G00 Z1.0
G01 Z-2.0 F100
G01 X106.448 Y27.825 F1000
G01 X106.619 Y27.917
G01 X106.806 Y27.973
G01 X107.0 Y27.992
G01 X107.193 Y27.973
G01 X107.38 Y27.917
G01 X107.551 Y27.825
G01 X107.702 Y27.701
G01 X107.825 Y27.551
G01 X107.917 Y27.38
G01 X107.973 Y27.194
G01 X107.992 Y27.0
G01 X107.973 Y26.805
G01 X107.917 Y26.619
G01 X107.825 Y26.448
G01 X107.702 Y26.298
G01 X107.551 Y26.174
G01 X107.38 Y26.082
G01 X107.193 Y26.026
G01 X107.0 Y26.007
G01 X106.806 Y26.026
G01 X106.619 Y26.082
G01 X106.448 Y26.174
G01 X106.297 Y26.298
G01 X106.174 Y26.448
G01 X106.082 Y26.619
G01 X106.026 Y26.805
G01 X106.007 Y27.0
G01 X106.026 Y27.194
G01 X106.082 Y27.38
G01 X106.174 Y27.551
G01 X106.297 Y27.701
G01 Z-4.0 F100
G01 X106.448 Y27.825 F1000
G01 X106.619 Y27.917
G01 X106.806 Y27.973
G01 X107.0 Y27.992
G01 X107.193 Y27.973
G01 X107.38 Y27.917
G01 X107.551 Y27.825
G01 X107.702 Y27.701
G01 X107.825 Y27.551
G01 X107.917 Y27.38
G01 X107.973 Y27.194
G01 X107.992 Y27.0
G01 X107.973 Y26.805
G01 X107.917 Y26.619
G01 X107.825 Y26.448
G01 X107.702 Y26.298
G01 X107.551 Y26.174
G01 X107.38 Y26.082
G01 X107.193 Y26.026
G01 X107.0 Y26.007
G01 X106.806 Y26.026
G01 X106.619 Y26.082
G01 X106.448 Y26.174
G01 X106.297 Y26.298
G01 X106.174 Y26.448
G01 X106.082 Y26.619
G01 X106.026 Y26.805
G01 X106.007 Y27.0
G01 X106.026 Y27.194
G01 X106.082 Y27.38
G01 X106.174 Y27.551
G01 X106.297 Y27.701
G01 Z-6.0 F100
G01 X106.448 Y27.825 F1000
G01 X106.619 Y27.917
G01 X106.806 Y27.973
G01 X107.0 Y27.992
G01 X107.193 Y27.973
G01 X107.38 Y27.917
G01 X107.551 Y27.825
G01 X107.702 Y27.701
G01 X107.825 Y27.551
G01 X107.917 Y27.38
G01 X107.973 Y27.194
G01 X107.992 Y27.0
G01 X107.973 Y26.805
G01 X107.917 Y26.619
G01 X107.825 Y26.448
G01 X107.702 Y26.298
G01 X107.551 Y26.174
G01 X107.38 Y26.082
G01 X107.193 Y26.026
G01 X107.0 Y26.007
G01 X106.806 Y26.026
G01 X106.619 Y26.082
G01 X106.448 Y26.174
G01 X106.297 Y26.298
G01 X106.174 Y26.448
G01 X106.082 Y26.619
G01 X106.026 Y26.805
G01 X106.007 Y27.0
G01 X106.026 Y27.194
G01 X106.082 Y27.38
G01 X106.174 Y27.551
G01 X106.297 Y27.701
G01 Z-6.3 F100
G01 X106.448 Y27.825 F1000
G01 X106.619 Y27.917
G01 X106.806 Y27.973
G01 X107.0 Y27.992
G01 X107.193 Y27.973
G01 X107.38 Y27.917
G01 X107.551 Y27.825
G01 X107.702 Y27.701
G01 X107.825 Y27.551
G01 X107.917 Y27.38
G01 X107.973 Y27.194
G01 X107.992 Y27.0
G01 X107.973 Y26.805
G01 X107.917 Y26.619
G01 X107.825 Y26.448
G01 X107.702 Y26.298
G01 X107.551 Y26.174
G01 X107.38 Y26.082
G01 X107.193 Y26.026
G01 X107.0 Y26.007
G01 X106.806 Y26.026
G01 X106.619 Y26.082
G01 X106.448 Y26.174
G01 X106.297 Y26.298
G01 X106.174 Y26.448
G01 X106.082 Y26.619
G01 X106.026 Y26.805
G01 X106.007 Y27.0
G01 X106.026 Y27.194
G01 X106.082 Y27.38
G01 X106.174 Y27.551
G01 X106.297 Y27.701
G00 Z2.0
 (--------------------------------------------------)
 (Object: #0)
 (Layer: 0)
 (Overcut: 0)
 (Depth: -6.300000)
 (Offset: Outside)
 (Tool-Num: 1)
 (Tool-Diameter: 3.00)
 (Tool-Speed: 12000)
 (--------------------------------------------------)
M05

M03
G00
G00 X107.0 Y17.5
G00 Z1.0
G01 Z-2.0 F100
G03 X107.146 Y17.507 I0.0 J1.5 F1000
G01 X108.707 Y17.66
G03 X108.996 Y17.718 I-0.146 J1.492
G01 X110.496 Y18.173
G03 X110.767 Y18.285 I-0.435 J1.435
G01 X112.151 Y19.025
G03 X112.396 Y19.188 I-0.706 J1.323
G01 X113.608 Y20.183
G03 X113.816 Y20.391 I-0.951 J1.159
G01 X114.811 Y21.603
G03 X114.974 Y21.848 I-1.159 J0.951
G01 X115.713 Y23.231
G03 X115.826 Y23.503 I-1.322 J0.706
G01 X116.281 Y25.004
G03 X116.338 Y25.292 I-1.435 J0.435
G01 X116.492 Y26.852
G03 X116.5 Y27.0 I-1.492 J0.147
G01 Y107.0
G03 X116.492 Y107.147 I-1.5 J-0.0
G01 X116.338 Y108.708
G03 X116.281 Y108.996 I-1.492 J-0.147
G01 X115.826 Y110.496
G03 X115.714 Y110.767 I-1.435 J-0.435
G01 X114.975 Y112.151
G03 X114.811 Y112.396 I-1.323 J-0.706
G01 X113.816 Y113.608
G03 X113.608 Y113.816 I-1.159 J-0.951
G01 X112.396 Y114.811
G03 X112.151 Y114.975 I-0.951 J-1.159
G01 X110.767 Y115.714
G03 X110.496 Y115.826 I-0.706 J-1.323
G01 X108.996 Y116.281
G03 X108.708 Y116.338 I-0.435 J-1.435
G01 X107.147 Y116.492
G03 X107.0 Y116.5 I-0.147 J-1.492
G01 X27.0
G03 X26.852 Y116.492 I-0.0 J-1.5
G01 X25.292 Y116.338
G03 X25.004 Y116.281 I0.147 J-1.492
G01 X23.503 Y115.826
G03 X23.231 Y115.713 I0.435 J-1.435
G01 X21.848 Y114.974
G03 X21.603 Y114.811 I0.706 J-1.322
G01 X20.391 Y113.816
G03 X20.183 Y113.608 I0.951 J-1.159
G01 X19.188 Y112.396
G03 X19.025 Y112.151 I1.159 J-0.951
G01 X18.285 Y110.767
G03 X18.173 Y110.496 I1.323 J-0.706
G01 X17.718 Y108.996
G03 X17.66 Y108.707 I1.435 J-0.435
G01 X17.507 Y107.146
G03 X17.5 Y107.0 I1.492 J-0.146
G01 Y27.0
G03 X17.507 Y26.852 I1.5 J0.0
G01 X17.66 Y25.292
G03 X17.718 Y25.003 I1.492 J0.147
G01 X18.173 Y23.503
G03 X18.286 Y23.231 I1.435 J0.435
G01 X19.025 Y21.848
G03 X19.188 Y21.603 I1.322 J0.707
G01 X20.183 Y20.391
G03 X20.391 Y20.183 I1.159 J0.951
G01 X21.603 Y19.188
G03 X21.848 Y19.025 I0.951 J1.159
G01 X23.231 Y18.286
G03 X23.503 Y18.173 I0.707 J1.322
G01 X25.003 Y17.718
G03 X25.292 Y17.66 I0.435 J1.435
G01 X26.852 Y17.507
G03 X27.0 Y17.5 I0.147 J1.492
G01 X107.0
G01 Z-4.0 F100
G03 X107.146 Y17.507 I0.0 J1.5 F1000
G01 X108.707 Y17.66
G03 X108.996 Y17.718 I-0.146 J1.492
G01 X110.496 Y18.173
G03 X110.767 Y18.285 I-0.435 J1.435
G01 X112.151 Y19.025
G03 X112.396 Y19.188 I-0.706 J1.323
G01 X113.608 Y20.183
G03 X113.816 Y20.391 I-0.951 J1.159
G01 X114.811 Y21.603
G03 X114.974 Y21.848 I-1.159 J0.951
G01 X115.713 Y23.231
G03 X115.826 Y23.503 I-1.322 J0.706
G01 X116.281 Y25.004
G03 X116.338 Y25.292 I-1.435 J0.435
G01 X116.492 Y26.852
G03 X116.5 Y27.0 I-1.492 J0.147
G01 Y107.0
G03 X116.492 Y107.147 I-1.5 J-0.0
G01 X116.338 Y108.708
G03 X116.281 Y108.996 I-1.492 J-0.147
G01 X115.826 Y110.496
G03 X115.714 Y110.767 I-1.435 J-0.435
G01 X114.975 Y112.151
G03 X114.811 Y112.396 I-1.323 J-0.706
G01 X113.816 Y113.608
G03 X113.608 Y113.816 I-1.159 J-0.951
G01 X112.396 Y114.811
G03 X112.151 Y114.975 I-0.951 J-1.159
G01 X110.767 Y115.714
G03 X110.496 Y115.826 I-0.706 J-1.323
G01 X108.996 Y116.281
G03 X108.708 Y116.338 I-0.435 J-1.435
G01 X107.147 Y116.492
G03 X107.0 Y116.5 I-0.147 J-1.492
G01 X27.0
G03 X26.852 Y116.492 I-0.0 J-1.5
G01 X25.292 Y116.338
G03 X25.004 Y116.281 I0.147 J-1.492
G01 X23.503 Y115.826
G03 X23.231 Y115.713 I0.435 J-1.435
G01 X21.848 Y114.974
G03 X21.603 Y114.811 I0.706 J-1.322
G01 X20.391 Y113.816
G03 X20.183 Y113.608 I0.951 J-1.159
G01 X19.188 Y112.396
G03 X19.025 Y112.151 I1.159 J-0.951
G01 X18.285 Y110.767
G03 X18.173 Y110.496 I1.323 J-0.706
G01 X17.718 Y108.996
G03 X17.66 Y108.707 I1.435 J-0.435
G01 X17.507 Y107.146
G03 X17.5 Y107.0 I1.492 J-0.146
G01 Y27.0
G03 X17.507 Y26.852 I1.5 J0.0
G01 X17.66 Y25.292
G03 X17.718 Y25.003 I1.492 J0.147
G01 X18.173 Y23.503
G03 X18.286 Y23.231 I1.435 J0.435
G01 X19.025 Y21.848
G03 X19.188 Y21.603 I1.322 J0.707
G01 X20.183 Y20.391
G03 X20.391 Y20.183 I1.159 J0.951
G01 X21.603 Y19.188
G03 X21.848 Y19.025 I0.951 J1.159
G01 X23.231 Y18.286
G03 X23.503 Y18.173 I0.707 J1.322
G01 X25.003 Y17.718
G03 X25.292 Y17.66 I0.435 J1.435
G01 X26.852 Y17.507
G03 X27.0 Y17.5 I0.147 J1.492
G01 X107.0
G01 Z-6.0 F100
G03 X107.146 Y17.507 I0.0 J1.5 F1000
G01 X108.707 Y17.66
G03 X108.996 Y17.718 I-0.146 J1.492
G01 X110.496 Y18.173
G03 X110.767 Y18.285 I-0.435 J1.435
G01 X112.151 Y19.025
G03 X112.396 Y19.188 I-0.706 J1.323
G01 X113.608 Y20.183
G03 X113.816 Y20.391 I-0.951 J1.159
G01 X114.811 Y21.603
G03 X114.974 Y21.848 I-1.159 J0.951
G01 X115.713 Y23.231
G03 X115.826 Y23.503 I-1.322 J0.706
G01 X116.281 Y25.004
G03 X116.338 Y25.292 I-1.435 J0.435
G01 X116.492 Y26.852
G03 X116.5 Y27.0 I-1.492 J0.147
G01 Y65.0
G01 Z-5.0
G01 Y73.0
G01 Z-6.0
G01 Y107.0
G03 X116.492 Y107.147 I-1.5 J-0.0
G01 X116.338 Y108.708
G03 X116.281 Y108.996 I-1.492 J-0.147
G01 X115.826 Y110.496
G03 X115.714 Y110.767 I-1.435 J-0.435
G01 X114.975 Y112.151
G03 X114.811 Y112.396 I-1.323 J-0.706
G01 X113.816 Y113.608
G03 X113.608 Y113.816 I-1.159 J-0.951
G01 X112.396 Y114.811
G03 X112.151 Y114.975 I-0.951 J-1.159
G01 X110.767 Y115.714
G03 X110.496 Y115.826 I-0.706 J-1.323
G01 X108.996 Y116.281
G03 X108.708 Y116.338 I-0.435 J-1.435
G01 X107.147 Y116.492
G03 X107.0 Y116.5 I-0.147 J-1.492
G01 X73.0
G01 Z-5.0
G01 X65.0
G01 Z-6.0
G01 X27.0
G03 X26.852 Y116.492 I-0.0 J-1.5
G01 X25.292 Y116.338
G03 X25.004 Y116.281 I0.147 J-1.492
G01 X23.503 Y115.826
G03 X23.231 Y115.713 I0.435 J-1.435
G01 X21.848 Y114.974
G03 X21.603 Y114.811 I0.706 J-1.322
G01 X20.391 Y113.816
G03 X20.183 Y113.608 I0.951 J-1.159
G01 X19.188 Y112.396
G03 X19.025 Y112.151 I1.159 J-0.951
G01 X18.285 Y110.767
G03 X18.173 Y110.496 I1.323 J-0.706
G01 X17.718 Y108.996
G03 X17.66 Y108.707 I1.435 J-0.435
G01 X17.507 Y107.146
G03 X17.5 Y107.0 I1.492 J-0.146
G01 Y73.0
G01 Z-5.0
G01 Y65.0
G01 Z-6.0
G01 Y27.0
G03 X17.507 Y26.852 I1.5 J0.0
G01 X17.66 Y25.292
G03 X17.718 Y25.003 I1.492 J0.147
G01 X18.173 Y23.503
G03 X18.286 Y23.231 I1.435 J0.435
G01 X19.025 Y21.848
G03 X19.188 Y21.603 I1.322 J0.707
G01 X20.183 Y20.391
G03 X20.391 Y20.183 I1.159 J0.951
G01 X21.603 Y19.188
G03 X21.848 Y19.025 I0.951 J1.159
G01 X23.231 Y18.286
G03 X23.503 Y18.173 I0.707 J1.322
G01 X25.003 Y17.718
G03 X25.292 Y17.66 I0.435 J1.435
G01 X26.852 Y17.507
G03 X27.0 Y17.5 I0.147 J1.492
G01 X65.0
G01 Z-5.0
G01 X73.0
G01 Z-6.0
G01 X107.0
G01 Z-6.3 F100
G03 X107.146 Y17.507 I0.0 J1.5 F1000
G01 X108.707 Y17.66
G03 X108.996 Y17.718 I-0.146 J1.492
G01 X110.496 Y18.173
G03 X110.767 Y18.285 I-0.435 J1.435
G01 X112.151 Y19.025
G03 X112.396 Y19.188 I-0.706 J1.323
G01 X113.608 Y20.183
G03 X113.816 Y20.391 I-0.951 J1.159
G01 X114.811 Y21.603
G03 X114.974 Y21.848 I-1.159 J0.951
G01 X115.713 Y23.231
G03 X115.826 Y23.503 I-1.322 J0.706
G01 X116.281 Y25.004
G03 X116.338 Y25.292 I-1.435 J0.435
G01 X116.492 Y26.852
G03 X116.5 Y27.0 I-1.492 J0.147
G01 Y65.0
G01 Z-5.0
G01 Y73.0
G01 Z-6.3
G01 Y107.0
G03 X116.492 Y107.147 I-1.5 J-0.0
G01 X116.338 Y108.708
G03 X116.281 Y108.996 I-1.492 J-0.147
G01 X115.826 Y110.496
G03 X115.714 Y110.767 I-1.435 J-0.435
G01 X114.975 Y112.151
G03 X114.811 Y112.396 I-1.323 J-0.706
G01 X113.816 Y113.608
G03 X113.608 Y113.816 I-1.159 J-0.951
G01 X112.396 Y114.811
G03 X112.151 Y114.975 I-0.951 J-1.159
G01 X110.767 Y115.714
G03 X110.496 Y115.826 I-0.706 J-1.323
G01 X108.996 Y116.281
G03 X108.708 Y116.338 I-0.435 J-1.435
G01 X107.147 Y116.492
G03 X107.0 Y116.5 I-0.147 J-1.492
G01 X73.0
G01 Z-5.0
G01 X65.0
G01 Z-6.3
G01 X27.0
G03 X26.852 Y116.492 I-0.0 J-1.5
G01 X25.292 Y116.338
G03 X25.004 Y116.281 I0.147 J-1.492
G01 X23.503 Y115.826
G03 X23.231 Y115.713 I0.435 J-1.435
G01 X21.848 Y114.974
G03 X21.603 Y114.811 I0.706 J-1.322
G01 X20.391 Y113.816
G03 X20.183 Y113.608 I0.951 J-1.159
G01 X19.188 Y112.396
G03 X19.025 Y112.151 I1.159 J-0.951
G01 X18.285 Y110.767
G03 X18.173 Y110.496 I1.323 J-0.706
G01 X17.718 Y108.996
G03 X17.66 Y108.707 I1.435 J-0.435
G01 X17.507 Y107.146
G03 X17.5 Y107.0 I1.492 J-0.146
G01 Y73.0
G01 Z-5.0
G01 Y65.0
G01 Z-6.3
G01 Y27.0
G03 X17.507 Y26.852 I1.5 J0.0
G01 X17.66 Y25.292
G03 X17.718 Y25.003 I1.492 J0.147
G01 X18.173 Y23.503
G03 X18.286 Y23.231 I1.435 J0.435
G01 X19.025 Y21.848
G03 X19.188 Y21.603 I1.322 J0.707
G01 X20.183 Y20.391
G03 X20.391 Y20.183 I1.159 J0.951
G01 X21.603 Y19.188
G03 X21.848 Y19.025 I0.951 J1.159
G01 X23.231 Y18.286
G03 X23.503 Y18.173 I0.707 J1.322
G01 X25.003 Y17.718
G03 X25.292 Y17.66 I0.435 J1.435
G01 X26.852 Y17.507
G03 X27.0 Y17.5 I0.147 J1.492
G01 X65.0
G01 Z-5.0
G01 X73.0
G01 Z-6.3
G01 X107.0
G00 Z2.0
 (--------------------------------------------------)
 (Object: #6)
 (Layer: 0)
 (Overcut: 0)
 (Depth: -6.300000)
 (Offset: Outside)
 (Tool-Num: 1)
 (Tool-Diameter: 3.00)
 (Tool-Speed: 12000)
 (--------------------------------------------------)
M05

M03
G00
G00 X72.318 Y60.37
G00 Z1.0
G01 Z-2.0 F100
G03 X72.379 Y60.419 I-0.913 J1.189 F1000
G01 X72.657 Y60.657
G03 X72.716 Y60.71 I-0.974 J1.14
G01 X72.982 Y60.962
G03 X73.037 Y61.017 I-1.032 J1.087
G01 X73.289 Y61.283
G03 X73.342 Y61.342 I-1.087 J1.032
G01 X73.58 Y61.62
G03 X73.629 Y61.681 I-1.14 J0.974
G01 X73.853 Y61.972
G03 X73.899 Y62.035 I-1.189 J0.913
G01 X74.106 Y62.337
G03 X74.149 Y62.403 I-1.236 J0.849
G01 X74.341 Y62.716
G03 X74.38 Y62.784 I-1.278 J0.783
G01 X74.555 Y63.106
G03 X74.59 Y63.176 I-1.318 J0.715
G01 X74.748 Y63.506
G03 X74.78 Y63.578 I-1.353 J0.645
G01 X74.92 Y63.917
G03 X74.948 Y63.99 I-1.385 J0.573
G01 X75.071 Y64.336
G03 X75.095 Y64.41 I-1.413 J0.5
G01 X75.199 Y64.762
G03 X75.22 Y64.838 I-1.438 J0.426
G01 X75.305 Y65.194
G03 X75.321 Y65.271 I-1.458 J0.35
G01 X75.388 Y65.631
G03 X75.4 Y65.709 I-1.474 J0.273
G01 X75.448 Y66.072
G03 X75.456 Y66.15 I-1.487 J0.195
G01 X75.485 Y66.515
G03 X75.489 Y66.594 I-1.495 J0.117
G01 X75.499 Y66.96
G03 Y67.039 I-1.499 J0.039
G01 X75.489 Y67.405
G03 X75.485 Y67.484 I-1.499 J-0.039
G01 X75.456 Y67.849
G03 X75.448 Y67.927 I-1.495 J-0.117
G01 X75.4 Y68.29
G03 X75.388 Y68.368 I-1.487 J-0.195
G01 X75.321 Y68.728
G03 X75.305 Y68.805 I-1.474 J-0.273
G01 X75.22 Y69.161
G03 X75.199 Y69.237 I-1.458 J-0.35
G01 X75.095 Y69.589
G03 X75.071 Y69.663 I-1.438 J-0.426
G01 X74.948 Y70.009
G03 X74.92 Y70.082 I-1.413 J-0.5
G01 X74.78 Y70.421
G03 X74.748 Y70.493 I-1.385 J-0.573
G01 X74.59 Y70.823
G03 X74.555 Y70.893 I-1.353 J-0.645
G01 X74.38 Y71.215
G03 X74.341 Y71.283 I-1.318 J-0.715
G01 X74.149 Y71.596
G03 X74.106 Y71.662 I-1.278 J-0.783
G01 X73.899 Y71.964
G03 X73.853 Y72.027 I-1.236 J-0.849
G01 X73.629 Y72.318
G03 X73.58 Y72.379 I-1.189 J-0.913
G01 X73.342 Y72.657
G03 X73.289 Y72.716 I-1.14 J-0.974
G01 X73.037 Y72.982
G03 X72.982 Y73.037 I-1.087 J-1.032
G01 X72.716 Y73.289
G03 X72.657 Y73.342 I-1.032 J-1.087
G01 X72.379 Y73.58
G03 X72.318 Y73.629 I-0.974 J-1.14
G01 X72.027 Y73.853
G03 X71.964 Y73.899 I-0.913 J-1.189
G01 X71.662 Y74.106
G03 X71.596 Y74.149 I-0.849 J-1.236
G01 X71.283 Y74.341
G03 X71.215 Y74.38 I-0.783 J-1.278
G01 X70.893 Y74.555
G03 X70.823 Y74.59 I-0.715 J-1.318
G01 X70.493 Y74.748
G03 X70.421 Y74.78 I-0.645 J-1.353
G01 X70.082 Y74.92
G03 X70.009 Y74.948 I-0.573 J-1.385
G01 X69.663 Y75.071
G03 X69.589 Y75.095 I-0.5 J-1.413
G01 X69.237 Y75.199
G03 X69.161 Y75.22 I-0.426 J-1.438
G01 X68.805 Y75.305
G03 X68.728 Y75.321 I-0.35 J-1.458
G01 X68.368 Y75.388
G03 X68.29 Y75.4 I-0.273 J-1.474
G01 X67.927 Y75.448
G03 X67.849 Y75.456 I-0.195 J-1.487
G01 X67.484 Y75.485
G03 X67.405 Y75.489 I-0.117 J-1.495
G01 X67.039 Y75.499
G03 X66.96 I-0.039 J-1.499
G01 X66.594 Y75.489
G03 X66.515 Y75.485 I0.039 J-1.499
G01 X66.15 Y75.456
G03 X66.072 Y75.448 I0.117 J-1.495
G01 X65.709 Y75.4
G03 X65.631 Y75.388 I0.195 J-1.487
G01 X65.271 Y75.321
G03 X65.194 Y75.305 I0.273 J-1.474
G01 X64.838 Y75.22
G03 X64.762 Y75.199 I0.35 J-1.458
G01 X64.41 Y75.095
G03 X64.336 Y75.071 I0.426 J-1.438
G01 X63.99 Y74.948
G03 X63.917 Y74.92 I0.5 J-1.413
G01 X63.578 Y74.78
G03 X63.506 Y74.748 I0.573 J-1.385
G01 X63.176 Y74.59
G03 X63.106 Y74.555 I0.645 J-1.353
G01 X62.784 Y74.38
G03 X62.716 Y74.341 I0.715 J-1.318
G01 X62.403 Y74.149
G03 X62.337 Y74.106 I0.783 J-1.278
G01 X62.035 Y73.899
G03 X61.972 Y73.853 I0.849 J-1.236
G01 X61.681 Y73.629
G03 X61.62 Y73.58 I0.913 J-1.189
G01 X61.342 Y73.342
G03 X61.283 Y73.289 I0.974 J-1.14
G01 X61.017 Y73.037
G03 X60.962 Y72.982 I1.032 J-1.087
G01 X60.71 Y72.716
G03 X60.657 Y72.657 I1.087 J-1.032
G01 X60.419 Y72.379
G03 X60.37 Y72.318 I1.14 J-0.974
G01 X60.146 Y72.027
G03 X60.1 Y71.964 I1.189 J-0.913
G01 X59.893 Y71.662
G03 X59.85 Y71.596 I1.236 J-0.849
G01 X59.658 Y71.283
G03 X59.619 Y71.215 I1.278 J-0.783
G01 X59.444 Y70.893
G03 X59.409 Y70.823 I1.318 J-0.715
G01 X59.251 Y70.493
G03 X59.219 Y70.421 I1.353 J-0.645
G01 X59.079 Y70.082
G03 X59.051 Y70.009 I1.385 J-0.573
G01 X58.928 Y69.663
G03 X58.904 Y69.589 I1.413 J-0.5
G01 X58.8 Y69.237
G03 X58.779 Y69.161 I1.438 J-0.426
G01 X58.694 Y68.805
G03 X58.678 Y68.728 I1.458 J-0.35
G01 X58.611 Y68.368
G03 X58.599 Y68.29 I1.474 J-0.273
G01 X58.551 Y67.927
G03 X58.543 Y67.849 I1.487 J-0.195
G01 X58.514 Y67.484
G03 X58.51 Y67.405 I1.495 J-0.117
G01 X58.5 Y67.039
G03 Y66.96 I1.499 J-0.039
G01 X58.51 Y66.594
G03 X58.514 Y66.515 I1.499 J0.039
G01 X58.543 Y66.15
G03 X58.551 Y66.072 I1.495 J0.117
G01 X58.599 Y65.709
G03 X58.611 Y65.631 I1.487 J0.195
G01 X58.678 Y65.271
G03 X58.694 Y65.194 I1.474 J0.273
G01 X58.779 Y64.838
G03 X58.8 Y64.762 I1.458 J0.35
G01 X58.904 Y64.41
G03 X58.928 Y64.336 I1.438 J0.426
G01 X59.051 Y63.99
G03 X59.079 Y63.917 I1.413 J0.5
G01 X59.219 Y63.578
G03 X59.251 Y63.506 I1.385 J0.573
G01 X59.409 Y63.176
G03 X59.444 Y63.106 I1.353 J0.645
G01 X59.619 Y62.784
G03 X59.658 Y62.716 I1.318 J0.715
G01 X59.85 Y62.403
G03 X59.893 Y62.337 I1.278 J0.783
G01 X60.1 Y62.035
G03 X60.146 Y61.972 I1.236 J0.849
G01 X60.37 Y61.681
G03 X60.419 Y61.62 I1.189 J0.913
G01 X60.657 Y61.342
G03 X60.71 Y61.283 I1.14 J0.974
G01 X60.962 Y61.017
G03 X61.017 Y60.962 I1.087 J1.032
G01 X61.283 Y60.71
G03 X61.342 Y60.657 I1.032 J1.087
G01 X61.62 Y60.419
G03 X61.681 Y60.37 I0.974 J1.14
G01 X61.972 Y60.146
G03 X62.035 Y60.1 I0.913 J1.189
G01 X62.337 Y59.893
G03 X62.403 Y59.85 I0.849 J1.236
G01 X62.716 Y59.658
G03 X62.784 Y59.619 I0.783 J1.278
G01 X63.106 Y59.444
G03 X63.176 Y59.409 I0.715 J1.318
G01 X63.506 Y59.251
G03 X63.578 Y59.219 I0.645 J1.353
G01 X63.917 Y59.079
G03 X63.99 Y59.051 I0.573 J1.385
G01 X64.336 Y58.928
G03 X64.41 Y58.904 I0.5 J1.413
G01 X64.762 Y58.8
G03 X64.838 Y58.779 I0.426 J1.438
G01 X65.194 Y58.694
G03 X65.271 Y58.678 I0.35 J1.458
G01 X65.631 Y58.611
G03 X65.709 Y58.599 I0.273 J1.474
G01 X66.072 Y58.551
G03 X66.15 Y58.543 I0.195 J1.487
G01 X66.515 Y58.514
G03 X66.594 Y58.51 I0.117 J1.495
G01 X66.96 Y58.5
G03 X67.039 I0.039 J1.499
G01 X67.405 Y58.51
G03 X67.484 Y58.514 I-0.039 J1.499
G01 X67.849 Y58.543
G03 X67.927 Y58.551 I-0.117 J1.495
G01 X68.29 Y58.599
G03 X68.368 Y58.611 I-0.195 J1.487
G01 X68.728 Y58.678
G03 X68.805 Y58.694 I-0.273 J1.474
G01 X69.161 Y58.779
G03 X69.237 Y58.8 I-0.35 J1.458
G01 X69.589 Y58.904
G03 X69.663 Y58.928 I-0.426 J1.438
G01 X70.009 Y59.051
G03 X70.082 Y59.079 I-0.5 J1.413
G01 X70.421 Y59.219
G03 X70.493 Y59.251 I-0.573 J1.385
G01 X70.823 Y59.409
G03 X70.893 Y59.444 I-0.645 J1.353
G01 X71.215 Y59.619
G03 X71.283 Y59.658 I-0.715 J1.318
G01 X71.596 Y59.85
G03 X71.662 Y59.893 I-0.783 J1.278
G01 X71.964 Y60.1
G03 X72.027 Y60.146 I-0.849 J1.236
G01 X72.318 Y60.37
G01 Z-4.0 F100
G03 X72.379 Y60.419 I-0.913 J1.189 F1000
G01 X72.657 Y60.657
G03 X72.716 Y60.71 I-0.974 J1.14
G01 X72.982 Y60.962
G03 X73.037 Y61.017 I-1.032 J1.087
G01 X73.289 Y61.283
G03 X73.342 Y61.342 I-1.087 J1.032
G01 X73.58 Y61.62
G03 X73.629 Y61.681 I-1.14 J0.974
G01 X73.853 Y61.972
G03 X73.899 Y62.035 I-1.189 J0.913
G01 X74.106 Y62.337
G03 X74.149 Y62.403 I-1.236 J0.849
G01 X74.341 Y62.716
G03 X74.38 Y62.784 I-1.278 J0.783
G01 X74.555 Y63.106
G03 X74.59 Y63.176 I-1.318 J0.715
G01 X74.748 Y63.506
G03 X74.78 Y63.578 I-1.353 J0.645
G01 X74.92 Y63.917
G03 X74.948 Y63.99 I-1.385 J0.573
G01 X75.071 Y64.336
G03 X75.095 Y64.41 I-1.413 J0.5
G01 X75.199 Y64.762
G03 X75.22 Y64.838 I-1.438 J0.426
G01 X75.305 Y65.194
G03 X75.321 Y65.271 I-1.458 J0.35
G01 X75.388 Y65.631
G03 X75.4 Y65.709 I-1.474 J0.273
G01 X75.448 Y66.072
G03 X75.456 Y66.15 I-1.487 J0.195
G01 X75.485 Y66.515
G03 X75.489 Y66.594 I-1.495 J0.117
G01 X75.499 Y66.96
G03 Y67.039 I-1.499 J0.039
G01 X75.489 Y67.405
G03 X75.485 Y67.484 I-1.499 J-0.039
G01 X75.456 Y67.849
G03 X75.448 Y67.927 I-1.495 J-0.117
G01 X75.4 Y68.29
G03 X75.388 Y68.368 I-1.487 J-0.195
G01 X75.321 Y68.728
G03 X75.305 Y68.805 I-1.474 J-0.273
G01 X75.22 Y69.161
G03 X75.199 Y69.237 I-1.458 J-0.35
G01 X75.095 Y69.589
G03 X75.071 Y69.663 I-1.438 J-0.426
G01 X74.948 Y70.009
G03 X74.92 Y70.082 I-1.413 J-0.5
G01 X74.78 Y70.421
G03 X74.748 Y70.493 I-1.385 J-0.573
G01 X74.59 Y70.823
G03 X74.555 Y70.893 I-1.353 J-0.645
G01 X74.38 Y71.215
G03 X74.341 Y71.283 I-1.318 J-0.715
G01 X74.149 Y71.596
G03 X74.106 Y71.662 I-1.278 J-0.783
G01 X73.899 Y71.964
G03 X73.853 Y72.027 I-1.236 J-0.849
G01 X73.629 Y72.318
G03 X73.58 Y72.379 I-1.189 J-0.913
G01 X73.342 Y72.657
G03 X73.289 Y72.716 I-1.14 J-0.974
G01 X73.037 Y72.982
G03 X72.982 Y73.037 I-1.087 J-1.032
G01 X72.716 Y73.289
G03 X72.657 Y73.342 I-1.032 J-1.087
G01 X72.379 Y73.58
G03 X72.318 Y73.629 I-0.974 J-1.14
G01 X72.027 Y73.853
G03 X71.964 Y73.899 I-0.913 J-1.189
G01 X71.662 Y74.106
G03 X71.596 Y74.149 I-0.849 J-1.236
G01 X71.283 Y74.341
G03 X71.215 Y74.38 I-0.783 J-1.278
G01 X70.893 Y74.555
G03 X70.823 Y74.59 I-0.715 J-1.318
G01 X70.493 Y74.748
G03 X70.421 Y74.78 I-0.645 J-1.353
G01 X70.082 Y74.92
G03 X70.009 Y74.948 I-0.573 J-1.385
G01 X69.663 Y75.071
G03 X69.589 Y75.095 I-0.5 J-1.413
G01 X69.237 Y75.199
G03 X69.161 Y75.22 I-0.426 J-1.438
G01 X68.805 Y75.305
G03 X68.728 Y75.321 I-0.35 J-1.458
G01 X68.368 Y75.388
G03 X68.29 Y75.4 I-0.273 J-1.474
G01 X67.927 Y75.448
G03 X67.849 Y75.456 I-0.195 J-1.487
G01 X67.484 Y75.485
G03 X67.405 Y75.489 I-0.117 J-1.495
G01 X67.039 Y75.499
G03 X66.96 I-0.039 J-1.499
G01 X66.594 Y75.489
G03 X66.515 Y75.485 I0.039 J-1.499
G01 X66.15 Y75.456
G03 X66.072 Y75.448 I0.117 J-1.495
G01 X65.709 Y75.4
G03 X65.631 Y75.388 I0.195 J-1.487
G01 X65.271 Y75.321
G03 X65.194 Y75.305 I0.273 J-1.474
G01 X64.838 Y75.22
G03 X64.762 Y75.199 I0.35 J-1.458
G01 X64.41 Y75.095
G03 X64.336 Y75.071 I0.426 J-1.438
G01 X63.99 Y74.948
G03 X63.917 Y74.92 I0.5 J-1.413
G01 X63.578 Y74.78
G03 X63.506 Y74.748 I0.573 J-1.385
G01 X63.176 Y74.59
G03 X63.106 Y74.555 I0.645 J-1.353
G01 X62.784 Y74.38
G03 X62.716 Y74.341 I0.715 J-1.318
G01 X62.403 Y74.149
G03 X62.337 Y74.106 I0.783 J-1.278
G01 X62.035 Y73.899
G03 X61.972 Y73.853 I0.849 J-1.236
G01 X61.681 Y73.629
G03 X61.62 Y73.58 I0.913 J-1.189
G01 X61.342 Y73.342
G03 X61.283 Y73.289 I0.974 J-1.14
G01 X61.017 Y73.037
G03 X60.962 Y72.982 I1.032 J-1.087
G01 X60.71 Y72.716
G03 X60.657 Y72.657 I1.087 J-1.032
G01 X60.419 Y72.379
G03 X60.37 Y72.318 I1.14 J-0.974
G01 X60.146 Y72.027
G03 X60.1 Y71.964 I1.189 J-0.913
G01 X59.893 Y71.662
G03 X59.85 Y71.596 I1.236 J-0.849
G01 X59.658 Y71.283
G03 X59.619 Y71.215 I1.278 J-0.783
G01 X59.444 Y70.893
G03 X59.409 Y70.823 I1.318 J-0.715
G01 X59.251 Y70.493
G03 X59.219 Y70.421 I1.353 J-0.645
G01 X59.079 Y70.082
G03 X59.051 Y70.009 I1.385 J-0.573
G01 X58.928 Y69.663
G03 X58.904 Y69.589 I1.413 J-0.5
G01 X58.8 Y69.237
G03 X58.779 Y69.161 I1.438 J-0.426
G01 X58.694 Y68.805
G03 X58.678 Y68.728 I1.458 J-0.35
G01 X58.611 Y68.368
G03 X58.599 Y68.29 I1.474 J-0.273
G01 X58.551 Y67.927
G03 X58.543 Y67.849 I1.487 J-0.195
G01 X58.514 Y67.484
G03 X58.51 Y67.405 I1.495 J-0.117
G01 X58.5 Y67.039
G03 Y66.96 I1.499 J-0.039
G01 X58.51 Y66.594
G03 X58.514 Y66.515 I1.499 J0.039
G01 X58.543 Y66.15
G03 X58.551 Y66.072 I1.495 J0.117
G01 X58.599 Y65.709
G03 X58.611 Y65.631 I1.487 J0.195
G01 X58.678 Y65.271
G03 X58.694 Y65.194 I1.474 J0.273
G01 X58.779 Y64.838
G03 X58.8 Y64.762 I1.458 J0.35
G01 X58.904 Y64.41
G03 X58.928 Y64.336 I1.438 J0.426
G01 X59.051 Y63.99
G03 X59.079 Y63.917 I1.413 J0.5
G01 X59.219 Y63.578
G03 X59.251 Y63.506 I1.385 J0.573
G01 X59.409 Y63.176
G03 X59.444 Y63.106 I1.353 J0.645
G01 X59.619 Y62.784
G03 X59.658 Y62.716 I1.318 J0.715
G01 X59.85 Y62.403
G03 X59.893 Y62.337 I1.278 J0.783
G01 X60.1 Y62.035
G03 X60.146 Y61.972 I1.236 J0.849
G01 X60.37 Y61.681
G03 X60.419 Y61.62 I1.189 J0.913
G01 X60.657 Y61.342
G03 X60.71 Y61.283 I1.14 J0.974
G01 X60.962 Y61.017
G03 X61.017 Y60.962 I1.087 J1.032
G01 X61.283 Y60.71
G03 X61.342 Y60.657 I1.032 J1.087
G01 X61.62 Y60.419
G03 X61.681 Y60.37 I0.974 J1.14
G01 X61.972 Y60.146
G03 X62.035 Y60.1 I0.913 J1.189
G01 X62.337 Y59.893
G03 X62.403 Y59.85 I0.849 J1.236
G01 X62.716 Y59.658
G03 X62.784 Y59.619 I0.783 J1.278
G01 X63.106 Y59.444
G03 X63.176 Y59.409 I0.715 J1.318
G01 X63.506 Y59.251
G03 X63.578 Y59.219 I0.645 J1.353
G01 X63.917 Y59.079
G03 X63.99 Y59.051 I0.573 J1.385
G01 X64.336 Y58.928
G03 X64.41 Y58.904 I0.5 J1.413
G01 X64.762 Y58.8
G03 X64.838 Y58.779 I0.426 J1.438
G01 X65.194 Y58.694
G03 X65.271 Y58.678 I0.35 J1.458
G01 X65.631 Y58.611
G03 X65.709 Y58.599 I0.273 J1.474
G01 X66.072 Y58.551
G03 X66.15 Y58.543 I0.195 J1.487
G01 X66.515 Y58.514
G03 X66.594 Y58.51 I0.117 J1.495
G01 X66.96 Y58.5
G03 X67.039 I0.039 J1.499
G01 X67.405 Y58.51
G03 X67.484 Y58.514 I-0.039 J1.499
G01 X67.849 Y58.543
G03 X67.927 Y58.551 I-0.117 J1.495
G01 X68.29 Y58.599
G03 X68.368 Y58.611 I-0.195 J1.487
G01 X68.728 Y58.678
G03 X68.805 Y58.694 I-0.273 J1.474
G01 X69.161 Y58.779
G03 X69.237 Y58.8 I-0.35 J1.458
G01 X69.589 Y58.904
G03 X69.663 Y58.928 I-0.426 J1.438
G01 X70.009 Y59.051
G03 X70.082 Y59.079 I-0.5 J1.413
G01 X70.421 Y59.219
G03 X70.493 Y59.251 I-0.573 J1.385
G01 X70.823 Y59.409
G03 X70.893 Y59.444 I-0.645 J1.353
G01 X71.215 Y59.619
G03 X71.283 Y59.658 I-0.715 J1.318
G01 X71.596 Y59.85
G03 X71.662 Y59.893 I-0.783 J1.278
G01 X71.964 Y60.1
G03 X72.027 Y60.146 I-0.849 J1.236
G01 X72.318 Y60.37
G01 Z-6.0 F100
G03 X72.379 Y60.419 I-0.913 J1.189 F1000
G01 X72.657 Y60.657
G03 X72.716 Y60.71 I-0.974 J1.14
G01 X72.982 Y60.962
G03 X73.037 Y61.017 I-1.032 J1.087
G01 X73.289 Y61.283
G03 X73.342 Y61.342 I-1.087 J1.032
G01 X73.58 Y61.62
G03 X73.629 Y61.681 I-1.14 J0.974
G01 X73.853 Y61.972
G03 X73.899 Y62.035 I-1.189 J0.913
G01 X74.106 Y62.337
G03 X74.149 Y62.403 I-1.236 J0.849
G01 X74.341 Y62.716
G03 X74.38 Y62.784 I-1.278 J0.783
G01 X74.555 Y63.106
G03 X74.59 Y63.176 I-1.318 J0.715
G01 X74.748 Y63.506
G03 X74.78 Y63.578 I-1.353 J0.645
G01 X74.92 Y63.917
G03 X74.948 Y63.99 I-1.385 J0.573
G01 X75.071 Y64.336
G03 X75.095 Y64.41 I-1.413 J0.5
G01 X75.199 Y64.762
G03 X75.22 Y64.838 I-1.438 J0.426
G01 X75.305 Y65.194
G03 X75.321 Y65.271 I-1.458 J0.35
G01 X75.388 Y65.631
G03 X75.4 Y65.709 I-1.474 J0.273
G01 X75.448 Y66.072
G03 X75.456 Y66.15 I-1.487 J0.195
G01 X75.485 Y66.515
G03 X75.489 Y66.594 I-1.495 J0.117
G01 X75.499 Y66.96
G03 Y67.039 I-1.499 J0.039
G01 X75.489 Y67.405
G03 X75.485 Y67.484 I-1.499 J-0.039
G01 X75.456 Y67.849
G03 X75.448 Y67.927 I-1.495 J-0.117
G01 X75.4 Y68.29
G03 X75.388 Y68.368 I-1.487 J-0.195
G01 X75.321 Y68.728
G03 X75.305 Y68.805 I-1.474 J-0.273
G01 X75.22 Y69.161
G03 X75.199 Y69.237 I-1.458 J-0.35
G01 X75.095 Y69.589
G03 X75.071 Y69.663 I-1.438 J-0.426
G01 X74.948 Y70.009
G03 X74.92 Y70.082 I-1.413 J-0.5
G01 X74.78 Y70.421
G03 X74.748 Y70.493 I-1.385 J-0.573
G01 X74.59 Y70.823
G03 X74.555 Y70.893 I-1.353 J-0.645
G01 X74.38 Y71.215
G03 X74.341 Y71.283 I-1.318 J-0.715
G01 X74.149 Y71.596
G03 X74.106 Y71.662 I-1.278 J-0.783
G01 X73.899 Y71.964
G03 X73.853 Y72.027 I-1.236 J-0.849
G01 X73.629 Y72.318
G03 X73.58 Y72.379 I-1.189 J-0.913
G01 X73.342 Y72.657
G03 X73.289 Y72.716 I-1.14 J-0.974
G01 X73.037 Y72.982
G03 X72.982 Y73.037 I-1.087 J-1.032
G01 X72.716 Y73.289
G03 X72.657 Y73.342 I-1.032 J-1.087
G01 X72.379 Y73.58
G03 X72.318 Y73.629 I-0.974 J-1.14
G01 X72.027 Y73.853
G03 X71.964 Y73.899 I-0.913 J-1.189
G01 X71.662 Y74.106
G03 X71.596 Y74.149 I-0.849 J-1.236
G01 X71.283 Y74.341
G03 X71.215 Y74.38 I-0.783 J-1.278
G01 X70.893 Y74.555
G03 X70.823 Y74.59 I-0.715 J-1.318
G01 X70.493 Y74.748
G03 X70.421 Y74.78 I-0.645 J-1.353
G01 X70.082 Y74.92
G03 X70.009 Y74.948 I-0.573 J-1.385
G01 X69.663 Y75.071
G03 X69.589 Y75.095 I-0.5 J-1.413
G01 X69.237 Y75.199
G03 X69.161 Y75.22 I-0.426 J-1.438
G01 X68.805 Y75.305
G03 X68.728 Y75.321 I-0.35 J-1.458
G01 X68.368 Y75.388
G03 X68.29 Y75.4 I-0.273 J-1.474
G01 X67.927 Y75.448
G03 X67.849 Y75.456 I-0.195 J-1.487
G01 X67.484 Y75.485
G03 X67.405 Y75.489 I-0.117 J-1.495
G01 X67.039 Y75.499
G03 X66.96 I-0.039 J-1.499
G01 X66.594 Y75.489
G03 X66.515 Y75.485 I0.039 J-1.499
G01 X66.15 Y75.456
G03 X66.072 Y75.448 I0.117 J-1.495
G01 X65.709 Y75.4
G03 X65.631 Y75.388 I0.195 J-1.487
G01 X65.271 Y75.321
G03 X65.194 Y75.305 I0.273 J-1.474
G01 X64.838 Y75.22
G03 X64.762 Y75.199 I0.35 J-1.458
G01 X64.41 Y75.095
G03 X64.336 Y75.071 I0.426 J-1.438
G01 X63.99 Y74.948
G03 X63.917 Y74.92 I0.5 J-1.413
G01 X63.578 Y74.78
G03 X63.506 Y74.748 I0.573 J-1.385
G01 X63.176 Y74.59
G03 X63.106 Y74.555 I0.645 J-1.353
G01 X62.784 Y74.38
G03 X62.716 Y74.341 I0.715 J-1.318
G01 X62.403 Y74.149
G03 X62.337 Y74.106 I0.783 J-1.278
G01 X62.035 Y73.899
G03 X61.972 Y73.853 I0.849 J-1.236
G01 X61.681 Y73.629
G03 X61.62 Y73.58 I0.913 J-1.189
G01 X61.342 Y73.342
G03 X61.283 Y73.289 I0.974 J-1.14
G01 X61.017 Y73.037
G03 X60.962 Y72.982 I1.032 J-1.087
G01 X60.71 Y72.716
G03 X60.657 Y72.657 I1.087 J-1.032
G01 X60.419 Y72.379
G03 X60.37 Y72.318 I1.14 J-0.974
G01 X60.146 Y72.027
G03 X60.1 Y71.964 I1.189 J-0.913
G01 X59.893 Y71.662
G03 X59.85 Y71.596 I1.236 J-0.849
G01 X59.658 Y71.283
G03 X59.619 Y71.215 I1.278 J-0.783
G01 X59.444 Y70.893
G03 X59.409 Y70.823 I1.318 J-0.715
G01 X59.251 Y70.493
G03 X59.219 Y70.421 I1.353 J-0.645
G01 X59.079 Y70.082
G03 X59.051 Y70.009 I1.385 J-0.573
G01 X58.928 Y69.663
G03 X58.904 Y69.589 I1.413 J-0.5
G01 X58.8 Y69.237
G03 X58.779 Y69.161 I1.438 J-0.426
G01 X58.694 Y68.805
G03 X58.678 Y68.728 I1.458 J-0.35
G01 X58.611 Y68.368
G03 X58.599 Y68.29 I1.474 J-0.273
G01 X58.551 Y67.927
G03 X58.543 Y67.849 I1.487 J-0.195
G01 X58.514 Y67.484
G03 X58.51 Y67.405 I1.495 J-0.117
G01 X58.5 Y67.039
G03 Y66.96 I1.499 J-0.039
G01 X58.51 Y66.594
G03 X58.514 Y66.515 I1.499 J0.039
G01 X58.543 Y66.15
G03 X58.551 Y66.072 I1.495 J0.117
G01 X58.599 Y65.709
G03 X58.611 Y65.631 I1.487 J0.195
G01 X58.678 Y65.271
G03 X58.694 Y65.194 I1.474 J0.273
G01 X58.779 Y64.838
G03 X58.8 Y64.762 I1.458 J0.35
G01 X58.904 Y64.41
G03 X58.928 Y64.336 I1.438 J0.426
G01 X59.051 Y63.99
G03 X59.079 Y63.917 I1.413 J0.5
G01 X59.219 Y63.578
G03 X59.251 Y63.506 I1.385 J0.573
G01 X59.409 Y63.176
G03 X59.444 Y63.106 I1.353 J0.645
G01 X59.619 Y62.784
G03 X59.658 Y62.716 I1.318 J0.715
G01 X59.85 Y62.403
G03 X59.893 Y62.337 I1.278 J0.783
G01 X60.1 Y62.035
G03 X60.146 Y61.972 I1.236 J0.849
G01 X60.37 Y61.681
G03 X60.419 Y61.62 I1.189 J0.913
G01 X60.657 Y61.342
G03 X60.71 Y61.283 I1.14 J0.974
G01 X60.962 Y61.017
G03 X61.017 Y60.962 I1.087 J1.032
G01 X61.283 Y60.71
G03 X61.342 Y60.657 I1.032 J1.087
G01 X61.62 Y60.419
G03 X61.681 Y60.37 I0.974 J1.14
G01 X61.972 Y60.146
G03 X62.035 Y60.1 I0.913 J1.189
G01 X62.337 Y59.893
G03 X62.403 Y59.85 I0.849 J1.236
G01 X62.716 Y59.658
G03 X62.784 Y59.619 I0.783 J1.278
G01 X63.106 Y59.444
G03 X63.176 Y59.409 I0.715 J1.318
G01 X63.506 Y59.251
G03 X63.578 Y59.219 I0.645 J1.353
G01 X63.917 Y59.079
G03 X63.99 Y59.051 I0.573 J1.385
G01 X64.336 Y58.928
G03 X64.41 Y58.904 I0.5 J1.413
G01 X64.762 Y58.8
G03 X64.838 Y58.779 I0.426 J1.438
G01 X65.194 Y58.694
G03 X65.271 Y58.678 I0.35 J1.458
G01 X65.631 Y58.611
G03 X65.709 Y58.599 I0.273 J1.474
G01 X66.072 Y58.551
G03 X66.15 Y58.543 I0.195 J1.487
G01 X66.515 Y58.514
G03 X66.594 Y58.51 I0.117 J1.495
G01 X66.96 Y58.5
G03 X67.039 I0.039 J1.499
G01 X67.405 Y58.51
G03 X67.484 Y58.514 I-0.039 J1.499
G01 X67.849 Y58.543
G03 X67.927 Y58.551 I-0.117 J1.495
G01 X68.29 Y58.599
G03 X68.368 Y58.611 I-0.195 J1.487
G01 X68.728 Y58.678
G03 X68.805 Y58.694 I-0.273 J1.474
G01 X69.161 Y58.779
G03 X69.237 Y58.8 I-0.35 J1.458
G01 X69.589 Y58.904
G03 X69.663 Y58.928 I-0.426 J1.438
G01 X70.009 Y59.051
G03 X70.082 Y59.079 I-0.5 J1.413
G01 X70.421 Y59.219
G03 X70.493 Y59.251 I-0.573 J1.385
G01 X70.823 Y59.409
G03 X70.893 Y59.444 I-0.645 J1.353
G01 X71.215 Y59.619
G03 X71.283 Y59.658 I-0.715 J1.318
G01 X71.596 Y59.85
G03 X71.662 Y59.893 I-0.783 J1.278
G01 X71.964 Y60.1
G03 X72.027 Y60.146 I-0.849 J1.236
G01 X72.318 Y60.37
G01 Z-6.3 F100
G03 X72.379 Y60.419 I-0.913 J1.189 F1000
G01 X72.657 Y60.657
G03 X72.716 Y60.71 I-0.974 J1.14
G01 X72.982 Y60.962
G03 X73.037 Y61.017 I-1.032 J1.087
G01 X73.289 Y61.283
G03 X73.342 Y61.342 I-1.087 J1.032
G01 X73.58 Y61.62
G03 X73.629 Y61.681 I-1.14 J0.974
G01 X73.853 Y61.972
G03 X73.899 Y62.035 I-1.189 J0.913
G01 X74.106 Y62.337
G03 X74.149 Y62.403 I-1.236 J0.849
G01 X74.341 Y62.716
G03 X74.38 Y62.784 I-1.278 J0.783
G01 X74.555 Y63.106
G03 X74.59 Y63.176 I-1.318 J0.715
G01 X74.748 Y63.506
G03 X74.78 Y63.578 I-1.353 J0.645
G01 X74.92 Y63.917
G03 X74.948 Y63.99 I-1.385 J0.573
G01 X75.071 Y64.336
G03 X75.095 Y64.41 I-1.413 J0.5
G01 X75.199 Y64.762
G03 X75.22 Y64.838 I-1.438 J0.426
G01 X75.305 Y65.194
G03 X75.321 Y65.271 I-1.458 J0.35
G01 X75.388 Y65.631
G03 X75.4 Y65.709 I-1.474 J0.273
G01 X75.448 Y66.072
G03 X75.456 Y66.15 I-1.487 J0.195
G01 X75.485 Y66.515
G03 X75.489 Y66.594 I-1.495 J0.117
G01 X75.499 Y66.96
G03 Y67.039 I-1.499 J0.039
G01 X75.489 Y67.405
G03 X75.485 Y67.484 I-1.499 J-0.039
G01 X75.456 Y67.849
G03 X75.448 Y67.927 I-1.495 J-0.117
G01 X75.4 Y68.29
G03 X75.388 Y68.368 I-1.487 J-0.195
G01 X75.321 Y68.728
G03 X75.305 Y68.805 I-1.474 J-0.273
G01 X75.22 Y69.161
G03 X75.199 Y69.237 I-1.458 J-0.35
G01 X75.095 Y69.589
G03 X75.071 Y69.663 I-1.438 J-0.426
G01 X74.948 Y70.009
G03 X74.92 Y70.082 I-1.413 J-0.5
G01 X74.78 Y70.421
G03 X74.748 Y70.493 I-1.385 J-0.573
G01 X74.59 Y70.823
G03 X74.555 Y70.893 I-1.353 J-0.645
G01 X74.38 Y71.215
G03 X74.341 Y71.283 I-1.318 J-0.715
G01 X74.149 Y71.596
G03 X74.106 Y71.662 I-1.278 J-0.783
G01 X73.899 Y71.964
G03 X73.853 Y72.027 I-1.236 J-0.849
G01 X73.629 Y72.318
G03 X73.58 Y72.379 I-1.189 J-0.913
G01 X73.342 Y72.657
G03 X73.289 Y72.716 I-1.14 J-0.974
G01 X73.037 Y72.982
G03 X72.982 Y73.037 I-1.087 J-1.032
G01 X72.716 Y73.289
G03 X72.657 Y73.342 I-1.032 J-1.087
G01 X72.379 Y73.58
G03 X72.318 Y73.629 I-0.974 J-1.14
G01 X72.027 Y73.853
G03 X71.964 Y73.899 I-0.913 J-1.189
G01 X71.662 Y74.106
G03 X71.596 Y74.149 I-0.849 J-1.236
G01 X71.283 Y74.341
G03 X71.215 Y74.38 I-0.783 J-1.278
G01 X70.893 Y74.555
G03 X70.823 Y74.59 I-0.715 J-1.318
G01 X70.493 Y74.748
G03 X70.421 Y74.78 I-0.645 J-1.353
G01 X70.082 Y74.92
G03 X70.009 Y74.948 I-0.573 J-1.385
G01 X69.663 Y75.071
G03 X69.589 Y75.095 I-0.5 J-1.413
G01 X69.237 Y75.199
G03 X69.161 Y75.22 I-0.426 J-1.438
G01 X68.805 Y75.305
G03 X68.728 Y75.321 I-0.35 J-1.458
G01 X68.368 Y75.388
G03 X68.29 Y75.4 I-0.273 J-1.474
G01 X67.927 Y75.448
G03 X67.849 Y75.456 I-0.195 J-1.487
G01 X67.484 Y75.485
G03 X67.405 Y75.489 I-0.117 J-1.495
G01 X67.039 Y75.499
G03 X66.96 I-0.039 J-1.499
G01 X66.594 Y75.489
G03 X66.515 Y75.485 I0.039 J-1.499
G01 X66.15 Y75.456
G03 X66.072 Y75.448 I0.117 J-1.495
G01 X65.709 Y75.4
G03 X65.631 Y75.388 I0.195 J-1.487
G01 X65.271 Y75.321
G03 X65.194 Y75.305 I0.273 J-1.474
G01 X64.838 Y75.22
G03 X64.762 Y75.199 I0.35 J-1.458
G01 X64.41 Y75.095
G03 X64.336 Y75.071 I0.426 J-1.438
G01 X63.99 Y74.948
G03 X63.917 Y74.92 I0.5 J-1.413
G01 X63.578 Y74.78
G03 X63.506 Y74.748 I0.573 J-1.385
G01 X63.176 Y74.59
G03 X63.106 Y74.555 I0.645 J-1.353
G01 X62.784 Y74.38
G03 X62.716 Y74.341 I0.715 J-1.318
G01 X62.403 Y74.149
G03 X62.337 Y74.106 I0.783 J-1.278
G01 X62.035 Y73.899
G03 X61.972 Y73.853 I0.849 J-1.236
G01 X61.681 Y73.629
G03 X61.62 Y73.58 I0.913 J-1.189
G01 X61.342 Y73.342
G03 X61.283 Y73.289 I0.974 J-1.14
G01 X61.017 Y73.037
G03 X60.962 Y72.982 I1.032 J-1.087
G01 X60.71 Y72.716
G03 X60.657 Y72.657 I1.087 J-1.032
G01 X60.419 Y72.379
G03 X60.37 Y72.318 I1.14 J-0.974
G01 X60.146 Y72.027
G03 X60.1 Y71.964 I1.189 J-0.913
G01 X59.893 Y71.662
G03 X59.85 Y71.596 I1.236 J-0.849
G01 X59.658 Y71.283
G03 X59.619 Y71.215 I1.278 J-0.783
G01 X59.444 Y70.893
G03 X59.409 Y70.823 I1.318 J-0.715
G01 X59.251 Y70.493
G03 X59.219 Y70.421 I1.353 J-0.645
G01 X59.079 Y70.082
G03 X59.051 Y70.009 I1.385 J-0.573
G01 X58.928 Y69.663
G03 X58.904 Y69.589 I1.413 J-0.5
G01 X58.8 Y69.237
G03 X58.779 Y69.161 I1.438 J-0.426
G01 X58.694 Y68.805
G03 X58.678 Y68.728 I1.458 J-0.35
G01 X58.611 Y68.368
G03 X58.599 Y68.29 I1.474 J-0.273
G01 X58.551 Y67.927
G03 X58.543 Y67.849 I1.487 J-0.195
G01 X58.514 Y67.484
G03 X58.51 Y67.405 I1.495 J-0.117
G01 X58.5 Y67.039
G03 Y66.96 I1.499 J-0.039
G01 X58.51 Y66.594
G03 X58.514 Y66.515 I1.499 J0.039
G01 X58.543 Y66.15
G03 X58.551 Y66.072 I1.495 J0.117
G01 X58.599 Y65.709
G03 X58.611 Y65.631 I1.487 J0.195
G01 X58.678 Y65.271
G03 X58.694 Y65.194 I1.474 J0.273
G01 X58.779 Y64.838
G03 X58.8 Y64.762 I1.458 J0.35
G01 X58.904 Y64.41
G03 X58.928 Y64.336 I1.438 J0.426
G01 X59.051 Y63.99
G03 X59.079 Y63.917 I1.413 J0.5
G01 X59.219 Y63.578
G03 X59.251 Y63.506 I1.385 J0.573
G01 X59.409 Y63.176
G03 X59.444 Y63.106 I1.353 J0.645
G01 X59.619 Y62.784
G03 X59.658 Y62.716 I1.318 J0.715
G01 X59.85 Y62.403
G03 X59.893 Y62.337 I1.278 J0.783
G01 X60.1 Y62.035
G03 X60.146 Y61.972 I1.236 J0.849
G01 X60.37 Y61.681
G03 X60.419 Y61.62 I1.189 J0.913
G01 X60.657 Y61.342
G03 X60.71 Y61.283 I1.14 J0.974
G01 X60.962 Y61.017
G03 X61.017 Y60.962 I1.087 J1.032
G01 X61.283 Y60.71
G03 X61.342 Y60.657 I1.032 J1.087
G01 X61.62 Y60.419
G03 X61.681 Y60.37 I0.974 J1.14
G01 X61.972 Y60.146
G03 X62.035 Y60.1 I0.913 J1.189
G01 X62.337 Y59.893
G03 X62.403 Y59.85 I0.849 J1.236
G01 X62.716 Y59.658
G03 X62.784 Y59.619 I0.783 J1.278
G01 X63.106 Y59.444
G03 X63.176 Y59.409 I0.715 J1.318
G01 X63.506 Y59.251
G03 X63.578 Y59.219 I0.645 J1.353
G01 X63.917 Y59.079
G03 X63.99 Y59.051 I0.573 J1.385
G01 X64.336 Y58.928
G03 X64.41 Y58.904 I0.5 J1.413
G01 X64.762 Y58.8
G03 X64.838 Y58.779 I0.426 J1.438
G01 X65.194 Y58.694
G03 X65.271 Y58.678 I0.35 J1.458
G01 X65.631 Y58.611
G03 X65.709 Y58.599 I0.273 J1.474
G01 X66.072 Y58.551
G03 X66.15 Y58.543 I0.195 J1.487
G01 X66.515 Y58.514
G03 X66.594 Y58.51 I0.117 J1.495
G01 X66.96 Y58.5
G03 X67.039 I0.039 J1.499
G01 X67.405 Y58.51
G03 X67.484 Y58.514 I-0.039 J1.499
G01 X67.849 Y58.543
G03 X67.927 Y58.551 I-0.117 J1.495
G01 X68.29 Y58.599
G03 X68.368 Y58.611 I-0.195 J1.487
G01 X68.728 Y58.678
G03 X68.805 Y58.694 I-0.273 J1.474
G01 X69.161 Y58.779
G03 X69.237 Y58.8 I-0.35 J1.458
G01 X69.589 Y58.904
G03 X69.663 Y58.928 I-0.426 J1.438
G01 X70.009 Y59.051
G03 X70.082 Y59.079 I-0.5 J1.413
G01 X70.421 Y59.219
G03 X70.493 Y59.251 I-0.573 J1.385
G01 X70.823 Y59.409
G03 X70.893 Y59.444 I-0.645 J1.353
G01 X71.215 Y59.619
G03 X71.283 Y59.658 I-0.715 J1.318
G01 X71.596 Y59.85
G03 X71.662 Y59.893 I-0.783 J1.278
G01 X71.964 Y60.1
G03 X72.027 Y60.146 I-0.849 J1.236
G01 X72.318 Y60.37
G00 Z2.0
M05
M02
 (--------------------------------------------------)
 (CAMmill-Configuration)
 (cfg:View-Zoom: 0.700000)
 (cfg:View-Helplines: 1)
 (cfg:View-ShowGrid: 1)
 (cfg:View-ShowTool: 1)
 (cfg:View-Textures: 0)
 (cfg:View-Rotate-X: -25.000000)
 (cfg:View-Rotate-Y: 0.000000)
 (cfg:View-Rotate-Z: -6.800000)
 (cfg:View-Translate-X: -10)
 (cfg:View-Translate-Y: -18)
 (cfg:View-Grid-Size: 10.000000)
 (cfg:View-Arrow-Scale: 1.000000)
 (cfg:Tool-Select: -1)
 (cfg:Tool-Number: 1)
 (cfg:Tool-Diameter: 3.000000)
 (cfg:Tool-Speed: 12000)
 (cfg:Tool-Coolant: 0)
 (cfg:Tool-Kepp spinning: 1)
 (cfg:Milling-FeedRate: 1000)
 (cfg:Milling-PlungeRate: 100)
 (cfg:Milling-Depth: -6.300000)
 (cfg:Milling-Z-Step: -2.000000)
 (cfg:Milling-Save-Move: 2.000000)
 (cfg:Milling-Overcut: 0)
 (cfg:Milling-Lasermode: 0)
 (cfg:Milling-Climb: 0)
 (cfg:Milling-NoOffsets: 0)
 (cfg:Milling-Helix: 1)
 (cfg:Milling-Velocity-Mode: 0)
 (cfg:Milling-Blending Tolerance: 0.050000)
 (cfg:Milling-DXF-File: /home/tim/3d/tim-open-things/mill-highpowerledbracket/bracket5.dxf)
 (cfg:Milling-Output-File: /home/tim/3d/tim-open-things/mill-highpowerledbracket/bracket5.ngc)
 (cfg:Pockets-Pocket: 0)
 (cfg:Pockets-Pocket-Stepover: 50)
 (cfg:Holding-Tabs-Activate: 1)
 (cfg:Holding-Tabs-Show Grid: 1)
 (cfg:Holding-Tabs-Depth: -5.000000)
 (cfg:Holding-Tabs-Length: 5.000000)
 (cfg:Holding-Tabs-Triangle-Type: 0)
 (cfg:Holding-Tabs-On Open: 0)
 (cfg:Holding-Tabs-On Inside: 0)
 (cfg:Holding-Tabs-On Outside: 1)
 (cfg:Holding-Tabs-X-Grid: 50.000000)
 (cfg:Holding-Tabs-Y-Grid: 50.000000)
 (cfg:Text-Mill Text: 0)
 (cfg:Text-Mill-Depth: -0.500000)
 (cfg:Text-Fixed-W: 1)
 (cfg:Text-Scale-W: 1.000000)
 (cfg:Text-Scale-H: 1.000000)
 (cfg:Text-Font: 0)
 (cfg:Text-Overwrite: 0)
 (cfg:Text-Tool-Number: 1)
 (cfg:Text-Tool-Diameter: 3.000000)
 (cfg:Text-Tool-Speed: 12000)
 (cfg:Machine-Fastmove-Speed: 2000)
 (cfg:Machine-Spindle-Delay: 1.000000)
 (cfg:Machine-Fast-Z: 1.000000)
 (cfg:Machine-Post: 0)
 (cfg:Machine-Post-Command: )
 (cfg:Calculation-Tool-Flutes: 2)
 (cfg:Calculation-Select: 8)
 (cfg:Calculation-Cutting Speed: 2000)
 (cfg:Calculation-Feed/Tooth@<4mm: 0.040000)
 (cfg:Calculation-Feed/Tooth@<8mm: 0.080000)
 (cfg:Calculation-Feed/Tooth@<12mm: 0.100000)
 (cfg:Calculation-CalcSpeed: 212206)
 (cfg:Calculation-MaxFeedRate: 960)
 (cfg:Objects-Select: 5)
 (cfg:Objects-Use: 1)
 (cfg:Objects-Overwrite: 1)
 (cfg:Objects-Climb: 0)
 (cfg:Objects-Offset: 1)
 (cfg:Objects-Overcut: 0)
 (cfg:Objects-Pocket: 1)
 (cfg:Objects-Helix: 1)
 (cfg:Objects-Laser: 0)
 (cfg:Objects-Depth: -1.500000)
 (cfg:Objects-Holding-Tab's: 1)
 (cfg:Objects-Order: 5)
 (cfg:Objects-Tool-Number: 1)
 (cfg:Objects-Tool-Diameter: 3.000000)
 (cfg:Objects-Tool-Speed: 12000)
 (cfg:Rotary-Activate: 0)
 (cfg:Rotary-Axis: 0)
 (cfg:Rotary-Diameter: 100.000000)
 (cfg:Tangencial-Activate: 0)
 (cfg:Tangencial-Axis: 1)
 (cfg:Tangencial-MaxAngle: 10.000000)
 (cfg:Window-X-Position: 0)
 (cfg:Window-Y-Position: 55)
 (cfg:Window-Width: 3246)
 (cfg:Window-Height: 1565)
 (cfg:Window-Maximized: 0)
 (cfg:Misc-Unit: 1)
 (cfg:Misc-Tolerance: 0.001000)
 (cfg:Misc-Tool-Table: )
 (cfg:Misc-Parameter: 0)
 (cfg:Misc-Setup-Autosave: 1)
 (cfg:Misc-Batchmode: 0)
 (cfg:Misc-LoadPath: /home/tim/3d/tim-open-things/mill-highpowerledbracket)
 (cfg:Misc-SavePath: /home/tim/3d/tim-open-things/mill-highpowerledbracket)
 (cfg:Misc-PresetPath: /home/tim)
 (cfg:Misc-Delete Double Lines: 1)
 (cfg:Misc-Zero: 1)
 (cfg:Misc-Zero-Offset-X: 0.000000)
 (cfg:Misc-Zero-Offset-Y: 0.000000)
 (cfg:Misc-Append Config: 1)
 (cfg:Misc-Texture: ../share/cammill/textures/wood.bmp)
 (cfg:Misc-NC-Debug: 0)
 (--------------------------------------------------)
